public/luts/Icecube.cube
TITLE "Generated by Resolve"
LUT_3D_SIZE 9
0 0.00222782 0
0.051545 0.0155642 0.0125277
0.158846 0.0197452 0.0175021
0.340795 0.0276951 0.0265507
0.571389 0.039826 0.040238
0.788937 0.0519722 0.0538186
0.921248 0.0600137 0.0628061
0.987716 0.0647593 0.068101
1 0.0681163 0.0719615
0 0.0801709 0.0156252
0.0534218 0.0824598 0.0184482
0.160906 0.0865949 0.0235447
0.342885 0.0948043 0.0334936
0.57319 0.106722 0.0477607
0.790051 0.117891 0.0611887
0.921736 0.125109 0.0699626
0.9879 0.129763 0.0756085
1 0.132952 0.0795453
0 0.18732 0.0254673
0.0576486 0.189822 0.0289158
0.16524 0.194141 0.0348058
0.346899 0.202136 0.0456703
0.57641 0.212696 0.059968
0.791897 0.222187 0.0730144
0.922576 0.228962 0.0823987
0.98819 0.233143 0.0881666
1 0.235996 0.0921035
0.00158694 0.367437 0.0461585
0.0678111 0.36965 0.0500191
0.174899 0.373251 0.0562295
0.355047 0.379263 0.0667277
0.582254 0.387381 0.0811017
0.795483 0.395193 0.0948043
0.924285 0.400381 0.1037
0.988785 0.403403 0.108705
1 0.405371 0.111894
0.0179294 0.589761 0.0739452
0.08365 0.591302 0.07776
0.189227 0.593835 0.084184
0.36701 0.598245 0.095201
0.591943 0.60383 0.108598
0.80209 0.608454 0.118883
0.92755 0.611246 0.124422
0.989975 0.612863 0.127367
1 0.613886 0.129244
0.036347 0.791852 0.100664
0.101625 0.792645 0.104234
0.206378 0.793942 0.109697
0.382773 0.795987 0.118013
0.606058 0.798352 0.126452
0.811353 0.800336 0.132891
0.931716 0.801663 0.137011
0.991318 0.802487 0.13959
1 0.803067 0.141497
0.0532387 0.909651 0.116091
0.118395 0.909926 0.11873
0.223041 0.910369 0.122591
0.398398 0.911086 0.128344
0.618265 0.911986 0.134936
0.817761 0.912825 0.141161
0.934188 0.913481 0.146334
0.992065 0.91397 0.150347
1 0.914305 0.153246
0.066743 0.967834 0.123201
0.131868 0.967941 0.125322
0.23595 0.968078 0.128481
0.409094 0.968277 0.133501
0.625406 0.968582 0.140002
0.82121 0.968887 0.147616
0.935714 0.969192 0.154467
0.992508 0.96936 0.158816
1 0.969497 0.161791
0.0773632 1 0.12726
0.142138 1 0.129091
0.245319 1 0.132006
0.416281 1 0.136828
0.629755 1 0.143832
0.823606 1 0.153201
0.936629 1 0.160311
0.992782 1 0.164599
1 1 0.167391
0 0.00534066 0.0653697
0.0518349 0.0168307 0.0794995
0.159197 0.0207065 0.083711
0.341131 0.0287633 0.0923018
0.57171 0.0411078 0.105241
0.789136 0.0532387 0.117876
0.921355 0.0611734 0.126162
0.987747 0.0659648 0.131212
1 0.0692912 0.134768
0 0.0809796 0.0818952
0.0538186 0.08336 0.0846113
0.161349 0.0875868 0.0894636
0.343282 0.0959029 0.0988632
0.573541 0.107866 0.11223
0.79028 0.119005 0.124651
0.921828 0.126268 0.132921
0.987945 0.130907 0.138201
1 0.134081 0.141878
0 0.188205 0.0912795
0.0582284 0.190753 0.0945602
0.165805 0.195132 0.100145
0.347402 0.203159 0.110262
0.576806 0.213672 0.123583
0.792126 0.223209 0.13579
0.922667 0.229999 0.144564
0.98822 0.234195 0.149981
1 0.237018 0.153597
0.00204471 0.368231 0.110735
0.0685435 0.370443 0.11429
0.17557 0.374029 0.120089
0.355612 0.380056 0.129885
0.58265 0.388205 0.143328
0.795743 0.396002 0.156085
0.924407 0.401129 0.164279
0.98883 0.40412 0.168887
1 0.406088 0.171801
0.0187991 0.590341 0.13666
0.0845045 0.591852 0.140276
0.18999 0.5944 0.146227
0.367681 0.598795 0.156466
0.592554 0.604318 0.16878
0.802502 0.608896 0.178088
0.927764 0.611643 0.183154
0.990066 0.613214 0.185824
1 0.614282 0.187594
0.0375067 0.792126 0.161501
0.102739 0.79295 0.164782
0.207492 0.794217 0.169787
0.383841 0.796231 0.17734
0.606973 0.798566 0.185016
0.811887 0.800549 0.190921
0.931899 0.801862 0.194766
0.991394 0.802701 0.197238
1 0.803281 0.199023
0.0547494 0.909743 0.17557
0.119936 0.910002 0.177966
0.224598 0.910475 0.18146
0.399741 0.911177 0.18674
0.619211 0.912062 0.192844
0.818189 0.912932 0.198734
0.934401 0.913573 0.203769
0.992111 0.914092 0.207568
1 0.914443 0.210315
0.0686198 0.96788 0.182071
0.133715 0.967971 0.183963
0.23769 0.968078 0.186847
0.410437 0.968322 0.19147
0.626291 0.968612 0.197635
0.821653 0.968948 0.205035
0.935882 0.969223 0.21149
0.992554 0.969406 0.215518
1 0.969528 0.218265
0.0793927 1 0.185718
0.14403 1 0.187411
0.246983 1 0.190066
0.417578 1 0.194629
0.630564 1 0.201343
0.824018 1 0.210285
0.936797 1 0.216907
0.992813 1 0.22089
1 1 0.223484
0 0.0154574 0.183688
0.052369 0.018143 0.186343
0.159808 0.0222629 0.190265
0.341772 0.0306249 0.198093
0.572259 0.0431525 0.209705
0.789487 0.0552834 0.220844
0.921477 0.0630961 0.228092
0.987839 0.0679484 0.232639
1 0.0713207 0.235813
0 0.0823835 0.188571
0.0545357 0.0848402 0.191104
0.162112 0.08925 0.195529
0.343984 0.0977646 0.204013
0.574121 0.109804 0.215885
0.790616 0.12076 0.226764
0.921981 0.128145 0.23418
0.987976 0.132799 0.238895
1 0.136034 0.242176
0 0.189746 0.197223
0.059205 0.192355 0.200168
0.16672 0.196796 0.205158
0.348241 0.204852 0.21416
0.577401 0.21529 0.225803
0.792462 0.224887 0.236744
0.922835 0.231693 0.244526
0.988266 0.235889 0.249302
1 0.238697 0.252461
0.00318914 0.369558 0.214557
0.0697948 0.371756 0.2177
0.176715 0.375296 0.222766
0.356481 0.381323 0.231434
0.583337 0.389532 0.243473
0.796201 0.397284 0.254643
0.924605 0.40235 0.261723
0.988922 0.405295 0.26566
1 0.407187 0.268116
0.0202029 0.591257 0.237507
0.0858625 0.592798 0.240726
0.191287 0.595315 0.246006
0.368841 0.599725 0.254963
0.59353 0.605142 0.265553
0.80322 0.609583 0.273457
0.9281 0.612268 0.277729
0.990173 0.61384 0.280034
1 0.614893 0.281544
0.0394293 0.79263 0.259327
0.104631 0.793439 0.262181
0.209354 0.794659 0.266468
0.385611 0.796628 0.272801
0.608515 0.798917 0.279332
0.812726 0.80087 0.284459
0.932235 0.802197 0.287907
0.991485 0.803021 0.29015
1 0.803632 0.291814
0.0573892 0.909911 0.271321
0.122576 0.910185 0.273335
0.227192 0.910628 0.276326
0.401938 0.911315 0.280797
0.620737 0.9122 0.286183
0.818891 0.913069 0.291524
0.934691 0.913787 0.296361
0.992233 0.91429 0.299825
1 0.914672 0.302266
0.071809 0.96791 0.276799
0.136767 0.968017 0.278416
0.240467 0.968124 0.280888
0.412619 0.968353 0.284947
0.627619 0.968658 0.290486
0.822385 0.969024 0.29752
0.936141 0.969299 0.303273
0.99263 0.969467 0.306889
1 0.969604 0.309316
0.0827802 1 0.279942
0.147219 1 0.281392
0.249821 1 0.283757
0.419623 1 0.287785
0.631876 1 0.294041
0.824735 1 0.302235
0.937041 1 0.30808
0.992889 1 0.311559
1 1 0.313787
0 0.018265 0.365286
0.0534676 0.0207065 0.367102
0.160998 0.0251621 0.370398
0.342931 0.0339971 0.376822
0.573251 0.0467689 0.386053
0.790097 0.0587472 0.394659
0.921752 0.0664988 0.400381
0.987915 0.071458 0.404028
1 0.074876 0.406546
0 0.0849928 0.369009
0.0559243 0.0876326 0.371099
0.163485 0.0922713 0.374716
0.345312 0.101061 0.381552
0.575174 0.11313 0.390875
0.791196 0.123903 0.399252
0.92224 0.131441 0.405219
0.988067 0.136156 0.408942
1 0.139391 0.411521
0 0.192477 0.376089
0.0609598 0.195163 0.378454
0.168429 0.199741 0.382452
0.349722 0.207828 0.389548
0.57847 0.218067 0.39852
0.793103 0.227832 0.407233
0.923125 0.234668 0.413352
0.988373 0.238804 0.417029
1 0.241581 0.419425
0.00550851 0.371878 0.389822
0.0720531 0.37406 0.392294
0.178683 0.377508 0.396139
0.358053 0.383581 0.403052
0.584558 0.391852 0.412512
0.797009 0.399542 0.421118
0.925002 0.404456 0.426398
0.989059 0.407248 0.429267
1 0.409064 0.431067
0.0227665 0.592874 0.407843
0.0883345 0.5944 0.410391
0.193606 0.596948 0.414466
0.370932 0.601282 0.421347
0.595376 0.606531 0.429206
0.804517 0.610803 0.434913
0.92874 0.613397 0.438041
0.990387 0.614923 0.43978
1 0.615961 0.440909
0.0429541 0.793469 0.424628
0.108125 0.794217 0.426719
0.212772 0.795407 0.429847
0.388952 0.797299 0.43444
0.611185 0.799512 0.439231
0.81416 0.801434 0.443168
0.932799 0.802792 0.445945
0.991653 0.803662 0.447837
1 0.804334 0.449287
0.0622873 0.910185 0.433371
0.127489 0.910475 0.434806
0.231861 0.910887 0.436988
0.405798 0.911559 0.440345
0.623316 0.912444 0.444541
0.820111 0.913359 0.449042
0.935241 0.914153 0.453254
0.992386 0.914672 0.456031
1 0.915038 0.457969
0.0775464 0.968017 0.437339
0.142214 0.968093 0.438544
0.245411 0.968215 0.440406
0.416388 0.968444 0.443565
0.629847 0.96875 0.448112
0.823636 0.969131 0.454185
0.936629 0.969421 0.458762
0.992767 0.969619 0.46157
1 0.969726 0.463401
0.0887007 1 0.439673
0.152804 1 0.440803
0.254704 1 0.442603
0.423117 1 0.445838
0.634241 1 0.451362
0.825864 1 0.457969
0.937469 1 0.46247
0.993027 1 0.465064
1 1 0.466697
0 0.0216983 0.595254
0.0551308 0.0244297 0.596674
0.162692 0.0292973 0.599145
0.34461 0.0385901 0.603784
0.574578 0.0515145 0.610285
0.790875 0.0631266 0.616175
0.922087 0.0711223 0.620295
0.988006 0.076173 0.622904
1 0.0796368 0.624674
0 0.0886854 0.598108
0.0579538 0.0915389 0.599634
0.165499 0.0964523 0.602304
0.347143 0.105501 0.607172
0.576593 0.117449 0.613596
0.792004 0.128206 0.619501
0.922621 0.135836 0.623758
0.98819 0.140581 0.626398
1 0.143801 0.628168
0 0.196231 0.603281
0.063447 0.199008 0.604959
0.170794 0.203647 0.607813
0.351781 0.211688 0.61268
0.579873 0.22182 0.618967
0.793957 0.231739 0.625193
0.923522 0.238529 0.629435
0.988525 0.242603 0.631937
1 0.245304 0.633585
0.0087129 0.374899 0.612909
0.0749981 0.376974 0.614542
0.181308 0.380392 0.617258
0.360174 0.386572 0.622217
0.586267 0.394903 0.62884
0.798138 0.40238 0.634668
0.925551 0.40708 0.638132
0.989273 0.40972 0.639948
1 0.411414 0.641077
0.0262913 0.59501 0.62562
0.0917525 0.596551 0.627359
0.196872 0.599069 0.630198
0.373877 0.603265 0.634821
0.598032 0.60827 0.639918
0.806348 0.612299 0.643534
0.929549 0.614816 0.645609
0.990677 0.616342 0.646784
1 0.617334 0.647578
0.0479438 0.794507 0.637003
0.113085 0.795239 0.638331
0.217716 0.796353 0.640314
0.393622 0.798123 0.643229
0.614771 0.800259 0.646418
0.816037 0.802213 0.64921
0.933501 0.803601 0.651301
0.991852 0.804593 0.652873
1 0.805386 0.654139
0.069276 0.910582 0.642557
0.13434 0.910811 0.643488
0.238224 0.911223 0.644892
0.41088 0.911894 0.647181
0.62652 0.912795 0.650202
0.821805 0.913802 0.653925
0.935927 0.914641 0.65713
0.992569 0.915175 0.659129
1 0.915541 0.660471
0.0852827 0.968109 0.645106
0.149599 0.968185 0.645945
0.251881 0.968322 0.647227
0.421134 0.968551 0.649485
0.632868 0.968887 0.653132
0.825208 0.969314 0.657801
0.937224 0.969589 0.661051
0.99295 0.969757 0.662943
1 0.969863 0.664149
0.0966354 1 0.646723
0.160128 1 0.647486
0.26096 1 0.648783
0.427375 1 0.651194
0.637324 1 0.655695
0.827298 1 0.660471
0.937972 1 0.663569
0.993133 1 0.665263
1 1 0.6663
0 0.0252842 0.812955
0.0569314 0.0282597 0.813809
0.164508 0.033402 0.815229
0.346242 0.0429999 0.817945
0.575891 0.0559091 0.821546
0.791623 0.0673838 0.824796
0.922438 0.0755169 0.827131
0.988144 0.0806287 0.82858
1 0.0840772 0.829557
0 0.0924086 0.814633
0.0600137 0.0954147 0.815534
0.167544 0.100511 0.81709
0.348928 0.109651 0.819821
0.577905 0.12134 0.823331
0.792767 0.13228 0.826688
0.922957 0.140002 0.829038
0.988327 0.144717 0.830488
1 0.14786 0.831418
3.0518e-05 0.199832 0.817639
0.0659342 0.202686 0.818586
0.173129 0.207324 0.820172
0.353704 0.215167 0.822828
0.581231 0.225422 0.826368
0.794827 0.235401 0.829816
0.923949 0.2421 0.83209
0.988678 0.246067 0.833432
1 0.248676 0.834257
0.0116884 0.377615 0.82295
0.07776 0.37969 0.823865
0.183764 0.383169 0.825391
0.362264 0.389441 0.828183
0.587945 0.397696 0.831769
0.799298 0.404944 0.834806
0.926146 0.4094 0.83653
0.989502 0.411902 0.837461
1 0.413504 0.83801
0.0297551 0.597025 0.830045
0.09514 0.59855 0.830991
0.200122 0.601007 0.832502
0.376898 0.605081 0.834897
0.600763 0.609812 0.837415
0.808164 0.613672 0.839231
0.930343 0.616144 0.840299
0.990936 0.617639 0.840925
1 0.618677 0.841352
0.0530556 0.795438 0.835966
0.118196 0.796139 0.836637
0.222873 0.797177 0.837613
0.398215 0.798886 0.839063
0.618128 0.800977 0.840711
0.81767 0.802945 0.842283
0.934173 0.804456 0.84358
0.992065 0.805631 0.844572
1 0.806455 0.845273
0.0762493 0.910903 0.838727
0.141024 0.911131 0.839185
0.244312 0.911528 0.839933
0.415549 0.9122 0.841138
0.629358 0.913115 0.842878
0.823346 0.914244 0.845167
0.936538 0.915129 0.846937
0.992737 0.915648 0.84799
1 0.915999 0.848692
0.092668 0.968215 0.840024
0.156497 0.968307 0.840467
0.257893 0.968429 0.841154
0.425284 0.968658 0.842451
0.635813 0.969039 0.844709
0.826581 0.969451 0.847303
0.937728 0.969726 0.848981
0.993072 0.969894 0.849943
1 0.969985 0.850538
0.103944 1 0.840894
0.166812 1 0.841306
0.266545 1 0.842023
0.431312 1 0.843519
0.640101 1 0.846159
0.828534 1 0.848692
0.938415 1 0.850248
0.99324 1 0.851026
1 1 0.852232
0 0.0278935 0.945769
0.0582589 0.0309911 0.946166
0.165805 0.036286 0.946792
0.347463 0.046067 0.947967
0.576822 0.058793 0.949493
0.792142 0.0703288 0.950896
0.922667 0.0785687 0.951888
0.98822 0.08365 0.952514
1 0.0870832 0.952941
0 0.0950637 0.946532
0.0615396 0.0981308 0.946929
0.169024 0.103349 0.947585
0.350225 0.11249 0.94876
0.57879 0.12401 0.950256
0.793286 0.135103 0.95169
0.923217 0.142809 0.952697
0.988403 0.147494 0.953323
1 0.150607 0.953689
0.00117494 0.20238 0.947829
0.0676738 0.205203 0.948241
0.174792 0.209827 0.948928
0.354986 0.217517 0.950042
0.582208 0.227924 0.951568
0.795438 0.237888 0.953048
0.924224 0.244495 0.953994
0.988785 0.248356 0.954528
1 0.250904 0.954864
0.0136873 0.379461 0.950088
0.0796674 0.381567 0.9505
0.185489 0.385107 0.951141
0.363714 0.391394 0.952346
0.589181 0.399588 0.953857
0.800137 0.406638 0.955077
0.926574 0.41091 0.955795
0.989639 0.413306 0.95613
1 0.414878 0.956359
0.0323033 0.598383 0.953124
0.0975814 0.599893 0.953506
0.202502 0.602319 0.954147
0.379095 0.606271 0.955123
0.602792 0.610819 0.956115
0.809384 0.614588 0.956863
0.930877 0.617029 0.957305
0.991104 0.61854 0.95758
1 0.619562 0.957763
0.0568399 0.796063 0.955535
0.122057 0.796704 0.955825
0.226627 0.797726 0.956207
0.401434 0.79939 0.956802
0.620356 0.801465 0.957473
0.818723 0.803464 0.958175
0.93463 0.805142 0.95877
0.992203 0.806348 0.959213
1 0.807202 0.959533
0.081178 0.911116 0.956634
0.145724 0.911345 0.956832
0.248493 0.911727 0.957153
0.418662 0.912398 0.957671
0.631251 0.913359 0.95845
0.824384 0.914549 0.959487
0.936919 0.915434 0.96025
0.992874 0.915938 0.960678
1 0.916259 0.960967
0.0977035 0.968292 0.957198
0.161151 0.968353 0.957366
0.261799 0.96849 0.957687
0.427939 0.968734 0.958251
0.637751 0.969131 0.959289
0.827497 0.969573 0.960388
0.938064 0.969833 0.961089
0.993164 0.96997 0.961486
1 0.970062 0.961715
0.108843 1 0.957549
0.171221 1 0.957763
0.270115 1 0.958038
0.434104 1 0.958755
0.641886 1 0.959915
0.829313 1 0.960983
0.938659 1 0.961608
0.993332 1 0.962127
1 1 0.962829
0 0.0295415 1
0.0591135 0.0327001 1
0.166674 0.038117 1
0.348211 0.0478981 1
0.577356 0.0605478 1
0.792462 0.0721904 1
0.92282 0.0804456 1
0.988251 0.0854963 1
1 0.0889448 1
0 0.0967269 1
0.062501 0.0998398 1
0.16994 0.105104 1
0.351034 0.114214 1
0.57937 0.125658 1
0.793652 0.136843 1
0.923369 0.144549 1
0.988449 0.149157 1
1 0.152255 1
0.00218204 0.203922 1
0.0688029 0.206744 1
0.17583 0.211322 1
0.355779 0.218967 1
0.582803 0.229435 1
0.795834 0.239384 1
0.924422 0.245914 1
0.988846 0.249729 1
1 0.252201 1
0.0149233 0.380591 1
0.0807965 0.382712 1
0.186557 0.386297 1
0.36466 0.392599 1
0.589975 0.400717 1
0.800671 0.40763 1
0.926863 0.411795 1
0.989746 0.41416 1
1 0.415686 1
0.0338598 0.599191 1
0.0991379 0.600702 1
0.204028 0.603098 1
0.380514 0.606973 1
0.604074 0.611414 1
0.810162 0.615137 1
0.931212 0.617578 1
0.991196 0.619089 1
1 0.620127 1
0.0593271 0.796414 1
0.124529 0.797055 1
0.229007 0.798047 1
0.403418 0.799695 1
0.621714 0.801755 1
0.819364 0.8038 1
0.93489 0.805585 1
0.992279 0.806806 1
1 0.80766 1
0.0842603 0.911254 1
0.148623 0.911482 1
0.251026 0.911849 1
0.420478 0.912535 1
0.632456 0.913527 1
0.82501 0.914763 1
0.937163 0.915618 1
0.99292 0.916121 1
1 0.916426 1
0.100816 0.968353 1
0.163973 0.968414 1
0.264179 0.968536 1
0.429572 0.96878 1
0.638926 0.969207 1
0.828031 0.969619 1
0.938262 0.969894 1
0.993194 0.970031 1
1 0.970092 1
0.111788 1 1
0.173846 1 1
0.272221 1 1
0.435859 1 1
0.642969 1 1
0.82974 1 1
0.938811 1 1
0.993332 1 1
1 1 1
0 0.0307317 1
0.0597543 0.0339055 1
0.167254 0.0393683 1
0.34873 0.0491798 1
0.577752 0.0617227 1
0.792676 0.0734264 1
0.922927 0.0816968 1
0.988312 0.0867933 1
1 0.0901503 1
0 0.0978866 1
0.0632029 0.101045 1
0.170596 0.106249 1
0.351553 0.115358 1
0.579736 0.126802 1
0.793896 0.138018 1
0.923476 0.145708 1
0.988479 0.150332 1
1 0.153414 1
0.00299077 0.204959 1
0.0695659 0.207797 1
0.176562 0.21236 1
0.356329 0.219959 1
0.58323 0.230488 1
0.796109 0.240421 1
0.924575 0.246891 1
0.988891 0.250645 1
1 0.253056 1
0.0157778 0.381369 1
0.0816205 0.38352 1
0.187304 0.387106 1
0.365301 0.393423 1
0.590539 0.401495 1
0.801068 0.408286 1
0.927047 0.41239 1
0.989807 0.414725 1
1 0.416266 1
0.0349432 0.599756 1
0.100237 0.601267 1
0.205051 0.603616 1
0.381521 0.607431 1
0.604944 0.611826 1
0.810712 0.615518 1
0.931426 0.61796 1
0.991241 0.619486 1
1 0.620523 1
0.0610208 0.796658 1
0.126207 0.797284 1
0.230671 0.79826 1
0.404791 0.799893 1
0.622629 0.801968 1
0.819806 0.804044 1
0.935073 0.805875 1
0.99234 0.807126 1
1 0.807965 1
0.086305 0.91133 1
0.150561 0.911559 1
0.252766 0.911955 1
0.421744 0.912612 1
0.633295 0.913649 1
0.825406 0.914885 1
0.93727 0.915755 1
0.992966 0.916228 1
1 0.916548 1
0.102876 0.968353 1
0.165835 0.968444 1
0.265751 0.968582 1
0.430716 0.968826 1
0.639704 0.969253 1
0.828367 0.969665 1
0.938338 0.969924 1
0.99324 0.970031 1
1 0.970153 1
0.113741 1 1
0.175586 1 1
0.27361 1 1
0.437034 1 1
0.643687 1 1
0.83006 1 1
0.938903 1 1
0.993332 1 1
1 1 1
