public/luts/Icecube.cube
TITLE "Generated by Resolve"
LUT_3D_SIZE 33
0 0.00222782 0
0.000976577 0.00396735 0
0.0159915 0.00654612 0.000946059
0.0327916 0.0110323 0.00686656
0.051545 0.0155642 0.0125277
0.0729839 0.0167391 0.0139925
0.0976272 0.0175326 0.0149233
0.12607 0.0185397 0.016083
0.158846 0.0197452 0.0175021
0.196506 0.0212711 0.0192416
0.239612 0.0230564 0.0213016
0.288045 0.0252079 0.0237278
0.340795 0.0276951 0.0265507
0.396506 0.0304112 0.0296635
0.454002 0.033402 0.0330358
0.512306 0.0365911 0.0366064
0.571389 0.039826 0.040238
0.630503 0.0430915 0.0438697
0.687648 0.0462806 0.047425
0.741009 0.0492409 0.0507668
0.788937 0.0519722 0.0538186
0.830549 0.0544289 0.0565347
0.866056 0.0565347 0.0588998
0.89604 0.0584115 0.0610056
0.921248 0.0600137 0.0628061
0.942412 0.0614023 0.0643473
0.960128 0.0626841 0.0657664
0.975067 0.0637675 0.0669871
0.987716 0.0647593 0.068101
0.997894 0.0656901 0.0691539
1 0.0665141 0.070161
1 0.0673228 0.071046
1 0.0681163 0.0719615
0 0.0205539 0.000686656
0.000976577 0.0242771 0.00585946
0.0160525 0.0292668 0.0121767
0.0330663 0.0302739 0.0133669
0.0519112 0.0310063 0.0142519
0.0733654 0.0317235 0.0150912
0.0980392 0.032517 0.0161135
0.126436 0.0336004 0.0173495
0.159258 0.0348516 0.0188144
0.196948 0.0363775 0.0205539
0.24007 0.038117 0.0226444
0.288502 0.0403449 0.0251469
0.341222 0.0428626 0.0280461
0.396963 0.0456397 0.0312505
0.454444 0.0485695 0.0346838
0.512718 0.0517891 0.0382696
0.571801 0.055024 0.0419165
0.630884 0.0582284 0.0455787
0.688014 0.061265 0.0490883
0.741314 0.064271 0.0524147
0.789166 0.0669566 0.0554513
0.830747 0.0693217 0.0581674
0.866194 0.0713817 0.0605478
0.896178 0.0732433 0.0625925
0.92137 0.0747539 0.064332
0.942504 0.0761578 0.065919
0.960189 0.0772869 0.0673228
0.975128 0.0784619 0.0686046
0.987747 0.0795148 0.06981
0.997925 0.080415 0.0708171
1 0.081178 0.0717784
1 0.0820325 0.072755
1 0.0827802 0.073579
0 0.044007 0.0122377
0.0011902 0.0446021 0.0130617
0.0164187 0.0454871 0.0140536
0.0334478 0.0459602 0.0147402
0.0522927 0.0466468 0.0154879
0.0737774 0.047303 0.0163424
0.0984512 0.048249 0.0174105
0.126909 0.0492256 0.0186618
0.159747 0.0505531 0.0201877
0.197436 0.0520638 0.0219883
0.240558 0.0539559 0.0241398
0.288991 0.0560922 0.0267033
0.341695 0.0586709 0.0296483
0.397406 0.061387 0.0328832
0.454902 0.0644541 0.0363928
0.513161 0.0675212 0.0400092
0.572213 0.0707561 0.0436713
0.631266 0.0738994 0.0473335
0.68835 0.0770733 0.0509041
0.741619 0.0798505 0.0542153
0.789441 0.0825208 0.0572519
0.830976 0.0847639 0.0599069
0.866392 0.0868391 0.062211
0.896315 0.0885176 0.0642405
0.921462 0.0901198 0.0660716
0.942596 0.0914168 0.067628
0.960266 0.0926833 0.0690623
0.975189 0.0937972 0.0703593
0.987823 0.0948348 0.0715496
0.997955 0.0956436 0.0725719
1 0.0965133 0.0735485
1 0.0972763 0.0744945
1 0.0981308 0.0754406
0 0.0614023 0.0141909
0.00164797 0.0618753 0.0147707
0.016907 0.0623331 0.0153658
0.0339361 0.0629587 0.0160372
0.0528115 0.0636301 0.016846
0.0743114 0.0643626 0.0177462
0.0990005 0.0651713 0.0188754
0.127474 0.0663462 0.0201877
0.160296 0.0676585 0.0217441
0.198001 0.0692149 0.0236057
0.241123 0.0710155 0.0258488
0.28954 0.0732738 0.0284581
0.342245 0.0757763 0.0314336
0.397955 0.0785687 0.0347295
0.455406 0.0814832 0.0382544
0.513649 0.0846723 0.0419165
0.572656 0.0878309 0.0456092
0.631693 0.090959 0.0492866
0.688762 0.093904 0.0528115
0.74197 0.0967727 0.0560922
0.789731 0.099321 0.0590982
0.831205 0.101579 0.0617533
0.86659 0.10341 0.0639963
0.896468 0.105196 0.066041
0.921569 0.106737 0.0679026
0.942672 0.10808 0.0695048
0.960327 0.109239 0.070985
0.97525 0.110399 0.072282
0.987869 0.111391 0.0734569
0.997986 0.112276 0.0744945
1 0.113024 0.0755169
1 0.113863 0.0764324
1 0.114641 0.0773632
0 0.0801709 0.0156252
0.0021973 0.0806592 0.0162356
0.0174868 0.0811933 0.0168765
0.0345159 0.0818341 0.0176242
0.0534218 0.0824598 0.0184482
0.0749371 0.0832532 0.01944
0.0996262 0.0841688 0.0205844
0.128069 0.0852674 0.0219272
0.160906 0.0865949 0.0235447
0.198611 0.0881971 0.025452
0.241749 0.0900893 0.0277714
0.290166 0.0922866 0.0304723
0.342885 0.0948043 0.0334936
0.398581 0.0975662 0.03682
0.455985 0.100526 0.0403601
0.514168 0.103624 0.0440528
0.57319 0.106722 0.0477607
0.632181 0.109758 0.0514382
0.689174 0.112688 0.0549477
0.742351 0.115419 0.0582284
0.790051 0.117891 0.0611887
0.831464 0.120027 0.0637522
0.866819 0.121904 0.0660258
0.896651 0.123583 0.0680858
0.921736 0.125109 0.0699626
0.942809 0.126497 0.0716259
0.960449 0.127672 0.073106
0.975296 0.128786 0.074403
0.9879 0.129763 0.0756085
0.998001 0.130648 0.0766918
1 0.131426 0.0776837
1 0.132219 0.0785992
1 0.132952 0.0795453
0 0.101595 0.0174105
0.00289921 0.102098 0.0180819
0.018204 0.102556 0.0187381
0.0352178 0.103243 0.0195163
0.054139 0.103929 0.0204013
0.075639 0.104738 0.0214237
0.100359 0.105608 0.0225681
0.128832 0.106828 0.0239719
0.161669 0.108141 0.0256809
0.199374 0.109728 0.0276646
0.242542 0.111559 0.0300298
0.290944 0.113863 0.0327459
0.343618 0.116365 0.0358282
0.399252 0.119112 0.0392004
0.456626 0.121965 0.0428016
0.514824 0.125063 0.0465095
0.5738 0.128099 0.0502174
0.632761 0.13109 0.0538796
0.689693 0.133837 0.0573587
0.742794 0.136538 0.0605631
0.790417 0.138872 0.063447
0.831769 0.140963 0.0660258
0.867048 0.142733 0.0683452
0.896849 0.144518 0.0704662
0.921904 0.146029 0.0723888
0.942931 0.147372 0.074052
0.96054 0.14847 0.0755627
0.975372 0.14963 0.0769055
0.987945 0.150576 0.0780652
0.998032 0.151446 0.0791333
1 0.152163 0.0801709
1 0.152987 0.0810712
1 0.15375 0.0820478
0 0.126207 0.0195926
0.00375372 0.12665 0.0202487
0.0191043 0.127291 0.0209964
0.0361486 0.127794 0.0217746
0.0550851 0.128603 0.0227054
0.0766003 0.12932 0.0237125
0.101305 0.130404 0.0249638
0.129793 0.131456 0.0264286
0.162646 0.132891 0.0281987
0.200336 0.134386 0.0302129
0.243473 0.136416 0.0326696
0.291844 0.138521 0.0354467
0.344503 0.1411 0.0385901
0.400122 0.143709 0.0420081
0.45745 0.14667 0.045655
0.515587 0.149508 0.0493324
0.574517 0.15256 0.0530251
0.633417 0.155352 0.0566567
0.690303 0.15816 0.0601053
0.743282 0.160525 0.0632181
0.790829 0.162875 0.0661021
0.832105 0.164858 0.0687419
0.867308 0.166796 0.0711376
0.897078 0.168383 0.0733043
0.922072 0.16997 0.075227
0.943069 0.171176 0.0769055
0.960647 0.172473 0.0784466
0.975464 0.173404 0.0797589
0.988006 0.174411 0.0809339
0.998062 0.175143 0.0820172
1 0.176059 0.0831006
1 0.176684 0.0839704
1 0.177493 0.0849317
0 0.154574 0.0222324
0.00485237 0.155123 0.0229343
0.0202487 0.155596 0.023682
0.0373083 0.156313 0.0245365
0.0562142 0.157031 0.0254978
0.0777447 0.157855 0.0265812
0.10248 0.15874 0.0278782
0.130968 0.160006 0.0294041
0.163806 0.161364 0.0312352
0.201526 0.162982 0.0332952
0.244602 0.164752 0.0357671
0.292973 0.167056 0.0386511
0.345571 0.169512 0.0418402
0.401129 0.172137 0.045304
0.458412 0.174823 0.0489357
0.516518 0.177768 0.0526436
0.575387 0.180575 0.0562905
0.634226 0.183322 0.0598459
0.691005 0.185763 0.0632029
0.743877 0.188235 0.066331
0.791333 0.190478 0.0692607
0.832532 0.192523 0.0719768
0.867658 0.194202 0.0743877
0.897337 0.195941 0.076585
0.922286 0.197421 0.0785382
0.943252 0.198703 0.0802167
0.960784 0.199725 0.0817273
0.975555 0.20087 0.0831159
0.988083 0.201755 0.0842908
0.998108 0.202564 0.0854047
1 0.20322 0.0863813
1 0.204059 0.0873579
1 0.204715 0.0882277
0 0.18732 0.0254673
0.00624094 0.187854 0.0262455
0.0217136 0.188479 0.027039
0.0387579 0.18909 0.0279088
0.0576486 0.189822 0.0289158
0.0791943 0.190677 0.0300755
0.10396 0.191623 0.0314183
0.132418 0.192782 0.0329747
0.16524 0.194141 0.0348058
0.202945 0.195743 0.0370184
0.246021 0.19762 0.0395209
0.294347 0.199756 0.0424353
0.346899 0.202136 0.0456703
0.402411 0.204685 0.0491188
0.459602 0.20734 0.0527352
0.517601 0.21004 0.0563821
0.57641 0.212696 0.059968
0.635142 0.215244 0.063447
0.691783 0.217685 0.0667887
0.744549 0.220005 0.0699931
0.791897 0.222187 0.0730144
0.833005 0.224186 0.0757763
0.86807 0.225956 0.078233
0.897673 0.227543 0.0804456
0.922576 0.228962 0.0823987
0.94345 0.230198 0.0840925
0.960937 0.231312 0.0856336
0.975677 0.232288 0.0869764
0.98819 0.233143 0.0881666
0.998154 0.233921 0.08925
1 0.234653 0.0902419
1 0.235355 0.0912032
1 0.235996 0.0921035
0 0.224872 0.0294347
0.00799573 0.225406 0.0302434
0.0234836 0.225864 0.0310521
0.0405737 0.226658 0.0319982
0.0594949 0.227375 0.0330205
0.0810254 0.228229 0.0342107
0.105745 0.229007 0.0355535
0.134203 0.23032 0.0372168
0.167041 0.231647 0.0391241
0.2047 0.233234 0.0413519
0.24773 0.234882 0.0438849
0.29601 0.237079 0.0468452
0.348486 0.239353 0.0500801
0.403922 0.241794 0.0535286
0.461006 0.244144 0.0570535
0.518914 0.246815 0.0606394
0.577585 0.249287 0.0641642
0.636179 0.251698 0.067628
0.692683 0.253925 0.0710155
0.745327 0.256352 0.0743572
0.792569 0.258457 0.0774395
0.83357 0.260395 0.0802319
0.868528 0.261952 0.0827192
0.898054 0.26363 0.0849317
0.922881 0.264988 0.0868849
0.943694 0.266178 0.0886091
0.961135 0.267079 0.090074
0.97583 0.268132 0.0914168
0.988296 0.26894 0.0925917
0.998276 0.269718 0.0936751
1 0.270237 0.0946517
1 0.271046 0.095552
1 0.271656 0.0964523
0 0.26772 0.034226
0.0102083 0.26807 0.0350347
0.0257877 0.268833 0.0359197
0.0428168 0.269306 0.03682
0.0617685 0.270207 0.0379492
0.0832685 0.270832 0.0391394
0.107988 0.271946 0.0405585
0.136416 0.272862 0.0422065
0.169207 0.274327 0.0441444
0.206821 0.275654 0.0464027
0.249805 0.277546 0.0489967
0.298009 0.279332 0.0519112
0.350408 0.281651 0.0551461
0.405692 0.283711 0.0584726
0.462638 0.286168 0.0619211
0.520378 0.288304 0.0654002
0.578912 0.290837 0.0690013
0.637369 0.293004 0.0725719
0.693767 0.295476 0.076112
0.746288 0.29749 0.079469
0.793378 0.299702 0.0825971
0.834226 0.301366 0.0853742
0.869093 0.303151 0.0878767
0.898528 0.304433 0.0900587
0.923247 0.305867 0.0920119
0.943999 0.306813 0.0936751
0.961379 0.307973 0.0951858
0.975998 0.308644 0.096437
0.988418 0.30959 0.097612
0.998367 0.310124 0.0986343
1 0.310918 0.0996109
1 0.311345 0.10045
1 0.312078 0.101335
0 0.315633 0.0398413
0.0129549 0.316152 0.0406958
0.0285801 0.316518 0.0415656
0.0456397 0.317327 0.0425422
0.0645304 0.318013 0.0436561
0.0860151 0.318776 0.0448768
0.110689 0.319463 0.0463111
0.139101 0.320714 0.0480049
0.171847 0.32192 0.0499275
0.2094 0.323308 0.0521553
0.252262 0.324697 0.0547189
0.300374 0.326711 0.0576181
0.352636 0.328634 0.0607004
0.407736 0.330663 0.0639506
0.464469 0.332601 0.0673838
0.522072 0.334981 0.0710002
0.580468 0.337224 0.0746929
0.638788 0.339483 0.0783703
0.695033 0.341466 0.0819257
0.747417 0.34374 0.085359
0.794339 0.345632 0.0884565
0.835065 0.347341 0.0912184
0.86978 0.348684 0.0936446
0.899092 0.35021 0.0958267
0.92372 0.35137 0.0977035
0.944366 0.352392 0.0993057
0.961654 0.353094 0.10071
0.976226 0.354055 0.101961
0.988586 0.354772 0.103075
0.998474 0.355398 0.104067
1 0.355779 0.104936
1 0.356512 0.105791
1 0.357015 0.106569
0.00158694 0.367437 0.0461585
0.0162356 0.36791 0.0470436
0.0319219 0.368444 0.0479438
0.0489357 0.368994 0.0488899
0.0678111 0.36965 0.0500191
0.08925 0.370352 0.0512245
0.113909 0.371191 0.0526741
0.142229 0.372152 0.0543526
0.174899 0.373251 0.0562295
0.212375 0.374502 0.0583963
0.255116 0.375906 0.0608682
0.303014 0.377508 0.0636454
0.355047 0.379263 0.0667277
0.409949 0.38117 0.0700542
0.466514 0.383185 0.07364
0.523964 0.385275 0.0773327
0.582254 0.387381 0.0811017
0.640452 0.389487 0.0848096
0.696529 0.391531 0.0883803
0.748714 0.393469 0.0917525
0.795483 0.395193 0.0948043
0.836027 0.396735 0.0975052
0.870588 0.398138 0.0998703
0.899763 0.399344 0.10193
0.924285 0.400381 0.1037
0.944823 0.401297 0.105196
0.962005 0.40206 0.106508
0.976486 0.402762 0.107668
0.988785 0.403403 0.108705
0.998596 0.403952 0.109606
1 0.404456 0.110445
1 0.404929 0.111208
1 0.405371 0.111894
0.00495918 0.421698 0.052903
0.0200198 0.422141 0.0537728
0.0356603 0.422385 0.0546578
0.0526741 0.423133 0.0556649
0.0715038 0.423697 0.0567178
0.0929122 0.424338 0.0579385
0.117479 0.424842 0.0592966
0.145708 0.425895 0.0608988
0.178241 0.426886 0.0627451
0.215549 0.428 0.0648661
0.258106 0.429053 0.0673075
0.305821 0.430747 0.0701762
0.357687 0.432395 0.0733654
0.41239 0.434195 0.0768139
0.468757 0.435874 0.0804456
0.52607 0.438025 0.0842298
0.584268 0.439994 0.0879988
0.642313 0.441901 0.0916762
0.698222 0.443519 0.0951553
0.75024 0.445472 0.098436
0.796826 0.447028 0.101366
0.837171 0.448402 0.103899
0.871534 0.449424 0.106065
0.900542 0.450675 0.108003
0.92491 0.451591 0.109636
0.945342 0.452384 0.111009
0.962432 0.452842 0.112169
0.976806 0.453635 0.113237
0.989013 0.45417 0.114153
0.998749 0.454658 0.114961
1 0.454871 0.115663
1 0.455467 0.11635
1 0.455848 0.11696
0.00918593 0.477073 0.0598306
0.0241703 0.477241 0.0606394
0.0397955 0.477882 0.0615244
0.0566873 0.478096 0.0624552
0.0754559 0.478813 0.063508
0.0967575 0.479164 0.0646677
0.121248 0.480049 0.0660868
0.149325 0.480568 0.0676585
0.18172 0.481682 0.0695659
0.21886 0.48249 0.0717021
0.261295 0.483925 0.0743114
0.308843 0.4851 0.0772106
0.360525 0.486854 0.0804913
0.415061 0.488273 0.0839857
0.47126 0.490242 0.0876936
0.528435 0.491814 0.0914015
0.586526 0.493797 0.0951095
0.644434 0.495308 0.0986343
0.700191 0.497169 0.102007
0.75198 0.498451 0.105043
0.798337 0.500038 0.107774
0.838483 0.50103 0.110079
0.872648 0.502281 0.112078
0.901473 0.502953 0.113756
0.925658 0.503944 0.11519
0.945937 0.504417 0.116381
0.962905 0.505196 0.117449
0.977157 0.505501 0.118334
0.989303 0.506127 0.119112
0.998932 0.50634 0.119799
1 0.50692 0.120439
1 0.507027 0.120989
1 0.507576 0.121553
0.0135348 0.53312 0.066804
0.0284733 0.533471 0.067628
0.0439918 0.533639 0.068452
0.0608377 0.534249 0.0694591
0.0794995 0.534722 0.0704967
0.10074 0.535256 0.0717021
0.125078 0.535653 0.0731212
0.153079 0.536583 0.0748302
0.185367 0.537423 0.0767834
0.222385 0.538399 0.0790417
0.264683 0.539315 0.0816205
0.312123 0.540841 0.0846265
0.363638 0.54226 0.087892
0.418021 0.54377 0.091371
0.474037 0.545129 0.0949416
0.53109 0.546975 0.098558
0.589075 0.548562 0.102083
0.64686 0.550088 0.105409
0.702388 0.551308 0.108476
0.753979 0.55285 0.111269
0.800092 0.554009 0.113695
0.839979 0.555047 0.115755
0.87393 0.555688 0.117449
0.902571 0.556664 0.118914
0.926558 0.557336 0.12015
0.946639 0.5579 0.121172
0.963439 0.558175 0.122057
0.977615 0.558831 0.122866
0.989624 0.559213 0.123522
0.999146 0.559548 0.124102
1 0.559655 0.124636
1 0.560143 0.125154
1 0.560433 0.125612
0.0179294 0.589761 0.0739452
0.0328222 0.590127 0.0747997
0.0482795 0.590478 0.0756847
0.0650645 0.590845 0.0767071
0.08365 0.591302 0.07776
0.104829 0.591791 0.079057
0.129091 0.592371 0.0805066
0.157015 0.593042 0.0822003
0.189227 0.593835 0.084184
0.226154 0.594736 0.0864424
0.26833 0.595773 0.0890516
0.315618 0.596948 0.0920119
0.36701 0.598245 0.095201
0.421256 0.599603 0.0985733
0.477104 0.601007 0.101976
0.534051 0.602426 0.105348
0.591943 0.60383 0.108598
0.649561 0.605127 0.111635
0.70489 0.606332 0.114366
0.756237 0.607462 0.116777
0.80209 0.608454 0.118883
0.841718 0.609293 0.120623
0.87541 0.610025 0.122118
0.903792 0.610666 0.123369
0.92755 0.611246 0.124422
0.947448 0.611719 0.125322
0.964096 0.612131 0.126101
0.978119 0.612512 0.126787
0.989975 0.612863 0.127367
0.999374 0.613123 0.127901
1 0.613397 0.128374
1 0.613657 0.128862
1 0.613886 0.129244
0.0224155 0.645777 0.0812085
0.0372778 0.646097 0.0820935
0.0526741 0.646204 0.0829786
0.0694285 0.646754 0.0840009
0.0879683 0.647166 0.085069
0.109087 0.647608 0.0863661
0.133303 0.647898 0.0878004
0.161166 0.648737 0.0895247
0.193286 0.649439 0.0914626
0.230137 0.650233 0.0936751
0.27219 0.650919 0.0962081
0.319387 0.652171 0.0990616
0.370642 0.653284 0.102098
0.42475 0.654459 0.105257
0.480446 0.655451 0.108385
0.537301 0.656855 0.111498
0.595117 0.658 0.114366
0.652583 0.659068 0.117021
0.707698 0.659861 0.119371
0.758785 0.66099 0.121462
0.804334 0.661799 0.123262
0.843656 0.662501 0.124788
0.877043 0.662913 0.12607
0.905135 0.663676 0.127199
0.928649 0.664134 0.128145
0.948333 0.66453 0.128954
0.964767 0.664683 0.129641
0.978622 0.665217 0.130282
0.990356 0.665492 0.1308
0.999619 0.665736 0.131289
1 0.665766 0.131701
1 0.666209 0.132189
1 0.666392 0.132586
0.0270237 0.699153 0.0882582
0.041825 0.699229 0.0891127
0.0572366 0.699718 0.0900587
0.0739147 0.699794 0.0910048
0.0924544 0.700359 0.092134
0.113497 0.700542 0.0933089
0.137697 0.701198 0.0947738
0.165484 0.701518 0.0964218
0.197543 0.702312 0.0983139
0.234302 0.70277 0.100404
0.276326 0.703761 0.102861
0.323369 0.704417 0.105486
0.374517 0.705547 0.108324
0.428458 0.70631 0.111162
0.484062 0.707485 0.114031
0.540825 0.708247 0.116716
0.598596 0.709361 0.119219
0.655909 0.710033 0.121492
0.710826 0.71104 0.123583
0.761563 0.711574 0.125368
0.806729 0.712428 0.12697
0.845685 0.712825 0.128328
0.878737 0.713527 0.129503
0.906508 0.713802 0.13051
0.929747 0.714382 0.131411
0.949187 0.714519 0.132158
0.965438 0.715007 0.132845
0.97911 0.715099 0.13341
0.990738 0.715526 0.133928
0.999863 0.715541 0.134386
1 0.715938 0.134829
1 0.715953 0.135241
1 0.716304 0.135668
0.0317082 0.748287 0.0948501
0.0464942 0.748516 0.0956741
0.0618601 0.748562 0.0965438
0.0785382 0.748989 0.0974899
0.0970474 0.749279 0.0985885
0.118059 0.749615 0.099733
0.142168 0.749798 0.101091
0.16994 0.750408 0.102693
0.201938 0.750896 0.104433
0.238636 0.751446 0.106447
0.280568 0.751904 0.108675
0.32755 0.752773 0.111116
0.378576 0.753521 0.113664
0.432425 0.754269 0.116213
0.487892 0.754864 0.118669
0.54464 0.755795 0.121035
0.602319 0.756527 0.123201
0.659434 0.757229 0.125216
0.713985 0.757702 0.127062
0.764355 0.758465 0.12871
0.809125 0.758999 0.130159
0.847684 0.759472 0.131426
0.880339 0.759731 0.132509
0.907805 0.760266 0.133501
0.930785 0.760601 0.13434
0.949996 0.760876 0.135088
0.966064 0.760967 0.135729
0.979583 0.761379 0.136324
0.991058 0.761578 0.136828
1 0.761746 0.137331
1 0.761761 0.137774
1 0.762097 0.138186
1 0.762249 0.138613
0.036347 0.791852 0.100664
0.051133 0.79202 0.101472
0.0664988 0.792218 0.102327
0.0831159 0.792432 0.103212
0.101625 0.792645 0.104234
0.122606 0.79292 0.105348
0.146715 0.793225 0.106645
0.174426 0.793576 0.10808
0.206378 0.793942 0.109697
0.24303 0.794385 0.111559
0.284886 0.794888 0.113619
0.331792 0.795422 0.11577
0.382773 0.795987 0.118013
0.436545 0.796582 0.120256
0.49192 0.797177 0.122423
0.548547 0.797757 0.124498
0.606058 0.798352 0.126452
0.662882 0.798917 0.128298
0.717067 0.799435 0.129992
0.766995 0.799908 0.131533
0.811353 0.800336 0.132891
0.8495 0.800732 0.134112
0.881804 0.801083 0.135195
0.908965 0.801389 0.136156
0.931716 0.801663 0.137011
0.950713 0.801907 0.137774
0.966598 0.802121 0.13846
0.97998 0.802319 0.139055
0.991318 0.802487 0.13959
1 0.802655 0.140108
1 0.802792 0.140581
1 0.80293 0.141039
1 0.803067 0.141497
0.0408637 0.829267 0.105638
0.0556344 0.829404 0.106416
0.070985 0.829435 0.10721
0.087602 0.829725 0.108064
0.106096 0.829908 0.10901
0.127062 0.830106 0.110063
0.151125 0.830198 0.111223
0.17882 0.83061 0.112551
0.210727 0.8309 0.114061
0.247364 0.83125 0.115724
0.289158 0.831495 0.11754
0.336065 0.832044 0.119478
0.386999 0.832486 0.121477
0.440665 0.832944 0.123476
0.495842 0.83328 0.125429
0.552316 0.833875 0.127337
0.609613 0.834333 0.129122
0.666102 0.834775 0.130846
0.719875 0.835065 0.132448
0.76939 0.835584 0.133928
0.813321 0.835935 0.135286
0.851102 0.836271 0.136522
0.883101 0.836423 0.137591
0.910002 0.836805 0.138582
0.932509 0.837034 0.139483
0.951339 0.837247 0.140291
0.967071 0.837293 0.140993
0.980331 0.837583 0.141665
0.991562 0.837736 0.142229
1 0.837873 0.142794
1 0.837873 0.143313
1 0.838148 0.143832
1 0.838239 0.144366
0.0452125 0.860899 0.109834
0.0599374 0.860899 0.110536
0.0753033 0.861112 0.111299
0.0919203 0.861143 0.112093
0.110369 0.861418 0.112932
0.131304 0.861448 0.113878
0.155398 0.861723 0.115007
0.183062 0.861814 0.116182
0.214984 0.862165 0.117556
0.25156 0.862318 0.11902
0.2934 0.86273 0.120653
0.340246 0.862928 0.122408
0.391089 0.863386 0.124239
0.444556 0.863645 0.12607
0.499565 0.864103 0.127886
0.555795 0.864363 0.129656
0.612863 0.86482 0.131365
0.669001 0.865064 0.132998
0.722393 0.865507 0.134585
0.771496 0.865721 0.136049
0.815061 0.866133 0.137423
0.852491 0.8663 0.138674
0.884199 0.866636 0.139834
0.910842 0.866743 0.140841
0.933165 0.867033 0.141787
0.951858 0.867109 0.142641
0.967468 0.867369 0.143435
0.980621 0.867399 0.144183
0.991745 0.867628 0.144854
1 0.867658 0.145495
1 0.867887 0.146136
1 0.867903 0.146761
1 0.868116 0.147387
0.0493629 0.887449 0.113313
0.0640879 0.887526 0.113954
0.0793927 0.88751 0.114626
0.096025 0.887724 0.115358
0.114443 0.887831 0.116136
0.135424 0.887938 0.117021
0.159487 0.887968 0.117998
0.187213 0.888228 0.119097
0.21912 0.888395 0.120317
0.255726 0.888594 0.121691
0.297475 0.888747 0.123171
0.344213 0.889082 0.124804
0.394888 0.889342 0.126482
0.448157 0.889632 0.128206
0.502922 0.889815 0.129915
0.558984 0.890196 0.131609
0.615747 0.890486 0.133272
0.671565 0.890745 0.13489
0.724575 0.890929 0.136461
0.773312 0.891295 0.137957
0.816526 0.891524 0.139376
0.853666 0.891752 0.140688
0.8851 0.891859 0.141878
0.911559 0.892119 0.143008
0.933715 0.892287 0.144045
0.952255 0.892439 0.144991
0.967788 0.892485 0.145907
0.98088 0.892699 0.146822
0.991897 0.892836 0.147662
1 0.892973 0.148425
1 0.892973 0.149096
1 0.893172 0.149798
1 0.893263 0.150439
0.0532387 0.909651 0.116091
0.0679637 0.909697 0.116732
0.0833143 0.909758 0.117311
0.0999313 0.90985 0.117998
0.118395 0.909926 0.11873
0.139391 0.910002 0.119539
0.163455 0.910109 0.120424
0.19115 0.910246 0.121447
0.223041 0.910369 0.122591
0.259632 0.910521 0.123873
0.30132 0.910704 0.125277
0.347906 0.910872 0.126772
0.398398 0.911086 0.128344
0.451438 0.911299 0.129976
0.505974 0.911528 0.131624
0.561776 0.911757 0.133288
0.618265 0.911986 0.134936
0.673747 0.9122 0.136568
0.726452 0.912413 0.13817
0.774853 0.912627 0.139696
0.817761 0.912825 0.141161
0.854627 0.913008 0.142535
0.885863 0.913146 0.143832
0.912154 0.913314 0.145098
0.934188 0.913481 0.146334
0.952651 0.913619 0.147478
0.968109 0.913725 0.148547
0.981125 0.913848 0.149493
0.992065 0.91397 0.150347
1 0.914046 0.151125
1 0.914153 0.151858
1 0.914214 0.152544
1 0.914305 0.153246
0.0569162 0.928206 0.118395
0.0716869 0.928237 0.118959
0.0870222 0.928222 0.119524
0.1037 0.928344 0.12015
0.122164 0.928405 0.120851
0.143145 0.928481 0.121614
0.167208 0.928496 0.122438
0.194903 0.928649 0.123415
0.226749 0.928756 0.124468
0.263218 0.928862 0.125643
0.304768 0.928939 0.126955
0.351263 0.929152 0.12842
0.401556 0.929305 0.129915
0.454368 0.929458 0.131502
0.508644 0.929564 0.133135
0.564218 0.929793 0.134783
0.620447 0.929992 0.136416
0.675654 0.930175 0.138048
0.728023 0.930282 0.139696
0.776135 0.93051 0.141299
0.818784 0.930663 0.142824
0.855436 0.9308 0.14432
0.886534 0.930892 0.145815
0.912734 0.931105 0.147295
0.934646 0.931228 0.148638
0.953002 0.931334 0.149859
0.968353 0.93138 0.150942
0.981338 0.931533 0.151904
0.992233 0.93164 0.152834
1 0.931701 0.153658
1 0.931731 0.154345
1 0.931838 0.155093
1 0.931914 0.155734
0.0604257 0.943694 0.120287
0.0751812 0.943694 0.120836
0.0905623 0.943786 0.12137
0.107179 0.943771 0.121935
0.125628 0.943862 0.12256
0.146593 0.943862 0.123308
0.170703 0.943969 0.124117
0.198322 0.943969 0.125017
0.230137 0.944106 0.126009
0.266484 0.944137 0.127138
0.307942 0.944289 0.12842
0.354253 0.94435 0.129809
0.404364 0.944518 0.131273
0.456931 0.94461 0.13283
0.511009 0.944778 0.134432
0.566369 0.944869 0.13608
0.62237 0.945068 0.137743
0.677272 0.945159 0.139406
0.729381 0.945357 0.1411
0.777203 0.945434 0.142779
0.819638 0.945602 0.144442
0.856168 0.945678 0.14612
0.88716 0.945861 0.147829
0.913222 0.945922 0.14934
0.935042 0.946075 0.150744
0.953307 0.946105 0.15201
0.968582 0.946242 0.153124
0.981491 0.946273 0.154086
0.992325 0.94638 0.155047
1 0.946395 0.155871
1 0.946517 0.156603
1 0.946502 0.157351
1 0.946609 0.158007
0.0636912 0.956771 0.121859
0.0784466 0.956802 0.122393
0.093843 0.956786 0.122881
0.11043 0.956832 0.123445
