public/luts/Icecube.cube
TITLE "Generated by Resolve"
LUT_3D_SIZE 5
0 0.00222782 0
0.158846 0.0197452 0.0175021
0.571389 0.039826 0.040238
0.921248 0.0600137 0.0628061
1 0.0681163 0.0719615
0 0.18732 0.0254673
0.16524 0.194141 0.0348058
0.57641 0.212696 0.059968
0.922576 0.228962 0.0823987
1 0.235996 0.0921035
0.0179294 0.589761 0.0739452
0.189227 0.593835 0.084184
0.591943 0.60383 0.108598
0.92755 0.611246 0.124422
1 0.613886 0.129244
0.0532387 0.909651 0.116091
0.223041 0.910369 0.122591
0.618265 0.911986 0.134936
0.934188 0.913481 0.146334
1 0.914305 0.153246
0.0773632 1 0.12726
0.245319 1 0.132006
0.629755 1 0.143832
0.936629 1 0.160311
1 1 0.167391
0 0.0154574 0.183688
0.159808 0.0222629 0.190265
0.572259 0.0431525 0.209705
0.921477 0.0630961 0.228092
1 0.0713207 0.235813
0 0.189746 0.197223
0.16672 0.196796 0.205158
0.577401 0.21529 0.225803
0.922835 0.231693 0.244526
1 0.238697 0.252461
0.0202029 0.591257 0.237507
0.191287 0.595315 0.246006
0.59353 0.605142 0.265553
0.9281 0.612268 0.277729
1 0.614893 0.281544
0.0573892 0.909911 0.271321
0.227192 0.910628 0.276326
0.620737 0.9122 0.286183
0.934691 0.913787 0.296361
1 0.914672 0.302266
0.0827802 1 0.279942
0.249821 1 0.283757
0.631876 1 0.294041
0.937041 1 0.30808
1 1 0.313787
0 0.0216983 0.595254
0.162692 0.0292973 0.599145
0.574578 0.0515145 0.610285
0.922087 0.0711223 0.620295
1 0.0796368 0.624674
0 0.196231 0.603281
0.170794 0.203647 0.607813
0.579873 0.22182 0.618967
0.923522 0.238529 0.629435
1 0.245304 0.633585
0.0262913 0.59501 0.62562
0.196872 0.599069 0.630198
0.598032 0.60827 0.639918
0.929549 0.614816 0.645609
1 0.617334 0.647578
0.069276 0.910582 0.642557
0.238224 0.911223 0.644892
0.62652 0.912795 0.650202
0.935927 0.914641 0.65713
1 0.915541 0.660471
0.0966354 1 0.646723
0.26096 1 0.648783
0.637324 1 0.655695
0.937972 1 0.663569
1 1 0.6663
0 0.0278935 0.945769
0.165805 0.036286 0.946792
0.576822 0.058793 0.949493
0.922667 0.0785687 0.951888
1 0.0870832 0.952941
0.00117494 0.20238 0.947829
0.174792 0.209827 0.948928
0.582208 0.227924 0.951568
0.924224 0.244495 0.953994
1 0.250904 0.954864
0.0323033 0.598383 0.953124
0.202502 0.602319 0.954147
0.602792 0.610819 0.956115
0.930877 0.617029 0.957305
1 0.619562 0.957763
0.081178 0.911116 0.956634
0.248493 0.911727 0.957153
0.631251 0.913359 0.95845
0.936919 0.915434 0.96025
1 0.916259 0.960967
0.108843 1 0.957549
0.270115 1 0.958038
0.641886 1 0.959915
0.938659 1 0.961608
1 1 0.962829
0 0.0307317 1
0.167254 0.0393683 1
0.577752 0.0617227 1
0.922927 0.0816968 1
1 0.0901503 1
0.00299077 0.204959 1
0.176562 0.21236 1
0.58323 0.230488 1
0.924575 0.246891 1
1 0.253056 1
0.0349432 0.599756 1
0.205051 0.603616 1
0.604944 0.611826 1
0.931426 0.61796 1
1 0.620523 1
0.086305 0.91133 1
0.252766 0.911955 1
0.633295 0.913649 1
0.93727 0.915755 1
1 0.916548 1
0.113741 1 1
0.27361 1 1
0.643687 1 1
0.938903 1 1
1 1 1
