public/luts/Oana.cube
TITLE "Generated by Resolve"
LUT_3D_SIZE 9
0 0 0.000854505
0.0520943 0 0.00189212
0.174548 0 0.00321965
0.360815 0 0.0047303
0.569696 0 0.00631724
0.776303 0 0.00820935
0.935821 0 0.0101015
0.999969 0 0.0122225
0.999969 0 0.014435
0 0.0245518 0.00314336
0.0556954 0.0274968 0.00462348
0.181872 0.0307774 0.00628672
0.369467 0.0345312 0.0081178
0.577478 0.0386511 0.0100404
0.781994 0.0431983 0.0121462
0.938415 0.0472114 0.0143587
0.999969 0.0513466 0.0166934
0.999969 0.055787 0.0191653
0 0.1299 0.0062562
0.0612192 0.13547 0.00801099
0.190799 0.141588 0.0100099
0.379507 0.148257 0.0120851
0.586236 0.155535 0.0142977
0.788174 0.163256 0.0166171
0.941222 0.17145 0.0190433
0.999969 0.180194 0.0215915
0.999969 0.189181 0.0241855
0 0.321157 0.00994888
0.0679179 0.329427 0.0120089
0.201099 0.338155 0.0142061
0.390661 0.347295 0.0165408
0.595789 0.356771 0.0189822
0.794705 0.366629 0.0214847
0.944137 0.376638 0.0240787
0.999969 0.386877 0.0267796
0.999969 0.39707 0.0294804
0 0.55697 0.0141604
0.0754711 0.564706 0.0164797
0.212543 0.572625 0.0188907
0.402594 0.58085 0.0214084
0.605814 0.589166 0.0240024
0.801419 0.597635 0.0266728
0.947051 0.606088 0.0294041
0.999969 0.614572 0.0321965
0.999969 0.622919 0.0349737
0.00106813 0.787259 0.0188144
0.0840162 0.792813 0.0213474
0.224826 0.798383 0.0239109
0.414954 0.803983 0.0265812
0.616037 0.809583 0.0292973
0.808042 0.815091 0.0320745
0.94992 0.820493 0.0348974
0.999969 0.825772 0.0376745
0.999969 0.830839 0.0404669
0.00749218 0.957336 0.0238651
0.0933852 0.959762 0.0265049
0.237705 0.962097 0.029221
0.427512 0.964431 0.0319829
0.626215 0.96669 0.0347906
0.814511 0.968917 0.0375677
0.952621 0.971054 0.0404059
0.999969 0.973083 0.043183
0.999969 0.975036 0.0458686
0.0144198 0.999969 0.02916
0.103258 0.999969 0.0318608
0.250736 0.999969 0.0346685
0.43978 0.999969 0.0375219
0.635996 0.999969 0.0402838
0.8206 0.999969 0.0430762
0.955154 0.999969 0.0457618
0.999969 0.999969 0.0480659
0.999969 0.999969 0.0499275
0.0216068 0.999969 0.0346075
0.113451 0.999969 0.0374151
0.2636 0.999969 0.0401923
0.451499 0.999969 0.0430152
0.645243 0.999969 0.045716
0.826123 0.999969 0.0479744
0.957397 0.999969 0.0498665
0.999969 0.999969 0.0516976
0.999969 0.999969 0.0534371
0 0 0.0559548
0.0526589 0 0.0570993
0.17583 0 0.0586862
0.36231 0 0.0605173
0.571069 0 0.0625925
0.777325 0 0.0648508
0.936278 0 0.0673533
0.999969 0 0.0700084
0.999969 0 0.0729229
0 0.0255589 0.0585946
0.0565652 0.0286564 0.0604562
0.183398 0.0320897 0.0625467
0.371237 0.0360113 0.0648051
0.579019 0.040238 0.0672618
0.783093 0.0447395 0.0699321
0.938933 0.0487068 0.0728466
0.999969 0.052903 0.0758373
0.999969 0.0577249 0.0791485
0 0.131914 0.0624704
0.0623941 0.137621 0.064683
0.192584 0.143999 0.067155
0.381506 0.150851 0.0698711
0.587991 0.158297 0.0727245
0.789349 0.166262 0.0757763
0.941787 0.174624 0.079057
0.999969 0.183474 0.0824598
0.999969 0.192721 0.0860761
0 0.324193 0.0671092
0.0692607 0.33257 0.069749
0.203128 0.341466 0.0726329
0.392844 0.350744 0.0756542
0.597635 0.360372 0.0789349
0.795941 0.370291 0.0823682
0.944671 0.380346 0.0859388
0.999969 0.390616 0.0896315
0.999969 0.40087 0.0934157
0 0.559747 0.0725109
0.0770123 0.567559 0.0755322
0.214771 0.575631 0.0788281
0.404883 0.583886 0.0822461
0.607706 0.592294 0.085832
0.802655 0.600732 0.0895094
0.947601 0.609201 0.0932937
0.999969 0.61767 0.0971695
0.999969 0.625971 0.101076
0.0021973 0.789212 0.0786755
0.0856947 0.794858 0.0821241
0.227192 0.800443 0.0856794
0.417319 0.806043 0.0893873
0.61796 0.811612 0.0931563
0.809262 0.817075 0.0970321
0.950439 0.822461 0.100954
0.999969 0.82768 0.104845
0.999969 0.832624 0.108797
0.00877394 0.958236 0.0855421
0.095201 0.960616 0.08925
0.240101 0.962951 0.0930343
0.429816 0.965286 0.0968948
0.628092 0.967514 0.100801
0.815656 0.969726 0.104738
0.953124 0.971786 0.10869
0.999969 0.973785 0.11252
0.999969 0.975708 0.11632
0.0156863 0.999969 0.0929122
0.105165 0.999969 0.0967575
0.253147 0.999969 0.100664
0.442008 0.999969 0.104631
0.637812 0.999969 0.108522
0.821653 0.999969 0.112428
0.955596 0.999969 0.116182
0.999969 0.999969 0.11989
0.999969 0.999969 0.123354
0.0229343 0.999969 0.100557
0.115328 0.999969 0.104494
0.265949 0.999969 0.108385
0.45362 0.999969 0.112291
0.646876 0.999969 0.116075
0.827085 0.999969 0.119768
0.957763 0.999969 0.123262
0.999969 0.999969 0.126589
0.999969 0.999969 0.129702
0 0 0.149142
0.0532692 0 0.151461
0.177066 0 0.154147
0.363806 0 0.157214
0.572427 0 0.160571
0.778317 0 0.164309
0.936782 0 0.168368
0.999969 0 0.172686
0.999969 0 0.177264
0 0.0265965 0.15404
0.057557 0.0298466 0.157107
0.185 0.033463 0.160479
0.373053 0.0375219 0.164202
0.580652 0.0419013 0.168215
0.784222 0.0461128 0.172549
0.939467 0.0502022 0.177142
0.999969 0.0545357 0.181949
0.999969 0.0597848 0.186999
0 0.133913 0.160372
0.0635996 0.139879 0.16405
0.194461 0.14641 0.168109
0.383551 0.153536 0.172412
0.589731 0.161135 0.176974
0.79057 0.169268 0.181796
0.942336 0.177844 0.186831
0.999969 0.186816 0.192081
0.999969 0.196155 0.197513
0 0.327199 0.167971
0.0706188 0.33576 0.172244
0.205219 0.344823 0.176822
0.395026 0.354223 0.181643
0.599466 0.363989 0.186679
0.797192 0.373968 0.191913
0.945235 0.384085 0.19733
0.999969 0.3944 0.202823
0.999969 0.404623 0.208453
0 0.5626 0.176654
0.0785687 0.570489 0.181476
0.217044 0.578683 0.186526
0.407156 0.586969 0.19173
0.609628 0.595361 0.197147
0.803891 0.603815 0.202655
0.948119 0.612284 0.20827
0.999969 0.620722 0.213916
0.999969 0.628977 0.219562
0.00337224 0.791287 0.186343
0.0874342 0.796887 0.191577
0.229572 0.802502 0.196963
0.419654 0.808087 0.202472
0.619852 0.813642 0.208087
0.810498 0.819059 0.213733
0.950957 0.824384 0.219394
0.999969 0.829526 0.225025
0.999969 0.83447 0.230533
0.0100252 0.959121 0.196765
0.0970169 0.961501 0.202289
0.242527 0.963821 0.207889
0.432105 0.966094 0.213535
0.629908 0.968338 0.219196
0.8168 0.970489 0.224811
0.953597 0.972534 0.23035
0.999969 0.974517 0.235752
0.999969 0.976364 0.24094
0.0170443 0.999969 0.207706
0.107073 0.999969 0.213352
0.255619 0.999969 0.218997
0.444205 0.999969 0.224643
0.639551 0.999969 0.230137
0.822736 0.999969 0.235554
0.956008 0.999969 0.240757
0.999969 0.999969 0.245762
0.999969 0.999969 0.250385
0.0243229 0.999969 0.218799
0.11722 0.999969 0.224414
0.268254 0.999969 0.229984
0.455634 0.999969 0.235386
0.648463 0.999969 0.24062
0.828061 0.999969 0.245609
0.95816 0.999969 0.250278
0.999969 0.999969 0.254612
0.999969 0.999969 0.258518
0 0 0.309972
0.0539406 0 0.313054
0.178408 0 0.316579
0.365469 0 0.3205
0.573892 0 0.324865
0.779416 0 0.329519
0.937285 0 0.334493
0.999969 0 0.339757
0.999969 0 0.345235
0 0.0277714 0.316442
0.0585184 0.0311284 0.320409
0.186633 0.0349126 0.324712
0.374945 0.0390936 0.329366
0.582269 0.0436255 0.334325
0.785397 0.0476081 0.33959
0.939986 0.0517739 0.345083
0.999969 0.05626 0.350698
0.999969 0.0619669 0.356542
0 0.13608 0.324544
0.0648508 0.14226 0.329229
0.196368 0.148959 0.334157
0.385641 0.156268 0.339391
0.591501 0.164065 0.344884
0.791806 0.172351 0.350545
0.94287 0.181079 0.356359
0.999969 0.190158 0.362325
0.999969 0.199619 0.368338
0 0.330297 0.334005
0.0720531 0.339025 0.339239
0.20734 0.348226 0.344671
0.397269 0.357778 0.350362
0.601343 0.36762 0.356176
0.798428 0.377661 0.362112
0.945785 0.387869 0.368139
0.999969 0.398154 0.374197
0.999969 0.408453 0.380301
0 0.565454 0.344503
0.0801404 0.573434 0.350149
0.219318 0.581659 0.355978
0.409476 0.590021 0.361913
0.611521 0.598474 0.367941
0.805127 0.606943 0.373999
0.948684 0.615381 0.380072
0.999969 0.623774 0.386069
0.999969 0.631968 0.392004
0.00459297 0.793362 0.35581
0.0891585 0.798932 0.361715
0.231983 0.804547 0.367742
0.421973 0.810117 0.3738
0.621759 0.815656 0.379858
0.811719 0.821027 0.385885
0.951446 0.826291 0.391806
0.999969 0.831342 0.39762
0.999969 0.836179 0.403189
0.0112917 0.95996 0.367529
0.0988785 0.962341 0.373602
0.245014 0.964675 0.37966
0.434394 0.966918 0.385672
0.631754 0.969131 0.391623
0.817975 0.971267 0.397436
0.954055 0.973281 0.403052
0.999969 0.975235 0.408423
0.999969 0.977005 0.413596
0.0184024 0.999969 0.379446
0.108949 0.999969 0.385489
0.257969 0.999969 0.391424
0.446418 0.999969 0.397208
0.641276 0.999969 0.402869
0.823789 0.999969 0.40824
0.956436 0.999969 0.413413
0.999969 0.999969 0.41828
0.999969 0.999969 0.422782
0.0257267 0.999969 0.391211
0.119127 0.999969 0.397009
0.270542 0.999969 0.402655
0.457694 0.999969 0.408087
0.650034 0.999969 0.41326
0.828931 0.999969 0.418097
0.958511 0.999969 0.422644
0.999969 0.999969 0.426764
0.999969 0.999969 0.430457
0 0 0.512642
0.0546883 0 0.51548
0.179858 0 0.518669
0.367132 0 0.52221
0.575402 0 0.526055
0.780484 0 0.53019
0.937758 0 0.534508
0.999969 0 0.539055
0.999969 0 0.54377
0 0.0289464 0.518532
0.0596323 0.0324712 0.522072
0.188357 0.0363928 0.525902
0.376837 0.0406958 0.530007
0.583932 0.0451057 0.534371
0.786542 0.0490883 0.538918
0.94052 0.0533608 0.543618
0.999969 0.0582589 0.548501
0.999969 0.0641337 0.553445
0 0.138247 0.525811
0.0661326 0.144671 0.52987
0.198352 0.151583 0.534218
0.387732 0.15906 0.53875
0.593301 0.167025 0.543496
0.793042 0.175494 0.548318
0.943404 0.18439 0.553292
0.999969 0.193622 0.558297
0.999969 0.203143 0.563348
0 0.333425 0.534066
0.0735027 0.342397 0.538613
0.209537 0.35169 0.543297
0.399496 0.361334 0.54818
0.603235 0.371283 0.553109
0.799695 0.381415 0.558129
0.946303 0.391638 0.56318
0.999969 0.401923 0.568246
0.999969 0.412192 0.573312
0.000137331 0.568338 0.543145
0.0817426 0.57644 0.547997
0.221637 0.58471 0.552941
0.41181 0.593103 0.557961
0.613443 0.601572 0.563027
0.806378 0.61004 0.568078
0.949203 0.618479 0.573144
0.999969 0.626795 0.578134
0.999969 0.634943 0.583032
0.00579843 0.795407 0.552789
0.0909438 0.800992 0.557778
0.234394 0.806607 0.562844
0.424323 0.812177 0.567926
0.623652 0.817609 0.572976
0.812894 0.822965 0.577981
0.951949 0.828153 0.582864
0.999969 0.833158 0.58764
0.999969 0.837949 0.592233
0.0125887 0.960861 0.562692
0.100725 0.963195 0.567742
0.247425 0.965515 0.572824
0.436683 0.967758 0.577798
0.633585 0.96994 0.582712
0.819089 0.972 0.587488
0.954543 0.973983 0.592065
0.999969 0.975891 0.59646
0.999969 0.977646 0.600656
0.0197299 0.999969 0.572641
0.110826 0.999969 0.577615
0.260365 0.999969 0.582528
0.448569 0.999969 0.58732
0.642954 0.999969 0.591913
0.824765 0.999969 0.596353
0.956832 0.999969 0.600519
0.999969 0.999969 0.60444
0.999969 0.999969 0.608026
0.0270695 0.999969 0.582406
0.120989 0.999969 0.587152
0.272831 0.999969 0.591791
0.459678 0.999969 0.596201
0.65156 0.999969 0.600381
0.829831 0.999969 0.604303
0.958846 0.999969 0.607919
0.999969 0.999969 0.611185
0.999969 0.999969 0.614084
0 0 0.721859
0.0554208 0 0.724071
0.181277 0 0.726482
0.368841 0 0.729152
0.576913 0 0.732021
0.781552 0 0.735073
0.938247 0 0.738262
0.999969 0 0.741573
0.999969 0 0.744991
0 0.0301671 0.726406
0.0607767 0.0338445 0.729076
0.190112 0.0379339 0.731914
0.378805 0.0424048 0.734981
0.585611 0.04654 0.738125
0.787732 0.0506294 0.741466
0.941054 0.0549935 0.744869
0.999969 0.0603799 0.748348
0.999969 0.0664073 0.751919
0 0.140536 0.731823
0.0674601 0.147082 0.734859
0.200351 0.154253 0.738018
0.389868 0.161898 0.741344
0.595132 0.170077 0.744778
0.794263 0.178698 0.748257
0.943969 0.187701 0.751766
0.999969 0.19707 0.755322
0.999969 0.206729 0.758862
0 0.336675 0.737942
0.0749523 0.345769 0.741238
0.211719 0.3552 0.74464
0.401785 0.364981 0.748119
0.605127 0.374975 0.751644
0.800946 0.385153 0.755215
0.946853 0.395407 0.75877
0.999969 0.405707 0.76228
0.999969 0.415869 0.765774
0.000717174 0.571313 0.744533
0.0834058 0.579477 0.747997
0.223987 0.587777 0.751537
0.414115 0.596216 0.755093
0.615351 0.604669 0.758663
0.807614 0.613138 0.762158
0.949722 0.621546 0.765652
0.999969 0.629831 0.769055
0.999969 0.637873 0.772351
0.00701915 0.797436 0.7514
0.0927291 0.803037 0.754971
0.23682 0.808621 0.758526
0.426642 0.814191 0.762051
0.625513 0.819608 0.76553
0.814099 0.824918 0.768963
0.952468 0.83003 0.772259
0.999969 0.834958 0.775464
0.999969 0.839658 0.778515
0.0139162 0.96173 0.758373
0.102602 0.96408 0.761944
0.249836 0.966323 0.765423
0.438941 0.968551 0.768826
0.63537 0.970703 0.772152
0.820188 0.972747 0.775357
0.954986 0.974701 0.778424
0.999969 0.976547 0.781308
0.999969 0.978241 0.784039
0.0211185 0.999969 0.765301
0.112734 0.999969 0.768734
0.262745 0.999969 0.77203
0.450736 0.999969 0.775265
0.644648 0.999969 0.778317
0.825772 0.999969 0.781231
0.957259 0.999969 0.783963
0.999969 0.999969 0.786496
0.999969 0.999969 0.7888
0.0284581 0.999969 0.771939
0.122881 0.999969 0.775158
0.275059 0.999969 0.77821
0.461616 0.999969 0.781155
0.65304 0.999969 0.783886
0.830686 0.999969 0.786435
0.959197 0.999969 0.788739
0.999969 0.999969 0.790829
0.999969 0.999969 0.792584
0 0 0.897353
0.0562295 0 0.898421
0.182803 0 0.899565
0.370565 0 0.900862
0.578424 0 0.90222
0.782666 0 0.90367
0.938781 0 0.905196
0.999969 0 0.906752
0.999969 0 0.90837
0 0.0315251 0.899535
0.0619669 0.0352941 0.900832
0.191913 0.0395361 0.902174
0.380743 0.0440681 0.903639
0.58732 0.0480201 0.90515
0.788937 0.0522164 0.906691
0.941588 0.0567636 0.908309
0.999969 0.062562 0.909911
0.999969 0.0685893 0.911513
0 0.142916 0.902129
0.0687724 0.14966 0.903593
0.20238 0.157031 0.905058
0.392035 0.164889 0.906645
0.596933 0.17319 0.908248
0.795499 0.181964 0.909865
0.944488 0.191119 0.911482
0.999969 0.200595 0.913115
0.999969 0.210346 0.914733
0 0.339971 0.905028
0.0764782 0.349142 0.9066
0.213931 0.358724 0.908171
0.404044 0.368612 0.909789
0.607004 0.378683 0.911421
0.802182 0.388922 0.913069
0.947402 0.399191 0.914687
0.999969 0.409461 0.916304
0.999969 0.419623 0.917861
0.00181582 0.574258 0.908141
0.0850843 0.582498 0.909743
0.226352 0.59089 0.911376
0.416464 0.599329 0.912993
0.617258 0.607797 0.914626
0.808835 0.616236 0.916243
0.950225 0.624582 0.917815
0.999969 0.632761 0.919356
0.999969 0.640726 0.920836
0.00828565 0.799496 0.91133
0.0945602 0.805112 0.912947
0.239246 0.810697 0.914595
0.428962 0.816205 0.916213
0.627405 0.821576 0.9178
0.815259 0.82681 0.919295
0.952926 0.831846 0.920806
0.999969 0.836667 0.922255
0.999969 0.84126 0.923598
0.0152132 0.96257 0.914534
0.104479 0.964874 0.916152
0.252262 0.967163 0.917723
0.441169 0.969345 0.919249
0.637156 0.971466 0.92076
0.821271 0.973465 0.922179
0.955428 0.975402 0.923568
0.999969 0.977172 0.924834
0.999969 0.978836 0.926055
0.0224918 0.999969 0.917678
0.114656 0.999969 0.919203
0.26508 0.999969 0.920714
0.452827 0.999969 0.922148
0.646281 0.999969 0.923522
0.826734 0.999969 0.924804
0.95761 0.999969 0.926009
0.999969 0.999969 0.927123
0.999969 0.999969 0.928115
0.0298466 0.999969 0.920653
0.124727 0.999969 0.922103
0.277256 0.999969 0.923445
0.463569 0.999969 0.924758
0.654505 0.999969 0.925978
0.83151 0.999969 0.927092
0.959503 0.999969 0.928069
0.999969 0.999969 0.928985
0.999969 0.999969 0.929763
0 0 0.999969
0.0571603 0 0.999969
0.184436 0 0.999969
0.372351 0 0.999969
0.580056 0 0.999969
0.78381 0 0.999969
0.939284 0 0.999969
0.999969 0 0.999969
0.999969 0 0.999969
0 0.0328222 0.999969
0.0631266 0.0367895 0.999969
0.193774 0.0411536 0.999969
0.382849 0.0454871 0.999969
0.58909 0.0495003 0.999969
0.790127 0.0538033 0.999969
0.942123 0.0588235 0.999969
0.999969 0.064744 0.999969
0.999969 0.0707866 0.999969
0 0.145357 0.999969
0.0701457 0.152316 0.999969
0.204456 0.159823 0.999969
0.394232 0.16788 0.999969
0.598825 0.176379 0.999969
0.796735 0.185275 0.999969
0.945052 0.194568 0.999969
0.999969 0.204135 0.999969
0.999969 0.213947 0.999969
0 0.343297 0.999969
0.0779889 0.352636 0.999969
0.216205 0.362371 0.999969
0.406332 0.372259 0.999969
0.608911 0.382422 0.999969
0.803464 0.392676 0.999969
0.947921 0.402945 0.999969
0.999969 0.413199 0.999969
0.999969 0.423316 0.999969
0.00297551 0.577295 0.999969
0.0867781 0.585534 0.999969
0.228717 0.593973 0.999969
0.418784 0.602411 0.999969
0.619165 0.61088 0.999969
0.810056 0.619303 0.999969
0.950744 0.627588 0.999969
0.999969 0.635706 0.999969
0.999969 0.64361 0.999969
0.00953689 0.801556 0.999969
0.0963607 0.807157 0.999969
0.241672 0.812741 0.999969
0.431266 0.818143 0.999969
0.629236 0.823484 0.999969
0.816419 0.828656 0.999969
0.953414 0.833646 0.999969
0.999969 0.838422 0.999969
0.999969 0.842893 0.999969
0.0165408 0.963424 0.999969
0.10634 0.965759 0.999969
0.254719 0.967956 0.999969
0.443412 0.970153 0.999969
0.638941 0.972213 0.999969
0.822339 0.974212 0.999969
0.955856 0.976074 0.999969
0.999969 0.977813 0.999969
0.999969 0.9794 0.999969
0.0238346 0.999969 0.999969
0.116548 0.999969 0.999969
0.26743 0.999969 0.999969
0.454917 0.999969 0.999969
0.647883 0.999969 0.999969
0.82771 0.999969 0.999969
0.958022 0.999969 0.999969
0.999969 0.999969 0.999969
0.999969 0.999969 0.999969
0.0312352 0.999969 0.999969
0.126619 0.999969 0.999969
0.279454 0.999969 0.999969
0.4654 0.999969 0.999969
0.655894 0.999969 0.999969
0.832288 0.999969 0.999969
0.959808 0.999969 0.999969
0.999969 0.999969 0.999969
0.999969 0.999969 0.999969
0 0 0.999969
0.0581674 0 0.999969
0.186038 0 0.999969
0.374228 0 0.999969
0.581689 0 0.999969
0.784939 0 0.999969
0.939834 0 0.999969
0.999969 0 0.999969
0.999969 0 0.999969
0 0.0342107 0.999969
0.0643778 0.0383764 0.999969
0.195621 0.0428321 0.999969
0.384863 0.0469368 0.999969
0.590875 0.0510414 0.999969
0.791348 0.0554513 0.999969
0.942657 0.0609903 0.999969
0.999969 0.0670024 0.999969
0.999969 0.0731365 0.999969
0 0.147799 0.999969
0.0715496 0.154955 0.999969
0.206607 0.162737 0.999969
0.39646 0.170932 0.999969
0.600671 0.179568 0.999969
0.797986 0.188647 0.999969
0.945571 0.198032 0.999969
0.999969 0.207706 0.999969
0.999969 0.217594 0.999969
0 0.346685 0.999969
0.0795605 0.356191 0.999969
0.218479 0.365942 0.999969
0.408667 0.375998 0.999969
0.610834 0.386175 0.999969
0.804685 0.396429 0.999969
0.948486 0.406729 0.999969
0.999969 0.416876 0.999969
0.999969 0.426993 0.999969
0.0041352 0.580285 0.999969
0.0885328 0.588602 0.999969
0.231128 0.59707 0.999969
0.421134 0.605554 0.999969
0.621042 0.613977 0.999969
0.811307 0.62237 0.999969
0.951278 0.63061 0.999969
0.999969 0.638666 0.999969
0.999969 0.646433 0.999969
0.0108644 0.803632 0.999969
0.0981918 0.809186 0.999969
0.244099 0.814755 0.999969
0.433539 0.820142 0.999969
0.631098 0.825437 0.999969
0.817548 0.830549 0.999969
0.953887 0.835416 0.999969
0.999969 0.840055 0.999969
0.999969 0.844465 0.999969
0.0178683 0.964309 0.999969
0.108293 0.966537 0.999969
0.257099 0.96878 0.999969
0.445609 0.970901 0.999969
0.64065 0.972961 0.999969
0.823377 0.974899 0.999969
0.956298 0.97673 0.999969
0.999969 0.978408 0.999969
0.999969 0.979965 0.999969
0.0252079 0.999969 0.999969
0.118441 0.999969 0.999969
0.269749 0.999969 0.999969
0.456931 0.999969 0.999969
0.649454 0.999969 0.999969
0.82858 0.999969 0.999969
0.958404 0.999969 0.999969
0.999969 0.999969 0.999969
0.999969 0.999969 0.999969
0.0325933 0.999969 0.999969
0.12845 0.999969 0.999969
0.281529 0.999969 0.999969
0.467262 0.999969 0.999969
0.657267 0.999969 0.999969
0.833112 0.999969 0.999969
0.960113 0.999969 0.999969
0.999969 0.999969 0.999969
0.999969 0.999969 0.999969
