public/luts/Oana.cube
TITLE "Generated by Resolve"
LUT_3D_SIZE 33
0 0 0.000854505
0 0 0.00106813
0.0121309 0 0.00132753
0.0315557 0 0.00158694
0.0520943 0 0.00189212
0.0758373 0 0.00221256
0.104295 0 0.00256352
0.137133 0 0.0028687
0.174548 0 0.00321965
0.216388 0 0.00354009
0.261906 0 0.00392157
0.310323 0 0.0043183
0.360815 0 0.0047303
0.412558 0 0.00509651
0.464866 0 0.00552377
0.517174 0 0.00593576
0.569696 0 0.00631724
0.622721 0 0.00677501
0.675532 0 0.00723278
0.727062 0 0.00770581
0.776303 0 0.00820935
0.82237 0 0.00866712
0.86453 0 0.00914015
0.902434 0 0.0096437
0.935821 0 0.0101015
0.964706 0 0.0105898
0.9879 0 0.0111543
0.999969 0 0.0116884
0.999969 0 0.0122225
0.999969 0 0.0127718
0.999969 0 0.0133211
0.999969 0 0.0139315
0.999969 0 0.014435
0 0 0.00132753
0 0 0.00158694
0.0128176 0 0.00187686
0.0323949 0 0.00221256
0.052842 0 0.00247196
0.0769513 0 0.00285344
0.105592 0 0.00317388
0.138582 0 0.00352483
0.176181 0 0.00389105
0.218158 0 0.00428779
0.263844 0 0.00466926
0.312337 0 0.00508125
0.362814 0 0.00549325
0.414542 0 0.00590524
0.46685 0 0.00631724
0.519036 0 0.00677501
0.571496 0 0.00723278
0.624506 0 0.00767529
0.677211 0 0.00816358
0.728573 0 0.00865187
0.777661 0 0.00914015
0.823575 0 0.00962844
0.865507 0 0.0101015
0.903197 0 0.010605
0.936461 0 0.0111543
0.965179 0 0.0116884
0.988205 0 0.0122225
0.999969 0 0.0127718
0.999969 0 0.0133211
0.999969 0 0.013901
0.999969 0 0.014435
0.999969 0 0.0149996
0.999969 0 0.0156252
0 0 0.00189212
0 0 0.00221256
0.0136263 0 0.00247196
0.033402 0 0.00285344
0.0537728 0 0.00317388
0.0780804 0 0.00350958
0.106981 0 0.00387579
0.140154 0 0.00427253
0.177935 0 0.00466926
0.220127 0 0.00505074
0.265934 0 0.00547799
0.314458 0 0.00587472
0.36495 0 0.00630198
0.416678 0 0.00677501
0.46891 0 0.00720226
0.521004 0.000167849 0.00764477
0.573419 0.000701915 0.00816358
0.626322 0.00144961 0.00865187
0.678935 0.00225834 0.00914015
0.730175 0.00309758 0.00959792
0.779065 0.00392157 0.010071
0.82472 0.00468452 0.0105898
0.866514 0.0055848 0.0111086
0.904067 0.00646983 0.0116274
0.937087 0.00743114 0.0121767
0.965652 0.00831617 0.0127413
0.988525 0.00926223 0.0132753
0.999969 0.0101778 0.0138857
0.999969 0.0111696 0.0143893
0.999969 0.0121157 0.0149996
0.999969 0.013138 0.0155642
0.999969 0.0141299 0.0161135
0.999969 0.0152743 0.0167391
0 0.00671397 0.00247196
0 0.00720226 0.00285344
0.0144961 0.0077821 0.00317388
0.0344549 0.00836194 0.00350958
0.0546731 0.00891127 0.00387579
0.0793469 0.00955215 0.00428779
0.108431 0.010132 0.00466926
0.141878 0.0108034 0.00505074
0.179873 0.01149 0.00547799
0.222202 0.0122072 0.00587472
0.26804 0.0128634 0.00630198
0.316609 0.0136873 0.00672923
0.367132 0.0144656 0.00715648
0.418845 0.0152438 0.00764477
0.471 0.0159457 0.0081178
0.523064 0.0168612 0.00860609
0.575418 0.0177768 0.0091249
0.628229 0.0187381 0.00959792
0.680674 0.0195926 0.0100557
0.731777 0.0206149 0.0105745
0.780529 0.0216373 0.0111086
0.825986 0.0227054 0.0116274
0.867536 0.0236515 0.0121614
0.904891 0.0247959 0.012726
0.937758 0.0259098 0.0132601
0.966171 0.0270085 0.0138094
0.988815 0.0280156 0.014374
0.999969 0.0292668 0.0149691
0.999969 0.0304723 0.0155489
0.999969 0.0316777 0.0161288
0.999969 0.0328679 0.0167391
0.999969 0.0341955 0.0173495
0.999969 0.035462 0.0179446
0 0.0245518 0.00314336
0 0.0252384 0.00350958
0.0153964 0.0260014 0.00387579
0.035584 0.0267033 0.00428779
0.0556954 0.0274968 0.00462348
0.0807355 0.028275 0.00502022
0.110079 0.0291142 0.00546273
0.143664 0.0298772 0.00585946
0.181872 0.0307774 0.00628672
0.224323 0.0316777 0.00671397
0.270268 0.0325628 0.00715648
0.318944 0.0335088 0.00764477
0.369467 0.0345312 0.0081178
0.421118 0.0354925 0.00860609
0.473228 0.0364691 0.00907912
0.525216 0.0375677 0.00953689
0.577478 0.0386511 0.0100404
0.630213 0.0397345 0.0105745
0.682551 0.0408637 0.0110781
0.733471 0.0420081 0.0115969
0.781994 0.0431983 0.0121462
0.827253 0.0443275 0.0126955
0.868589 0.0452583 0.0132601
0.90573 0.0462348 0.0138094
0.938415 0.0472114 0.0143587
0.96669 0.0482185 0.0149691
0.989136 0.0492256 0.0155184
0.999969 0.0502632 0.0160983
0.999969 0.0513466 0.0166934
0.999969 0.0524147 0.0173495
0.999969 0.0534981 0.0178988
0.999969 0.0546273 0.0185245
0.999969 0.055787 0.0191653
0 0.0457771 0.00383001
0 0.0463874 0.00422675
0.0163729 0.0469978 0.00460822
0.0367742 0.0477607 0.00503548
0.0568551 0.0485084 0.00544747
0.0821851 0.0492409 0.00584421
0.111757 0.0499275 0.00627146
0.145571 0.050782 0.00669871
0.183932 0.0515755 0.00715648
0.226581 0.0523995 0.00764477
0.272618 0.0531777 0.00808728
0.32134 0.054139 0.00859083
0.371847 0.0550546 0.00907912
0.423438 0.0560464 0.00953689
0.475471 0.0570687 0.0100404
0.527398 0.0583047 0.0105287
0.579568 0.0595102 0.0110475
0.632212 0.0607614 0.0115969
0.684398 0.0619059 0.0121157
0.735149 0.0632181 0.012665
0.78349 0.0645304 0.0132296
0.828534 0.0658732 0.0138094
0.869657 0.0670939 0.0143587
0.906569 0.0684825 0.0149386
0.939116 0.0698253 0.0154574
0.967224 0.0711986 0.0160983
0.989502 0.0724956 0.0166781
0.999969 0.0739605 0.0172885
0.999969 0.0754101 0.0178378
0.999969 0.076936 0.0184939
0.999969 0.078233 0.0191043
0.999969 0.079881 0.0197757
0.999969 0.0814374 0.0203708
0 0.0680552 0.00460822
0.000213626 0.068864 0.0049897
0.0174563 0.0699016 0.00540169
0.037995 0.0707866 0.00582895
0.0581979 0.07187 0.00628672
0.0837262 0.0728008 0.00669871
0.113466 0.0739452 0.00712596
0.147494 0.0749523 0.00761425
0.186099 0.0761273 0.00808728
0.228885 0.0771496 0.00854505
0.27509 0.0784314 0.0090486
0.323812 0.07953 0.00953689
0.37435 0.0808881 0.0100252
0.425879 0.0820325 0.0105135
0.477821 0.0834516 0.0110475
0.529625 0.0846571 0.0115816
0.581765 0.0861372 0.0121157
0.634302 0.08748 0.012665
0.686351 0.0890364 0.0132296
0.736904 0.0903639 0.0137789
0.785016 0.0919966 0.0143435
0.829816 0.0934005 0.0148928
0.870787 0.095079 0.0154726
0.90753 0.0965286 0.016083
0.939834 0.0982376 0.0166476
0.967758 0.0997482 0.017258
0.989822 0.101549 0.0178531
0.999969 0.103059 0.0184787
0.999969 0.104921 0.0190738
0.999969 0.106523 0.0197299
0.999969 0.1084 0.0203098
0.999969 0.110124 0.0209659
0.999969 0.111971 0.0216373
0 0.0961776 0.00540169
0.00105287 0.0972915 0.00578317
0.018616 0.0983139 0.00624094
0.0393683 0.0996414 0.00668345
0.0596475 0.100862 0.00714122
0.0854047 0.102113 0.00756847
0.115358 0.103288 0.00801099
0.149599 0.104738 0.00852979
0.188418 0.106065 0.00903334
0.231312 0.107485 0.00950637
0.277577 0.108766 0.0100099
0.326375 0.110307 0.0105287
0.376867 0.111788 0.0110323
0.428351 0.113344 0.0115663
0.480201 0.114778 0.0120851
0.531929 0.116457 0.0126497
0.583993 0.118059 0.0131838
0.636439 0.119738 0.0137484
0.688289 0.121263 0.0143282
0.738674 0.123064 0.0148928
0.786603 0.124804 0.0154574
0.831159 0.126574 0.0160525
0.871885 0.128252 0.0166476
0.908431 0.13019 0.017258
0.94052 0.132006 0.0178225
0.968277 0.133883 0.0184787
0.990143 0.135668 0.0190585
0.999969 0.137697 0.0196994
0.999969 0.139696 0.0203098
0.999969 0.141695 0.0209659
0.999969 0.143526 0.0215915
0.999969 0.145754 0.0222324
0.999969 0.147723 0.0229343
0 0.1299 0.0062562
0.00209049 0.131228 0.00663767
0.0198367 0.132616 0.00712596
0.0407874 0.13402 0.00756847
0.0612192 0.13547 0.00801099
0.0871138 0.13698 0.00851453
0.117281 0.13843 0.00900282
0.151751 0.140002 0.00949111
0.190799 0.141588 0.0100099
0.233829 0.143252 0.0104982
0.280201 0.1449 0.0110323
0.329 0.146548 0.0115663
0.379507 0.148257 0.0120851
0.430976 0.150011 0.0126345
0.482689 0.151827 0.0131838
0.534279 0.153658 0.0137331
0.586236 0.155535 0.0142977
0.638575 0.157443 0.014847
0.690303 0.159335 0.0154421
0.74049 0.161257 0.0160525
0.788174 0.163256 0.0166171
0.832532 0.165286 0.0172122
0.873014 0.167346 0.0178225
0.9093 0.169375 0.0184329
0.941222 0.17145 0.0190433
0.968811 0.173617 0.0196841
0.990478 0.175799 0.0202945
0.999969 0.177935 0.0209354
0.999969 0.180194 0.0215915
0.999969 0.182452 0.0222324
0.999969 0.184619 0.0228733
0.999969 0.186969 0.0235142
0.999969 0.189181 0.0241855
0 0.169558 0.0071107
0.00318914 0.171115 0.00755322
0.0211643 0.172564 0.00801099
0.0422675 0.174395 0.00849927
0.0627909 0.176043 0.00898756
0.0888685 0.177752 0.00949111
0.119265 0.179294 0.0099794
0.153994 0.181277 0.0104829
0.193225 0.183078 0.011017
0.236408 0.184939 0.0115358
0.282872 0.186664 0.0120851
0.331746 0.188769 0.0126345
0.382208 0.190723 0.0131685
0.43357 0.192691 0.0137331
0.485191 0.194568 0.0142977
0.536721 0.196811 0.014847
0.588586 0.198871 0.0154421
0.640803 0.201007 0.016022
0.692363 0.202976 0.0166018
0.742321 0.205341 0.0172122
0.789776 0.207553 0.0178073
0.83389 0.209781 0.0184176
0.874144 0.211872 0.019028
0.910246 0.214328 0.0196384
0.94197 0.216632 0.0202792
0.96936 0.218997 0.0209201
0.990814 0.221225 0.0215763
0.999969 0.223743 0.0222019
0.999969 0.2262 0.0228733
0.999969 0.228641 0.0234989
0.999969 0.230838 0.0241703
0.999969 0.233555 0.0248264
0.999969 0.235981 0.0254978
0 0.215259 0.00798047
0.00436408 0.2168 0.00849927
0.0225376 0.21886 0.00898756
0.0438239 0.220493 0.00946059
0.0644388 0.222538 0.00996414
0.0907454 0.224262 0.0104829
0.121386 0.226352 0.0110018
0.156298 0.228168 0.0115206
0.195758 0.230426 0.0120394
0.239109 0.232258 0.0125887
0.285649 0.234516 0.0131533
0.334539 0.236454 0.0137026
0.38497 0.238758 0.0142519
0.436271 0.240742 0.0148318
0.487785 0.243168 0.0154116
0.539147 0.245197 0.0159915
0.590936 0.247669 0.0166018
0.643 0.249744 0.0171817
0.694408 0.252277 0.0177768
0.744198 0.254429 0.0183871
0.791409 0.257008 0.019028
0.835294 0.259205 0.0196231
0.875319 0.261814 0.0202487
0.911162 0.264042 0.0208896
0.942702 0.266697 0.0215305
0.969909 0.268986 0.0221866
0.991165 0.271733 0.0228428
0.999969 0.274006 0.0234836
0.999969 0.276768 0.0241245
0.999969 0.279103 0.0247807
0.999969 0.281895 0.0254673
0.999969 0.284291 0.026154
0.999969 0.287007 0.0267948
0 0.266224 0.0089723
0.00561532 0.268086 0.00946059
0.0239567 0.269902 0.00996414
0.045243 0.272023 0.0104219
0.0661784 0.274052 0.0109407
0.0926986 0.276127 0.0115206
0.123537 0.277974 0.0120394
0.158755 0.280308 0.0125887
0.198398 0.282506 0.0131228
0.241886 0.284657 0.0136873
0.288457 0.286656 0.0142214
0.337377 0.289143 0.0148013
0.387793 0.291371 0.0153811
0.439002 0.293675 0.0159915
0.490379 0.295796 0.0165713
0.541665 0.29836 0.0171664
0.593332 0.30071 0.0177615
0.645243 0.30309 0.0183719
0.696483 0.305318 0.0189975
0.74609 0.307988 0.0196231
0.793042 0.310445 0.0202335
0.836698 0.312932 0.0208591
0.876478 0.315221 0.0215152
0.912108 0.317937 0.0221714
0.943435 0.320455 0.0227817
0.970443 0.323003 0.0234379
0.991501 0.325322 0.024094
0.999969 0.32813 0.0247959
0.999969 0.330739 0.025452
0.999969 0.333288 0.0260777
0.999969 0.335729 0.0267643
0.999969 0.338567 0.0274815
0.999969 0.341085 0.0281376
0 0.321157 0.00994888
0.00686656 0.323217 0.0104219
0.0254215 0.325322 0.0109407
0.0465553 0.327321 0.0114443
0.0679179 0.329427 0.0120089
0.0947127 0.331579 0.0125887
0.125795 0.333715 0.0131228
0.161242 0.335897 0.0136721
0.201099 0.338155 0.0142061
0.244724 0.340398 0.0148013
0.291386 0.342718 0.0153658
0.340291 0.345006 0.0159304
0.390661 0.347295 0.0165408
0.441794 0.349645 0.0171359
0.493065 0.35201 0.0177462
0.544228 0.354376 0.0183719
0.595789 0.356771 0.0189822
0.647578 0.359228 0.0195926
0.698604 0.361685 0.0202182
0.747967 0.364157 0.0208438
0.794705 0.366629 0.0214847
0.838102 0.3691 0.0221408
0.877638 0.371633 0.0227817
0.913024 0.374136 0.0234379
0.944137 0.376638 0.0240787
0.970993 0.379187 0.0247501
0.991836 0.381704 0.0254215
0.999969 0.384314 0.0260777
0.999969 0.386877 0.0267796
0.999969 0.389395 0.0274357
0.999969 0.392004 0.0280919
0.999969 0.394583 0.028809
0.999969 0.39707 0.0294804
0 0.378912 0.0109102
0.00822461 0.380972 0.0114443
0.0269474 0.382864 0.0119631
0.0479133 0.385214 0.0125429
0.0697337 0.38735 0.0131075
0.096788 0.389471 0.0136721
0.128115 0.391394 0.0142061
0.163821 0.393835 0.014786
0.203876 0.396094 0.0153506
0.247639 0.398337 0.0159304
0.294362 0.400412 0.0165255
0.343267 0.402914 0.0171206
0.393591 0.405203 0.0177157
0.444648 0.407568 0.0183261
0.49575 0.409674 0.0189517
0.546807 0.412253 0.0195926
0.598276 0.414649 0.0202182
0.649927 0.417044 0.0208286
0.700755 0.419211 0.0214694
0.749874 0.421881 0.0221256
0.796368 0.424308 0.0227512
0.839506 0.426749 0.0234073
0.878782 0.428962 0.0240635
0.913954 0.431632 0.0247196
0.944884 0.434089 0.025391
0.971557 0.436576 0.0260777
0.992187 0.438788 0.0267185
0.999969 0.441535 0.0273899
0.999969 0.444038 0.0280919
0.999969 0.446464 0.028809
0.999969 0.448722 0.0294499
0.999969 0.451423 0.0301518
0.999969 0.453864 0.0308385
0 0.438163 0.0119631
0.00962844 0.439948 0.0124819
0.0285496 0.442252 0.0130617
0.0493019 0.444129 0.0136416
0.0716106 0.446448 0.0141909
0.0989242 0.44831 0.0147707
0.130526 0.450675 0.0153353
0.166445 0.452644 0.0159152
0.206683 0.455055 0.0165103
0.250584 0.456977 0.0170901
0.297398 0.459449 0.017731
0.346288 0.461433 0.0183261
0.396567 0.46392 0.0189364
0.447501 0.465995 0.0195621
0.498466 0.468498 0.0201877
0.549401 0.470542 0.0208133
0.600763 0.473091 0.0214694
0.652247 0.475135 0.0220951
0.702922 0.477668 0.0227359
0.751797 0.479774 0.0233768
0.798062 0.482338 0.0240482
0.840909 0.484398 0.0247044
0.879942 0.486976 0.0253758
0.914916 0.489082 0.0260319
0.945602 0.491676 0.0267033
0.972091 0.493812 0.0273747
0.992523 0.496376 0.0280613
0.999969 0.498466 0.028748
0.999969 0.501091 0.0294499
0.999969 0.503151 0.0301518
0.999969 0.505745 0.0308385
0.999969 0.507851 0.0315099
0.999969 0.510399 0.0322271
0 0.497627 0.0130617
0.0110323 0.499611 0.0135958
0.0301976 0.501335 0.0141756
0.0507362 0.503563 0.0147402
0.073518 0.505592 0.0153048
0.101137 0.507652 0.0158999
0.132982 0.509453 0.016495
0.169131 0.511788 0.0170901
0.209567 0.513893 0.0176852
0.25362 0.515984 0.0183108
0.300465 0.517876 0.0189364
0.349371 0.520256 0.0195468
0.399558 0.522408 0.0201724
0.450401 0.524605 0.0208133
0.501198 0.526528 0.0214542
0.552041 0.528923 0.0220798
0.603296 0.531121 0.0227207
0.654612 0.533349 0.0233768
0.705043 0.535317 0.0240177
0.753719 0.537758 0.0246738
0.799725 0.539986 0.0253605
0.842344 0.542184 0.0260319
0.881132 0.544167 0.026688
0.915846 0.546624 0.0273594
0.946303 0.548882 0.0280613
0.972641 0.551141 0.028748
0.992859 0.553094 0.0294347
0.999969 0.555535 0.0301213
0.999969 0.557809 0.030808
0.999969 0.559976 0.0315099
0.999969 0.562005 0.0321965
0.999969 0.564431 0.0328679
0.999969 0.566629 0.0336156
0 0.55697 0.0141604
0.0124819 0.558877 0.0147402
0.0319219 0.560815 0.0153048
0.0522164 0.562707 0.0158694
0.0754711 0.564706 0.0164797
0.10341 0.566644 0.0170748
0.135485 0.568643 0.0176852
0.171893 0.570611 0.0182803
0.212543 0.572625 0.0188907
0.256703 0.57467 0.0195315
0.303593 0.57673 0.0201572
0.352468 0.57879 0.0207828
0.402594 0.58085 0.0214084
0.453315 0.582925 0.0220645
0.504005 0.584985 0.0227207
0.554696 0.587076 0.0233616
0.605814 0.589166 0.0240024
0.656992 0.591287 0.0246738
0.70721 0.593423 0.0253452
0.755642 0.595514 0.0260014
0.801419 0.597635 0.0266728
0.843793 0.599771 0.0273594
0.882322 0.601877 0.0280308
0.916762 0.603937 0.028687
0.947051 0.606088 0.0294041
0.973205 0.60827 0.0301213
0.99321 0.610315 0.0307927
0.999969 0.612421 0.0314794
0.999969 0.614572 0.0321965
0.999969 0.616632 0.0328679
0.999969 0.618753 0.0335851
0.999969 0.620874 0.0342412
0.999969 0.622919 0.0349737
0 0.616464 0.015259
0.0139925 0.618326 0.0158541
0.0336767 0.619944 0.0164492
0.053727 0.622034 0.0170596
0.0775311 0.623957 0.0176547
0.10576 0.625803 0.0182803
0.138048 0.627466 0.0188907
0.174731 0.629602 0.019501
0.215549 0.63151 0.0201267
0.259815 0.633433 0.0207523
0.306752 0.635172 0.0213779
0.355612 0.637354 0.022034
0.405661 0.639307 0.0226749
0.45626 0.641291 0.0233463
0.506783 0.643015 0.0239872
0.557366 0.645212 0.0246586
0.608377 0.647196 0.02533
0.659373 0.649165 0.0260014
0.709392 0.650919 0.0266728
0.757595 0.653132 0.0273442
0.803098 0.6551 0.0280156
0.845197 0.65713 0.0287022
0.883467 0.658839 0.0293889
0.917708 0.661006 0.0300603
0.947784 0.663005 0.0307622
0.973724 0.665019 0.0314641
0.993545 0.666728 0.0321355
0.999969 0.668894 0.0328374
0.999969 0.670893 0.0335851
0.999969 0.672786 0.0342412
0.999969 0.674495 0.0349432
0.999969 0.676661 0.0356298
0.999969 0.678538 0.0363317
0 0.675547 0.0164187
0.0155642 0.677043 0.0170291
0.0354772 0.679042 0.0176242
0.055314 0.680568 0.0182498
0.0796368 0.682567 0.0188602
0.108141 0.684062 0.0194858
0.140719 0.686061 0.0201114
0.1776 0.687617 0.020737
0.218585 0.689601 0.0213779
0.262943 0.691142 0.0220035
0.309941 0.693187 0.0226596
0.358755 0.694743 0.0233005
0.408743 0.696773 0.0239567
0.459236 0.69839 0.0246433
0.509606 0.70042 0.0252995
0.560037 0.701976 0.0259556
0.610941 0.704036 0.0266423
0.661753 0.705623 0.0273289
0.711589 0.707652 0.0280003
0.759533 0.709224 0.0286564
0.804746 0.711223 0.0293584
0.846571 0.712856 0.030045
0.884627 0.714855 0.0307622
0.918624 0.716396 0.0314336
0.948486 0.718441 0.0321202
0.974258 0.719982 0.0328222
0.993866 0.721965 0.0335241
0.999969 0.723552 0.034226
0.999969 0.725536 0.0349584
0.999969 0.727001 0.0355993
0.999969 0.728954 0.0363317
0.999969 0.730449 0.0370031
0.999969 0.732341 0.037705
0.000183108 0.732906 0.0176089
0.0171664 0.734447 0.0182193
0.0373236 0.735897 0.0188449
0.0570077 0.737667 0.0194553
0.0817884 0.739254 0.0200961
0.110552 0.74078 0.0207218
0.143374 0.742199 0.0213474
0.180529 0.74406 0.0220035
0.221668 0.745602 0.0226444
0.266178 0.747204 0.0232853
0.313146 0.748608 0.0239414
0.361944 0.750439 0.0245823
0.411841 0.752056 0.0252537
0.462211 0.753689 0.0259556
0.512428 0.755077 0.0266117
0.562737 0.756893 0.0272984
0.613474 0.758526 0.0279698
0.664118 0.760128 0.0286564
0.713756 0.761517 0.0293431
0.761456 0.763333 0.0300145
0.806394 0.76492 0.0307012
0.848005 0.766522 0.0314183
0.885771 0.76791 0.032105
0.919539 0.76968 0.0328069
0.949203 0.771282 0.0335088
0.974777 0.772839 0.0342107
0.994202 0.774151 0.0349126
0.999969 0.775937 0.0355993
0.999969 0.777447 0.0363165
0.999969 0.778943 0.0370031
0.999969 0.78027 0.037705
0.999969 0.781949 0.038407
0.999969 0.783429 0.0390784
0.00106813 0.787259 0.0188144
0.0188144 0.788602 0.0194247
0.0392004 0.790036 0.0200656
0.0588846 0.791409 0.0206912
0.0840162 0.792813 0.0213474
0.113024 0.794156 0.021973
0.14612 0.79556 0.0226291
0.183505 0.797009 0.0232853
0.224826 0.798383 0.0239109
0.269413 0.799802 0.0245518
0.316426 0.801205 0.0252384
0.365164 0.802579 0.0259098
0.414954 0.803983 0.0265812
0.465171 0.805386 0.0272679
0.515251 0.806775 0.0279393
0.565438 0.808179 0.0286259
0.616037 0.809583 0.0292973
0.666499 0.810956 0.029984
0.715923 0.812345 0.0307012
0.763363 0.813733 0.0313573
0.808042 0.815091 0.0320745
0.849378 0.816464 0.0327916
0.8869 0.817807 0.0334783
0.920439 0.819165 0.0341955
0.94992 0.820493 0.0348974
0.975311 0.821866 0.0355993
0.994522 0.823163 0.0362707
0.999969 0.824475 0.0369726
0.999969 0.825772 0.0376745
0.999969 0.827085 0.0383917
0.999969 0.828336 0.0390784
0.999969 0.829572 0.0397803
0.999969 0.830839 0.0404669
0.00263981 0.837476 0.0200351
0.0205539 0.838636 0.0206912
0.0411231 0.839582 0.0212863
0.0609598 0.841016 0.0219425
0.0862898 0.842191 0.0226139
0.115557 0.843366 0.0232395
0.148882 0.844358 0.0238956
0.186526 0.845747 0.0245518
0.228016 0.846922 0.0251926
0.272679 0.848112 0.0258793
0.319707 0.849149 0.0265507
0.368414 0.850507 0.0272374
0.418112 0.851652 0.0278935
0.468162 0.852827 0.0285649
0.518044 0.853819 0.0292515
0.568139 0.855161 0.0299535
0.618616 0.856321 0.0306554
0.668879 0.857496 0.031342
0.718044 0.858503 0.0320439
0.765255 0.8598 0.0327306
0.809689 0.860929 0.0334478
0.850736 0.862074 0.0341802
0.887999 0.86302 0.0348669
0.92134 0.864317 0.0355688
0.950607 0.865415 0.0362554
0.97583 0.866529 0.0369573
0.994842 0.867445 0.037644
0.999969 0.868696 0.0383764
0.999969 0.869749 0.0390326
0.999969 0.870832 0.0397498
0.999969 0.871702 0.0404364
0.999969 0.872938 0.0411536
0.999969 0.873945 0.0418708
0.00424201 0.882795 0.0212863
0.0223087 0.883619 0.0219425
0.0431525 0.884733 0.0225681
0.0630808 0.885588 0.0231937
0.0886244 0.886671 0.0238956
0.118151 0.887495 0.0245212
0.151705 0.888594 0.0251926
0.189548 0.889448 0.0258488
0.231205 0.890593 0.0265202
0.275914 0.891402 0.0272068
0.322988 0.892515 0.0278935
0.371633 0.893324 0.0285649
0.421241 0.894423 0.0292363
0.471153 0.895247 0.0299229
0.520897 0.896361 0.0306096
0.570825 0.897139 0.0313268
0.621164 0.898207 0.0320287
0.671244 0.899001 0.0327001
0.720211 0.90013 0.0334478
0.767163 0.900923 0.0341344
0.811337 0.901976 0.0348211
0.852094 0.902708 0.0355535
0.889143 0.903761 0.0362554
0.92224 0.904509 0.0369268
0.951293 0.905547 0.0376287
0.976349 0.906294 0.0383154
0.995163 0.907317 0.0390173
0.999969 0.908064 0.0397345
0.999969 0.909072 0.0404212
0.999969 0.909773 0.0411383
0.999969 0.910735 0.0417945
0.999969 0.911437 0.0424964
0.999969 0.912398 0.0432136
0.00584421 0.922805 0.0225681
0.024155 0.923583 0.0231785
0.0450752 0.924254 0.0238651
0.0652018 0.925155 0.024506
0.0909895 0.925933 0.0251926
0.120745 0.926696 0.0258488
0.154574 0.927321 0.0265049
0.19266 0.928267 0.0271916
0.23444 0.92903 0.027863
0.27924 0.929778 0.0285496
0.326238 0.930373 0.029221
0.374868 0.931289 0.0299229
0.424369 0.932052 0.0306096
0.474144 0.93283 0.0313115
0.523705 0.933455 0.0319982
0.57351 0.934325 0.0327001
0.623682 0.935042 0.0334173
0.673594 0.935775 0.0341039
0.722316 0.9364 0.0347906
0.769039 0.937255 0.0354925
0.81294 0.937972 0.0361944
0.853452 0.938689 0.0369268
0.890257 0.939254 0.0376287
0.92311 0.940078 0.0383307
0.95198 0.94078 0.0390173
0.976867 0.941497 0.039704
0.995483 0.942046 0.0404059
0.999969 0.942855 0.0411078
0.999969 0.943511 0.0417945
0.999969 0.944167 0.0424811
0.999969 0.944686 0.043183
0.999969 0.945434 0.0438392
0.999969 0.94609 0.0445411
0.00749218 0.957336 0.0238651
0.0260014 0.957961 0.0244755
0.0468147 0.958556 0.0251621
0.0673381 0.959152 0.025803
0.0933852 0.959762 0.0265049
0.1234 0.960342 0.0271611
0.157519 0.960937 0.027863
0.195789 0.961532 0.0285344
0.237705 0.962097 0.029221
0.282551 0.962692 0.0298924
0.32958 0.963272 0.0305791
0.378103 0.963867 0.0312963
0.427512 0.964431 0.0319829
0.477119 0.965026 0.0326696
0.526543 0.965621 0.0333715
0.576196 0.966155 0.0340734
0.626215 0.96669 0.0347906
0.675929 0.967254 0.0354772
0.724437 0.967819 0.0361639
0.770886 0.968368 0.0368811
0.814511 0.968917 0.0375677
0.854795 0.969467 0.0382696
0.89134 0.969985 0.0390021
0.923964 0.970535 0.039704
0.952621 0.971054 0.0404059
0.97734 0.971588 0.0410773
0.995804 0.972091 0.0417792
0.999969 0.97258 0.0424811
0.999969 0.973083 0.043183
0.999969 0.973556 0.0438239
0.999969 0.974044 0.0445411
0.999969 0.974548 0.045182
0.999969 0.975036 0.0458686
0.00918593 0.985046 0.0251621
0.0278477 0.985412 0.0257725
0.0484016 0.985733 0.0264439
0.0695354 0.98613 0.0271611
0.0958572 0.986526 0.027863
0.12607 0.986877 0.0285191
0.160433 0.987167 0.0291905
0.198901 0.98761 0.0298924
0.240909 0.987945 0.0305791
0.285863 0.988296 0.0312963
0.332876 0.988617 0.0319524
0.381308 0.989044 0.0326543
0.430594 0.989395 0.0333562
0.480034 0.989731 0.0340429
0.52929 0.990021 0.0347601
0.578836 0.990417 0.035462
0.628717 0.990768 0.0361486
0.678248 0.991104 0.0368658
0.726513 0.991379 0.0375677
0.772702 0.991775 0.0382544
0.816068 0.992111 0.038941
0.856092 0.992447 0.0396429
0.892393 0.992721 0.0403754
0.924819 0.993088 0.041062
0.953277 0.993408 0.0417639
0.977844 0.993713 0.0424659
0.996063 0.993988 0.0431525
0.999969 0.994339 0.0438087
0.999969 0.994644 0.0445106
0.999969 0.994919 0.045182
0.999969 0.995178 0.0458686
0.999969 0.995499 0.0464637
0.999969 0.995773 0.0471199
0.0109102 0.999969 0.0264591
0.0297551 0.999969 0.0271458
0.0500343 0.999969 0.0278325
0.0716869 0.999969 0.0285039
0.0983291 0.999969 0.0291905
0.128786 0.999969 0.0298466
0.163394 0.999969 0.0305486
0.202029 0.999969 0.031281
0.244175 0.999969 0.0319524
0.289128 0.999969 0.032639
0.336156 0.999969 0.033341
0.384527 0.999969 0.0340429
0.433677 0.999969 0.0347601
0.482933 0.999969 0.0354314
0.532052 0.999969 0.0361334
