public/luts/Oana.cube
TITLE "Generated by Resolve"
LUT_3D_SIZE 5
0 0 0.000854505
0.174548 0 0.00321965
0.569696 0 0.00631724
0.935821 0 0.0101015
0.999969 0 0.014435
0 0.1299 0.0062562
0.190799 0.141588 0.0100099
0.586236 0.155535 0.0142977
0.941222 0.17145 0.0190433
0.999969 0.189181 0.0241855
0 0.55697 0.0141604
0.212543 0.572625 0.0188907
0.605814 0.589166 0.0240024
0.947051 0.606088 0.0294041
0.999969 0.622919 0.0349737
0.00749218 0.957336 0.0238651
0.237705 0.962097 0.029221
0.626215 0.96669 0.0347906
0.952621 0.971054 0.0404059
0.999969 0.975036 0.0458686
0.0216068 0.999969 0.0346075
0.2636 0.999969 0.0401923
0.645243 0.999969 0.045716
0.957397 0.999969 0.0498665
0.999969 0.999969 0.0534371
0 0 0.149142
0.177066 0 0.154147
0.572427 0 0.160571
0.936782 0 0.168368
0.999969 0 0.177264
0 0.133913 0.160372
0.194461 0.14641 0.168109
0.589731 0.161135 0.176974
0.942336 0.177844 0.186831
0.999969 0.196155 0.197513
0 0.5626 0.176654
0.217044 0.578683 0.186526
0.609628 0.595361 0.197147
0.948119 0.612284 0.20827
0.999969 0.628977 0.219562
0.0100252 0.959121 0.196765
0.242527 0.963821 0.207889
0.629908 0.968338 0.219196
0.953597 0.972534 0.23035
0.999969 0.976364 0.24094
0.0243229 0.999969 0.218799
0.268254 0.999969 0.229984
0.648463 0.999969 0.24062
0.95816 0.999969 0.250278
0.999969 0.999969 0.258518
0 0 0.512642
0.179858 0 0.518669
0.575402 0 0.526055
0.937758 0 0.534508
0.999969 0 0.54377
0 0.138247 0.525811
0.198352 0.151583 0.534218
0.593301 0.167025 0.543496
0.943404 0.18439 0.553292
0.999969 0.203143 0.563348
0.000137331 0.568338 0.543145
0.221637 0.58471 0.552941
0.613443 0.601572 0.563027
0.949203 0.618479 0.573144
0.999969 0.634943 0.583032
0.0125887 0.960861 0.562692
0.247425 0.965515 0.572824
0.633585 0.96994 0.582712
0.954543 0.973983 0.592065
0.999969 0.977646 0.600656
0.0270695 0.999969 0.582406
0.272831 0.999969 0.591791
0.65156 0.999969 0.600381
0.958846 0.999969 0.607919
0.999969 0.999969 0.614084
0 0 0.897353
0.182803 0 0.899565
0.578424 0 0.90222
0.938781 0 0.905196
0.999969 0 0.90837
0 0.142916 0.902129
0.20238 0.157031 0.905058
0.596933 0.17319 0.908248
0.944488 0.191119 0.911482
0.999969 0.210346 0.914733
0.00181582 0.574258 0.908141
0.226352 0.59089 0.911376
0.617258 0.607797 0.914626
0.950225 0.624582 0.917815
0.999969 0.640726 0.920836
0.0152132 0.96257 0.914534
0.252262 0.967163 0.917723
0.637156 0.971466 0.92076
0.955428 0.975402 0.923568
0.999969 0.978836 0.926055
0.0298466 0.999969 0.920653
0.277256 0.999969 0.923445
0.654505 0.999969 0.925978
0.959503 0.999969 0.928069
0.999969 0.999969 0.929763
0 0 0.999969
0.186038 0 0.999969
0.581689 0 0.999969
0.939834 0 0.999969
0.999969 0 0.999969
0 0.147799 0.999969
0.206607 0.162737 0.999969
0.600671 0.179568 0.999969
0.945571 0.198032 0.999969
0.999969 0.217594 0.999969
0.0041352 0.580285 0.999969
0.231128 0.59707 0.999969
0.621042 0.613977 0.999969
0.951278 0.63061 0.999969
0.999969 0.646433 0.999969
0.0178683 0.964309 0.999969
0.257099 0.96878 0.999969
0.64065 0.972961 0.999969
0.956298 0.97673 0.999969
0.999969 0.979965 0.999969
0.0325933 0.999969 0.999969
0.281529 0.999969 0.999969
0.657267 0.999969 0.999969
0.960113 0.999969 0.999969
0.999969 0.999969 0.999969
