public/luts/Sepia.cube
TITLE "Generated by Resolve"
LUT_3D_SIZE 5
0.0392157 0.027924 0
0.134081 0.0314794 0
0.347341 0.0365911 0
0.671214 0.0430304 0
1 0.0485237 0
0.0542153 0.127001 0
0.160418 0.13547 0
0.382635 0.143191 0
0.684993 0.148013 0
1 0.153689 0
0.0729229 0.350164 0
0.179278 0.356634 0
0.400244 0.364096 0
0.695918 0.372244 0
1 0.380774 0
0.0824445 0.671366 0
0.195514 0.676127 0
0.420127 0.681086 0
0.707195 0.686061 0
1 0.690822 0
0.0937209 1 0
0.213855 1 0
0.439765 1 0
0.717418 1 0
1 1 0
0.0410925 0.0290379 0.069276
0.138033 0.0331731 0.0717479
0.354574 0.0388037 0.0752422
0.675792 0.0456703 0.0801404
1 0.0496986 0.0833143
0.0579843 0.129885 0.0751354
0.166278 0.139071 0.0799573
0.385641 0.144854 0.083238
0.686976 0.149996 0.0862287
1 0.155947 0.0896925
0.0745403 0.352407 0.0831464
0.182055 0.359258 0.0861067
0.403845 0.367025 0.0895857
0.698039 0.375341 0.09337
1 0.383917 0.0973678
0.0844434 0.673045 0.0894331
0.19881 0.677943 0.0932479
0.423896 0.682948 0.0972305
0.709209 0.687846 0.101289
1 0.692454 0.105226
0.0959029 1 0.0970932
0.217304 1 0.101167
0.443183 1 0.105104
0.719081 1 0.108736
1 1 0.111864
0.043473 0.0303655 0.29131
0.142489 0.0350652 0.295659
0.362112 0.0411688 0.301656
0.679011 0.0476844 0.308873
1 0.0509499 0.312718
0.0618906 0.133028 0.301396
0.170779 0.141985 0.308659
0.388785 0.146639 0.312566
0.688914 0.152087 0.317174
1 0.158297 0.322301
0.0762036 0.354788 0.312428
0.18497 0.36202 0.317006
0.407523 0.370016 0.322133
0.70016 0.378485 0.327596
1 0.387091 0.333135
0.0865034 0.674846 0.32192
0.202228 0.679774 0.327398
0.427619 0.684749 0.332967
0.711208 0.689586 0.33843
1 0.694041 0.343557
0.0981308 1 0.332784
0.220752 1 0.338262
0.446448 1 0.343374
0.720638 1 0.347936
1 1 0.351675
0.0462501 0.0319066 0.661982
0.147387 0.037171 0.665049
0.369711 0.0437171 0.669291
0.68069 0.0488136 0.672938
1 0.0522927 0.675517
0.0658885 0.136416 0.669154
0.173251 0.143633 0.672831
0.39205 0.148547 0.67541
0.69099 0.154299 0.678355
1 0.160723 0.681575
0.0779736 0.357336 0.675319
0.187991 0.364904 0.678264
0.411246 0.373083 0.681498
0.702266 0.381628 0.684825
1 0.390173 0.688167
0.0886091 0.676661 0.681346
0.205615 0.68159 0.684749
0.431312 0.686549 0.688075
0.713115 0.691295 0.691264
1 0.695628 0.694194
0.100359 1 0.687984
0.224125 1 0.691157
0.449607 1 0.694133
0.722103 1 0.696681
1 1 0.69865
0.0494392 0.0336614 1
0.152712 0.0393988 1
0.377356 0.0464179 1
0.68249 0.0500343 1
1 0.0537118 1
0.0699168 0.140093 1
0.175692 0.145342 1
0.395468 0.150576 1
0.693065 0.156573 1
1 0.163165 1
0.0798352 0.360037 1
0.191104 0.367834 1
0.414969 0.376196 1
0.704372 0.384802 1
1 0.393301 1
0.0907454 0.678431 1
0.209094 0.683436 1
0.434928 0.688334 1
0.714977 0.692912 1
1 0.697047 1
0.102571 1 1
0.227451 1 1
0.452598 1 1
0.723445 1 1
1 1 1
