public/luts/Sepia.cube
TITLE "Generated by Resolve"
LUT_3D_SIZE 33
0.0392157 0.027924 0
0.0489967 0.028275 0
0.0589609 0.0286564 0
0.069337 0.0290684 0
0.0802167 0.0294804 0
0.0918898 0.0299229 0
0.10454 0.0304417 0
0.118486 0.0309606 0
0.134081 0.0314794 0
0.151675 0.0320287 0
0.171572 0.0326085 0
0.194064 0.0332036 0
0.219379 0.0338598 0
0.247517 0.0345006 0
0.278401 0.0351568 0
0.311788 0.035874 0
0.347341 0.0365911 0
0.384787 0.0373083 0
0.423758 0.0380713 0
0.463844 0.0388495 0
0.504738 0.0396429 0
0.546105 0.0404517 0
0.587732 0.0412757 0
0.629435 0.0421302 0
0.671214 0.0430304 0
0.713008 0.0438849 0
0.754726 0.044831 0
0.796277 0.0457465 0
0.837568 0.0466316 0
0.878492 0.047364 0
0.919051 0.0477302 0
0.959564 0.0481422 0
1 0.0485237 0
0.0404212 0.0380102 0
0.0502937 0.0383917 0
0.0603647 0.0387579 0
0.0708629 0.0392462 0
0.0819104 0.0397345 0
0.0937209 0.0402075 0
0.106584 0.0406958 0
0.120775 0.0412604 0
0.13666 0.0418402 0
0.154604 0.0424506 0
0.174838 0.0430304 0
0.197711 0.0437171 0
0.223407 0.0443732 0
0.25185 0.0450599 0
0.282933 0.0457313 0
0.316472 0.0464942 0
0.352132 0.0472267 0
0.389609 0.0480049 0
0.428473 0.0487373 0
0.468421 0.0495918 0
0.509087 0.0504311 0
0.550134 0.0512856 0
0.591409 0.0521096 0
0.632853 0.0530404 0
0.674281 0.0539559 0
0.715663 0.0548867 0
0.756939 0.0557565 0
0.797894 0.0565347 0
0.838453 0.0569009 0
0.87892 0.0572824 0
0.91931 0.0576486 0
0.959731 0.0580758 0
1 0.0584878 0
0.0418708 0.0482795 0
0.0518196 0.0486915 0
0.0619821 0.0491951 0
0.0725567 0.0496529 0
0.0837568 0.0501869 0
0.0957656 0.0507057 0
0.108873 0.0513313 0
0.123308 0.0518654 0
0.139483 0.0525216 0
0.157748 0.0531472 0
0.178378 0.0538186 0
0.201602 0.0544442 0
0.227665 0.0552224 0
0.256413 0.0558938 0
0.287755 0.0567025 0
0.321386 0.0574197 0
0.357107 0.0582437 0
0.394522 0.0590219 0
0.433326 0.0598917 0
0.473045 0.0607156 0
0.513466 0.0616617 0
0.554192 0.062501 0
0.595117 0.063447 0
0.636194 0.0643473 0
0.677256 0.0653239 0
0.717952 0.0659953 0
0.758267 0.0664683 0
0.798627 0.0668345 0
0.838972 0.0672618 0
0.879362 0.067628 0
0.919631 0.0680552 0
0.959869 0.068452 0
1 0.0689403 0
0.0435035 0.0590219 0
0.0535592 0.0595102 0
0.0637827 0.059968 0
0.0745098 0.0605631 0
0.0858167 0.0611429 0
0.0980087 0.061738 0
0.11133 0.0623331 0
0.12604 0.0629892 0
0.142535 0.0636606 0
0.161166 0.0643778 0
0.182101 0.0650339 0
0.205737 0.0658122 0
0.23212 0.0665751 0
0.261143 0.0673533 0
0.292653 0.0681315 0
0.326436 0.068986 0
0.362158 0.0698405 0
0.399558 0.0707561 0
0.438148 0.0715953 0
0.477684 0.0725414 0
0.51783 0.0734722 0
0.558236 0.0744335 0
0.598733 0.0753338 0
0.639048 0.0761273 0
0.678981 0.076585 0
0.719036 0.0769818 0
0.759121 0.0773632 0
0.799313 0.0778058 0
0.839597 0.0782483 0
0.879789 0.0786908 0
0.919997 0.0790723 0
0.960037 0.0795605 0
1 0.0800641 0
0.0453498 0.0703441 0
0.055436 0.0708934 0
0.0657816 0.0714427 0
0.0766155 0.0720836 0
0.0880598 0.0727245 0
0.100465 0.0733654 0
0.114 0.0740826 0
0.128969 0.0747692 0
0.1458 0.0755169 0
0.164767 0.0762798 0
0.186099 0.0770428 0
0.210071 0.0778668 0
0.236744 0.0786908 0
0.266011 0.0795453 0
0.297734 0.0804303 0
0.331579 0.0813306 0
0.367285 0.0822461 0
0.404593 0.0832074 0
0.44303 0.084184 0
0.482277 0.0851911 0
0.522042 0.0861677 0
0.561654 0.0869154 0
0.600931 0.0873732 0
0.640452 0.0878462 0
0.680156 0.0882582 0
0.720043 0.0887007 0
0.760037 0.0891432 0
0.800092 0.089601 0
0.840208 0.0900435 0
0.880278 0.0905165 0
0.920287 0.0910201 0
0.960189 0.0915084 0
1 0.0920424 0
0.047364 0.0824903 0
0.0574807 0.0831311 0
0.0679026 0.0837415 0
0.0788586 0.0844587 0
0.0904707 0.0851911 0
0.103059 0.0859388 0
0.116808 0.0866255 0
0.132082 0.0874647 0
0.149233 0.0882887 0
0.168551 0.0891432 0
0.190219 0.0899519 0
0.214557 0.090898 0
0.241489 0.091783 0
0.271 0.0927291 0
0.302831 0.0936751 0
0.336751 0.0947127 0
0.372427 0.0957198 0
0.409598 0.0967727 0
0.44773 0.0977493 0
0.486152 0.0986038 0
0.524559 0.0991226 0
0.563348 0.0995956 0
0.60238 0.0999771 0
0.641749 0.100481 0
0.681315 0.100938 0
0.72105 0.101427 0
0.760937 0.101869 0
0.80087 0.102403 0
0.840803 0.102937 0
0.880766 0.103471 0
0.920623 0.103914 0
0.960388 0.104524 0
1 0.105089 0
0.0495155 0.0957809 0
0.059678 0.0964523 0
0.070222 0.0972305 0
0.0812848 0.0979629 0
0.0930648 0.0988174 0
0.105791 0.0995956 0
0.119814 0.100526 0
0.135363 0.10132 0
0.15285 0.102312 0
0.172457 0.103182 0
0.194491 0.104219 0
0.21915 0.10515 0
0.246387 0.106218 0
0.276051 0.107225 0
0.308019 0.108385 0
0.341909 0.109407 0
0.377447 0.110552 0
0.413748 0.111315 0
0.450584 0.111955 0
0.488167 0.112413 0
0.526268 0.112932 0
0.564843 0.113359 0
0.603845 0.113924 0
0.643061 0.114351 0
0.682506 0.114916 0
0.722148 0.115419 0
0.761852 0.116014 0
0.801663 0.116487 0
0.841489 0.117128 0
0.88127 0.117678 0
0.920989 0.118318 0
0.960555 0.118837 0
1 0.119509 0
0.0518044 0.110506 0
0.0620279 0.111315 0
0.0726329 0.112108 0
0.0838483 0.113085 0
0.0957656 0.113954 0
0.108705 0.114916 0
0.122957 0.115831 0
0.138781 0.116869 0
0.156588 0.117891 0
0.176532 0.118959 0
0.198886 0.119966 0
0.223865 0.121157 0
0.251316 0.122316 0
0.281163 0.123507 0
0.313085 0.12462 0
0.346273 0.125551 0
0.380545 0.126162 0
0.416068 0.126741 0
0.452552 0.127184 0
0.489921 0.127749 0
0.527962 0.128267 0
0.566445 0.128817 0
0.60528 0.129305 0
0.644419 0.129931 0
0.683742 0.130526 0
0.723247 0.131121 0
0.762829 0.131655 0
0.802472 0.132342 0
0.842145 0.132967 0
0.881743 0.133639 0
0.921294 0.134234 0
0.960708 0.134951 0
1 0.135607 0
0.0542153 0.127001 0
0.0644846 0.127947 0
0.0751812 0.128923 0
0.0864881 0.129976 0
0.098558 0.130968 0
0.111711 0.132052 0
0.126192 0.133165 0
0.142321 0.134279 0
0.160418 0.13547 0
0.180697 0.13666 0
0.203387 0.137896 0
0.228595 0.139178 0
0.256245 0.140459 0
0.285451 0.14139 0
0.316243 0.142061 0
0.348684 0.142657 0
0.382635 0.143191 0
0.417975 0.143755 0
0.454429 0.14432 0
0.491753 0.1449 0
0.529686 0.14551 0
0.568063 0.14609 0
0.606806 0.146715 0
0.645792 0.147372 0
0.684993 0.148013 0
0.724376 0.148684 0
0.763836 0.149355 0
0.803311 0.150042 0
0.842786 0.150729 0
0.882246 0.151476 0
0.92163 0.152209 0
0.960876 0.152972 0
1 0.153689 0
0.056733 0.145724 0
0.0670329 0.146807 0
0.0778058 0.147845 0
0.0892348 0.149096 0
0.101472 0.150271 0
0.114824 0.151492 0
0.129503 0.152651 0
0.145953 0.154025 0
0.16434 0.155367 0
0.184909 0.156725 0
0.207874 0.158022 0
0.232578 0.159075 0
0.259281 0.159854 0
0.287907 0.160494 0
0.318379 0.160983 0
0.350698 0.161654 0
0.384634 0.16228 0
0.419944 0.162905 0
0.456336 0.163439 0
0.493599 0.164172 0
0.531456 0.164858 0
0.569741 0.165545 0
0.608362 0.166155 0
0.647242 0.166949 0
0.686305 0.167681 0
0.725551 0.168414 0
0.764813 0.169085 0
0.80415 0.169909 0
0.843503 0.170703 0
0.88278 0.171496 0
0.92195 0.172213 0
0.961059 0.173114 0
1 0.173922 0
0.0593118 0.166964 0
0.0696574 0.168109 0
0.0805371 0.169482 0
0.0920424 0.170672 0
0.104448 0.172122 0
0.117983 0.173434 0
0.132937 0.174899 0
0.14963 0.176272 0
0.168338 0.177874 0
0.188449 0.17879 0
0.210697 0.179751 0
0.234958 0.180346 0
0.261341 0.181048 0
0.289891 0.181598 0
0.320424 0.18233 0
0.352743 0.182925 0
0.386694 0.183703 0
0.421973 0.184314 0
0.458335 0.185107 0
0.495521 0.185748 0
0.533272 0.186572 0
0.57142 0.187259 0
0.609949 0.188098 0
0.648692 0.1888 0
0.687633 0.1897 0
0.726726 0.190417 0
0.765835 0.191363 0
0.80502 0.192065 0
0.844205 0.193042 0
0.88333 0.19379 0
0.922332 0.194766 0
0.961227 0.195575 0
1 0.196551 0
0.0619516 0.191012 0
0.072343 0.192386 0
0.083299 0.193729 0
0.0949264 0.1953 0
0.107469 0.196826 0
0.121233 0.198367 0
0.136385 0.199832 0
0.152758 0.201038 0
0.170855 0.202014 0
0.190646 0.202731 0
0.212589 0.203281 0
0.236835 0.204059 0
0.26331 0.20473 0
0.29192 0.205447 0
0.322499 0.206058 0
0.354879 0.206912 0
0.388815 0.207691 0
0.424079 0.208453 0
0.460365 0.209125 0
0.49749 0.21004 0
0.535149 0.210864 0
0.57319 0.211688 0
0.611566 0.212436 0
0.650172 0.213413 0
0.688945 0.214267 0
0.727886 0.215167 0
0.766842 0.215961 0
0.805905 0.216983 0
0.844907 0.217914 0
0.883833 0.218845 0
0.922683 0.219684 0
0.96141 0.220752 0
1 0.221698 0
0.0645914 0.218036 0
0.0750744 0.219577 0
0.0861067 0.221195 0
0.0978256 0.222812 0
0.110552 0.224491 0
0.123964 0.22565 0
0.138643 0.226703 0
0.154696 0.227451 0
0.172503 0.228153 0
0.19234 0.228855 0
0.214405 0.229572 0
0.238758 0.230304 0
0.265354 0.231067 0
0.294026 0.231846 0
0.324651 0.232639 0
0.357061 0.233448 0
0.391028 0.234272 0
0.42623 0.235126 0
0.462455 0.235981 0
0.499489 0.236866 0
0.537041 0.237736 0
0.57496 0.238636 0
0.613214 0.239567 0
0.651682 0.240513 0
0.690318 0.241428 0
0.729091 0.242374 0
0.76791 0.243336 0
0.80679 0.244343 0
0.845609 0.245304 0
0.884352 0.246281 0
0.923018 0.247288 0
0.961608 0.248325 0
1 0.249332 0
0.0672618 0.248066 0
0.077821 0.249744 0
0.0888991 0.251392 0
0.100298 0.252689 0
0.112581 0.253819 0
0.125689 0.254597 0
0.140093 0.255192 0
0.156161 0.256031 0
0.174105 0.256809 0
0.19408 0.257572 0
0.216281 0.258228 0
0.240757 0.259129 0
0.267445 0.259968 0
0.296223 0.260822 0
0.326894 0.261555 0
0.359304 0.262531 0
0.393256 0.263416 0
0.428443 0.264317 0
0.464607 0.265126 0
0.501534 0.266194 0
0.538949 0.267124 0
0.576776 0.26807 0
0.614878 0.268925 0
0.653193 0.270039 0
0.691707 0.271031 0
0.730327 0.272023 0
0.769009 0.272892 0
0.807706 0.274052 0
0.846342 0.275059 0
0.884886 0.276081 0
0.923415 0.277012 0
0.961791 0.278218 0
1 0.279255 0
0.0699931 0.280858 0
0.0801404 0.281971 0
0.0908217 0.283314 0
0.101884 0.28397 0
0.113848 0.28481 0
0.12697 0.285451 0
0.141512 0.286305 0
0.157702 0.286961 0
0.175769 0.287922 0
0.19588 0.288579 0
0.218235 0.289555 0
0.242817 0.290272 0
0.269612 0.291295 0
0.298466 0.292058 0
0.329198 0.293095 0
0.361608 0.293873 0
0.395544 0.294942 0
0.430686 0.295735 0
0.466789 0.296834 0
0.503609 0.297688 0
0.540932 0.298787 0
0.578592 0.299641 0
0.616556 0.300771 0
0.654719 0.301686 0
0.693095 0.302846 0
0.731533 0.303746 0
0.770062 0.304906 0
0.808576 0.305837 0
0.847059 0.307027 0
0.88542 0.307942 0
0.923812 0.309163 0
0.96199 0.310094 0
1 0.311299 0
0.0718395 0.314946 0
0.0816358 0.315755 0
0.0919661 0.316365 0
0.103044 0.317235 0
0.115068 0.317998 0
0.128298 0.318822 0
0.142962 0.319463 0
0.159289 0.320439 0
0.177493 0.321263 0
0.197757 0.322118 0
0.220233 0.322866 0
0.244953 0.323888 0
0.271855 0.324788 0
0.300786 0.325719 0
0.331533 0.326513 0
0.363958 0.327596 0
0.397879 0.328573 0
0.432975 0.329534 0
0.468971 0.330388 0
0.505714 0.331533 0
0.542916 0.332525 0
0.580453 0.333532 0
0.618265 0.334417 0
0.656306 0.335592 0
0.694499 0.336675 0
0.732784 0.337713 0
0.771115 0.338613 0
0.809445 0.339818 0
0.847761 0.340932 0
0.886 0.34197 0
0.924163 0.342931 0
0.962173 0.344137 0
1 0.34522 0
0.0729229 0.350164 0
0.0826886 0.350912 0
0.09308 0.351675 0
0.104234 0.352438 0
0.116365 0.353246 0
0.129702 0.354101 0
0.144472 0.35491 0
0.160937 0.355779 0
0.179278 0.356634 0
0.199695 0.357534 0
0.222324 0.358434 0
0.24715 0.359319 0
0.274159 0.36025 0
0.303151 0.361196 0
0.333928 0.362142 0
0.366354 0.363119 0
0.400244 0.364096 0
0.435279 0.365087 0
0.471229 0.366079 0
0.507851 0.367102 0
0.544915 0.368109 0
0.582345 0.3691 0
0.62002 0.370153 0
0.657877 0.371176 0
0.695918 0.372244 0
0.734035 0.373297 0
0.772183 0.374334 0
0.810346 0.375402 0
0.848478 0.376486 0
0.886549 0.377539 0
0.924498 0.378592 0
0.962341 0.379721 0
1 0.380774 0
0.073991 0.387106 0
0.0838026 0.387869 0
0.0942397 0.388495 0
0.10547 0.389441 0
0.117693 0.390265 0
0.131151 0.391119 0
0.146044 0.391806 0
0.162646 0.392844 0
0.181125 0.393713 0
0.201709 0.394614 0
0.22446 0.395361 0
0.249409 0.396429 0
0.276493 0.39736 0
0.305547 0.398322 0
0.33637 0.399115 0
0.368811 0.400229 0
0.402655 0.401221 0
0.437644 0.402197 0
0.473487 0.403037 0
0.510002 0.404196 0
0.546929 0.405203 0
0.584222 0.406195 0
0.621759 0.407065 0
0.659464 0.40824 0
0.697353 0.409293 0
0.735286 0.41033 0
0.773266 0.4112 0
0.811261 0.412421 0
0.84921 0.413428 0
0.887083 0.414481 0
0.924849 0.415366 0
0.962509 0.416602 0
1 0.417624 0
0.0750896 0.425513 0
0.0849622 0.426139 0
0.0954604 0.4271 0
0.106737 0.427741 0
0.119081 0.428717 0
0.132601 0.429435 0
0.147662 0.430426 0
0.164401 0.431144 0
0.183032 0.432151 0
0.203738 0.432883 0
0.226658 0.433936 0
0.251713 0.434684 0
0.278889 0.435782 0
0.307988 0.436561 0
0.338872 0.437644 0
0.371283 0.438437 0
0.405097 0.439551 0
0.440009 0.44036 0
0.475792 0.441489 0
0.512154 0.442329 0
0.548943 0.443458 0
0.586114 0.444297 0
0.623499 0.445426 0
0.661051 0.446265 0
0.698756 0.44744 0
0.736522 0.44831 0
0.774334 0.449439 0
0.812146 0.450294 0
0.849943 0.451469 0
0.887648 0.452293 0
0.925246 0.453483 0
0.962692 0.454292 0
1 0.455482 0
0.0762341 0.46511 0
0.0861524 0.465873 0
0.0967117 0.466529 0
0.108095 0.467491 0
0.120516 0.468269 0
0.134142 0.469123 0
0.14931 0.469795 0
0.166232 0.470817 0
0.185016 0.471641 0
0.205859 0.472526 0
0.228885 0.473243 0
0.254093 0.474281 0
0.281331 0.475181 0
0.310491 0.476097 0
0.34139 0.47686 0
0.373816 0.477913 0
0.407553 0.478843 0
0.442405 0.479759 0
0.47808 0.480537 0
0.514351 0.481636 0
0.551003 0.482582 0
0.588037 0.483543 0
0.625238 0.484321 0
0.662638 0.485435 0
0.70016 0.486397 0
0.737774 0.487373 0
0.775418 0.488151 0
0.813077 0.48925 0
0.85066 0.490227 0
0.888182 0.491157 0
0.925597 0.491966 0
0.962875 0.49305 0
1 0.494011 0
0.077409 0.505562 0
0.0873732 0.506279 0
0.0979934 0.507073 0
0.109483 0.507866 0
0.121981 0.508629 0
0.135744 0.509422 0
0.151049 0.510216 0
0.168078 0.51107 0
0.187015 0.511879 0
0.208026 0.512718 0
0.231189 0.513558 0
0.256504 0.514412 0
0.283803 0.515282 0
0.313024 0.516136 0
0.343954 0.517006 0
0.376349 0.517876 0
0.410025 0.51873 0
0.444816 0.519631 0
0.4804 0.520516 0
0.516548 0.521401 0
0.553079 0.522301 0
0.589929 0.523201 0
0.626993 0.524102 0
0.664225 0.524987 0
0.701579 0.525856 0
0.73904 0.526787 0
0.776501 0.527657 0
0.813977 0.528572 0
0.851362 0.529458 0
0.888716 0.530312 0
0.925917 0.531212 0
0.963027 0.532097 0
1 0.532998 0
0.0786297 0.546502 0
0.0886397 0.547234 0
0.099321 0.547799 0
0.110887 0.54873 0
0.123491 0.549493 0
0.137392 0.550225 0
0.152819 0.550835 0
0.170001 0.551781 0
0.189075 0.55256 0
0.210239 0.553338 0
0.233539 0.553964 0
0.258946 0.55494 0
0.286336 0.555749 0
0.315572 0.556558 0
0.346487 0.557229 0
0.378912 0.558221 0
0.412558 0.55903 0
0.447242 0.559869 0
0.482704 0.56054 0
0.51873 0.561517 0
0.555138 0.562371 0
0.591836 0.563195 0
0.628748 0.563882 0
0.665812 0.564874 0
0.703014 0.565682 0
0.740276 0.566522 0
0.777569 0.567163 0
0.814847 0.568185 0
0.852064 0.569009 0
0.88925 0.569802 0
0.926299 0.570474 0
0.963241 0.57142 0
1 0.572259 0
0.0798657 0.587869 0
0.0899367 0.588403 0
0.10071 0.589273 0
0.112322 0.589792 0
0.125048 0.590677 0
0.13904 0.591211 0
0.15465 0.592065 0
0.171954 0.59266 0
0.19118 0.593545 0
0.212467 0.59411 0
0.235904 0.595041 0
0.261402 0.595605 0
0.288899 0.596521 0
0.318151 0.597116 0
0.349081 0.598062 0
0.38146 0.598672 0
0.415091 0.599588 0
0.449668 0.600198 0
0.485023 0.601144 0
0.520897 0.60174 0
0.557168 0.602655 0
0.593729 0.603265 0
0.630503 0.604196 0
0.667414 0.604776 0
0.704417 0.605692 0
0.741497 0.606302 0
0.778637 0.607217 0
0.815717 0.607813 0
0.85275 0.608743 0
0.889754 0.609354 0
0.92665 0.610239 0
0.963409 0.610788 0
1 0.611673 0
0.0811322 0.629511 0
0.091249 0.630167 0
0.102098 0.630655 0
0.113802 0.631449 0
0.126635 0.632105 0
0.14078 0.632776 0
0.156497 0.633249 0
0.173999 0.634089 0
0.193332 0.63476 0
0.214755 0.635462 0
0.2383 0.635981 0
0.263905 0.636805 0
0.291463 0.637491 0
0.320775 0.638178 0
0.35169 0.638712 0
0.384054 0.639582 0
0.417609 0.640269 0
0.452125 0.640986 0
0.487358 0.64155 0
0.523125 0.642405 0
0.559213 0.643091 0
0.595621 0.643793 0
0.632227 0.644327 0
0.668971 0.645167 0
0.705821 0.645853 0
0.742718 0.646525 0
0.77966 0.647059 0
0.816602 0.647898 0
0.853452 0.648585 0
0.890303 0.649256 0
0.926986 0.64979 0
0.963561 0.650568 0
1 0.651209 0
0.0824445 0.671366 0
0.0926223 0.671931 0
0.103517 0.672496 0
0.115343 0.673121 0
0.128267 0.673701 0
0.142519 0.674342 0
0.158389 0.674922 0
0.176013 0.675502 0
0.195514 0.676127 0
0.21709 0.676738 0
0.240757 0.677333 0
0.266438 0.677974 0
0.294057 0.67863 0
0.323415 0.67921 0
0.354345 0.679835 0
0.386648 0.680476 0
0.420127 0.681086 0
0.454566 0.681712 0
0.489677 0.682353 0
0.525307 0.682979 0
0.561242 0.683619 0
0.597467 0.684245 0
0.633921 0.684871 0
0.670512 0.685466 0
0.707195 0.686061 0
0.743938 0.686671 0
0.780713 0.687282 0
0.817456 0.687877 0
0.85417 0.688472 0
0.890806 0.689082 0
0.927337 0.689677 0
0.963745 0.690227 0
1 0.690822 0
0.0838026 0.713252 0
0.0940108 0.713771 0
0.104967 0.714137 0
0.116884 0.714839 0
0.129931 0.715358 0
0.144335 0.715908 0
0.160311 0.716304 0
0.178088 0.717006 0
0.197742 0.71754 0
0.219455 0.718074 0
0.243214 0.718441 0
0.269017 0.719188 0
0.296681 0.719738 0
0.326055 0.720272 0
0.356939 0.720653 0
0.389227 0.72137 0
0.42266 0.721935 0
0.456992 0.722469 0
0.491966 0.72285 0
0.527443 0.723583 0
0.563272 0.724102 0
0.599359 0.724651 0
0.635599 0.725048 0
0.672023 0.725765 0
0.708553 0.726284 0
0.745129 0.726818 0
0.78175 0.727184 0
0.818311 0.727825 0
0.85481 0.728359 0
0.891295 0.728878 0
0.927642 0.729229 0
0.963928 0.729915 0
1 0.730404 0
0.0851453 0.755169 0
0.0954299 0.755505 0
0.106477 0.7561 0
0.118471 0.75639 0
0.131624 0.757015 0
0.146136 0.757351 0
0.162295 0.757977 0
0.180163 0.758267 0
0.199985 0.758907 0
0.221836 0.759213 0
0.245731 0.759838 0
0.271595 0.760159 0
0.299321 0.760815 0
0.328679 0.76112 0
0.359579 0.761761 0
0.391821 0.762066 0
0.425177 0.762692 0
0.459403 0.762997 0
0.49427 0.763638 0
0.529564 0.763943 0
0.565286 0.764553 0
0.60119 0.764858 0
0.637278 0.765499 0
0.673548 0.76582 0
0.709895 0.76643 0
0.746258 0.766735 0
0.782727 0.7673 0
0.81915 0.767559 0
0.855467 0.76817 0
0.891783 0.76849 0
0.927962 0.769055 0
0.964065 0.769345 0
1 0.769924 0
0.0865339 0.797116 0
0.0968643 0.797482 0
0.107988 0.79765 0
0.120089 0.79823 0
0.133349 0.798611 0
0.147997 0.799023 0
0.164279 0.799268 0
0.182284 0.799817 0
0.202228 0.800229 0
