public/luts/Sepia.cube
TITLE "Generated by Resolve"
LUT_3D_SIZE 9
0.0392157 0.027924 0
0.0802167 0.0294804 0
0.134081 0.0314794 0
0.219379 0.0338598 0
0.347341 0.0365911 0
0.504738 0.0396429 0
0.671214 0.0430304 0
0.837568 0.0466316 0
1 0.0485237 0
0.0453498 0.0703441 0
0.0880598 0.0727245 0
0.1458 0.0755169 0
0.236744 0.0786908 0
0.367285 0.0822461 0
0.522042 0.0861677 0
0.680156 0.0882582 0
0.840208 0.0900435 0
1 0.0920424 0
0.0542153 0.127001 0
0.098558 0.130968 0
0.160418 0.13547 0
0.256245 0.140459 0
0.382635 0.143191 0
0.529686 0.14551 0
0.684993 0.148013 0
0.842786 0.150729 0
1 0.153689 0
0.0645914 0.218036 0
0.110552 0.224491 0
0.172503 0.228153 0
0.265354 0.231067 0
0.391028 0.234272 0
0.537041 0.237736 0
0.690318 0.241428 0
0.845609 0.245304 0
1 0.249332 0
0.0729229 0.350164 0
0.116365 0.353246 0
0.179278 0.356634 0
0.274159 0.36025 0
0.400244 0.364096 0
0.544915 0.368109 0
0.695918 0.372244 0
0.848478 0.376486 0
1 0.380774 0
0.077409 0.505562 0
0.121981 0.508629 0
0.187015 0.511879 0
0.283803 0.515282 0
0.410025 0.51873 0
0.553079 0.522301 0
0.701579 0.525856 0
0.851362 0.529458 0
1 0.532998 0
0.0824445 0.671366 0
0.128267 0.673701 0
0.195514 0.676127 0
0.294057 0.67863 0
0.420127 0.681086 0
0.561242 0.683619 0
0.707195 0.686061 0
0.85417 0.688472 0
1 0.690822 0
0.0879225 0.838865 0
0.135088 0.840101 0
0.204547 0.841413 0
0.304585 0.842634 0
0.430106 0.843931 0
0.569207 0.845182 0
0.71252 0.846372 0
0.856764 0.847471 0
1 0.848585 0
0.0937209 1 0
0.142306 1 0
0.213855 1 0
0.314946 1 0
0.439765 1 0
0.576654 1 0
0.717418 1 0
0.859144 1 0
1 1 0
0.0401007 0.0284733 0.0127718
0.0814679 0.0301671 0.0136263
0.135988 0.0323033 0.0146487
0.222339 0.0348058 0.0158999
0.350896 0.0376593 0.0173648
0.508003 0.0408484 0.019089
0.673518 0.0443122 0.021088
0.83827 0.0475471 0.0231022
1 0.0490883 0.0240177
0.0468147 0.0711528 0.0146181
0.0898756 0.0737011 0.0158389
0.148348 0.0766461 0.0173037
0.240299 0.079942 0.0190127
0.37113 0.08365 0.0210117
0.524102 0.0871443 0.0230106
0.681025 0.0888838 0.0240024
0.840665 0.0907454 0.0251164
1 0.0927749 0.0263371
0.0560769 0.128405 0.0172427
0.10071 0.132555 0.0189517
0.163333 0.137255 0.0209506
0.25864 0.141695 0.0229191
0.384131 0.143999 0.0239872
0.530999 0.146395 0.0250858
0.685969 0.148989 0.026276
0.843351 0.151812 0.0275731
1 0.154818 0.0289769
0.0666361 0.22031 0.0208591
0.112078 0.226123 0.0228733
0.173693 0.229206 0.0239567
0.266911 0.232212 0.0250401
0.39266 0.235523 0.0262303
0.53846 0.239048 0.0275425
0.691386 0.242802 0.0289158
0.846159 0.246754 0.0303807
1 0.250843 0.0318761
0.0737163 0.351263 0.0239109
0.117357 0.354452 0.0250095
0.180682 0.357961 0.0261845
0.275898 0.361639 0.0274815
0.40206 0.365545 0.0288701
0.54641 0.369604 0.0303197
0.696971 0.373785 0.0318303
0.849027 0.378042 0.0333715
1 0.38233 0.0349432
0.0783093 0.506645 0.0261387
0.123095 0.509819 0.027451
0.18854 0.513085 0.0288243
0.28571 0.516503 0.0302739
0.411933 0.520043 0.0317693
0.55462 0.523598 0.0333257
0.702647 0.527184 0.0348974
0.851911 0.530755 0.0364538
1 0.53431 0.0380407
0.0834363 0.672221 0.0287785
0.129488 0.674617 0.0302129
0.197147 0.677028 0.0317082
0.295995 0.679515 0.0332647
0.422019 0.682033 0.0348516
0.562737 0.68452 0.0364233
0.708217 0.686961 0.0380102
0.854658 0.689342 0.0395666
1 0.691646 0.0411078
0.0889906 0.839307 0.0316625
0.136431 0.840574 0.0332036
0.206256 0.841871 0.0347906
0.306508 0.843137 0.0363775
0.431968 0.844388 0.0379644
0.570611 0.845563 0.0395056
0.713481 0.846799 0.0410468
0.857206 0.847898 0.0425116
1 0.848966 0.0439002
0.0948043 1 0.0347448
0.143679 1 0.0363012
0.215579 1 0.0378882
0.316854 1 0.0394751
0.441474 1 0.0409857
0.577935 1 0.0424506
0.718227 1 0.0438697
0.85951 1 0.0451667
1 1 0.0463722
0.0410925 0.0290379 0.069276
0.0827802 0.0309148 0.0703593
0.138033 0.0331731 0.0717479
0.225437 0.0358129 0.0733349
0.354574 0.0388037 0.0752422
0.511223 0.0420691 0.0774853
0.675792 0.0456703 0.0801404
0.838682 0.0481117 0.082002
1 0.0496986 0.0833143
0.0484016 0.0720378 0.0716716
0.0917372 0.0747234 0.0732738
0.150973 0.0778058 0.0751965
0.243915 0.0812848 0.0774395
0.37496 0.0851148 0.0800641
0.525444 0.0878157 0.0819867
0.68191 0.0895705 0.0832837
0.841154 0.0914778 0.0846876
1 0.0935531 0.086305
0.0579843 0.129885 0.0751354
0.102907 0.134218 0.077348
0.166278 0.139071 0.0799573
0.260365 0.142626 0.0819562
0.385641 0.144854 0.083238
0.532341 0.147326 0.0846571
0.686976 0.149996 0.0862287
0.843809 0.152895 0.0879072
1 0.155947 0.0896925
0.0686198 0.222721 0.0798657
0.113222 0.227405 0.0819104
0.174914 0.230259 0.0831922
0.268513 0.233387 0.0846113
0.394354 0.236789 0.0861677
0.53991 0.240421 0.0878462
0.692409 0.244251 0.0896315
0.846677 0.248249 0.0914931
1 0.252384 0.0934462
0.0745403 0.352407 0.0831464
0.118364 0.355718 0.0845655
0.182055 0.359258 0.0861067
0.277684 0.363058 0.0878004
0.403845 0.367025 0.0895857
0.547936 0.371115 0.0914473
0.698039 0.375341 0.09337
0.849546 0.379629 0.0953689
1 0.383917 0.0973678
0.0792248 0.50782 0.0860609
0.124239 0.510994 0.0877394
0.190097 0.514336 0.0895094
0.287602 0.5178 0.091371
0.413794 0.521355 0.0933089
0.556146 0.524926 0.0953078
0.703685 0.528527 0.097322
0.852445 0.532052 0.0993362
1 0.535546 0.101366
0.0844434 0.673045 0.0894331
0.130739 0.675456 0.0912947
0.19881 0.677943 0.0932479
0.297963 0.68043 0.0952316
0.423896 0.682948 0.0972305
0.564263 0.685405 0.0992752
0.709209 0.687846 0.101289
0.855177 0.690181 0.103288
1 0.692454 0.105226
0.0900587 0.83978 0.0931716
0.137743 0.841062 0.0951705
0.20798 0.842313 0.0971695
0.308446 0.843565 0.0991989
0.433783 0.844816 0.101244
0.572045 0.846036 0.103212
0.714382 0.847196 0.105165
0.857679 0.84831 0.107027
1 0.849332 0.108782
0.0959029 1 0.0970932
0.145052 1 0.0991531
0.217304 1 0.101167
0.318715 1 0.103151
0.443183 1 0.105104
0.579217 1 0.10695
0.719081 1 0.108736
0.859876 1 0.110384
1 1 0.111864
0.0422065 0.0296635 0.156619
0.0842145 0.031693 0.158221
0.1402 0.0341192 0.160159
0.228641 0.0368658 0.162448
0.358328 0.0399634 0.165164
0.514504 0.0433661 0.168353
0.677867 0.0469673 0.171939
0.839109 0.0486458 0.173724
1 0.0503243 0.175479
0.0500343 0.0729686 0.160098
0.0936904 0.0758221 0.162387
0.153704 0.0790112 0.165072
0.247547 0.0826276 0.168231
0.378424 0.0864881 0.171771
0.52668 0.0884413 0.173693
0.682826 0.0902571 0.175433
0.841611 0.0922255 0.177386
1 0.094377 0.179507
0.0599069 0.131395 0.164981
0.105165 0.135943 0.168124
0.169024 0.140841 0.171679
0.261799 0.14342 0.173617
0.387198 0.145724 0.175357
0.533715 0.148287 0.17731
0.687938 0.151049 0.179431
0.844404 0.153994 0.181674
1 0.157122 0.184054
0.0705425 0.22504 0.171572
0.114122 0.228412 0.173571
0.17615 0.231388 0.175311
0.270161 0.234623 0.177249
0.396063 0.238087 0.179355
0.54139 0.241794 0.181598
0.693446 0.245701 0.183978
0.847211 0.249744 0.186419
1 0.25391 0.188983
0.075349 0.353597 0.17525
0.119402 0.356985 0.177188
0.183505 0.360632 0.179278
0.279469 0.364477 0.181521
0.405676 0.368505 0.183886
0.549462 0.372671 0.186343
0.699092 0.376898 0.188876
0.850111 0.381201 0.191455
1 0.385504 0.194064
0.0801709 0.508949 0.179217
0.125414 0.512215 0.18143
0.191699 0.515587 0.18381
0.289494 0.519097 0.186252
0.415686 0.522652 0.1888
0.557656 0.526207 0.191394
0.704753 0.529824 0.194003
0.852949 0.533349 0.196612
1 0.536812 0.199191
0.0854505 0.673945 0.183719
0.132021 0.676371 0.186175
0.200519 0.678859 0.188724
0.299931 0.681346 0.191302
0.425757 0.683848 0.193896
0.565759 0.68629 0.196506
0.710231 0.688701 0.1991
0.85565 0.691066 0.201602
1 0.693294 0.203998
0.0911116 0.840238 0.188632
0.139086 0.84152 0.191211
0.209735 0.842786 0.19382
0.310399 0.844053 0.196429
0.435584 0.845273 0.199008
0.573434 0.846464 0.201511
0.715312 0.847593 0.203937
0.858137 0.848661 0.206256
1 0.849668 0.208423
0.0970169 1 0.193759
0.146426 1 0.196353
0.219028 1 0.198917
0.320592 1 0.201434
0.444831 1 0.203876
0.580499 1 0.206195
0.719844 1 0.208362
0.860227 1 0.21033
1 1 0.212131
0.043473 0.0303655 0.29131
0.0857862 0.0325322 0.293263
0.142489 0.0350652 0.295659
0.232029 0.0379797 0.29839
0.362112 0.0411688 0.301656
0.517739 0.0446784 0.30544
0.679011 0.0476844 0.308873
0.839582 0.0492409 0.310704
1 0.0509499 0.312718
0.0517586 0.0739605 0.295537
0.0957046 0.076936 0.298299
0.156512 0.0803082 0.301534
0.25124 0.0840467 0.305287
0.380514 0.0873274 0.308736
0.527947 0.0890669 0.310597
0.683711 0.0909438 0.312642
0.84213 0.0929732 0.31487
1 0.0952163 0.31725
0.0618906 0.133028 0.301396
0.107424 0.137728 0.305165
0.170779 0.141985 0.308659
0.263279 0.144228 0.310552
0.388785 0.146639 0.312566
0.535119 0.149264 0.314778
0.688914 0.152087 0.317174
0.844846 0.155123 0.319661
1 0.158297 0.322301
0.0717632 0.226551 0.308583
0.115053 0.22948 0.310506
0.177462 0.232532 0.31252
0.271824 0.235859 0.314717
0.397833 0.239445 0.317082
0.542885 0.243214 0.3196
0.694469 0.247166 0.32221
0.847761 0.25127 0.324895
1 0.255451 0.327657
0.0762036 0.354788 0.312428
0.120485 0.358297 0.314626
0.18497 0.36202 0.317006
0.2813 0.365957 0.319509
0.407523 0.370016 0.322133
0.550988 0.374212 0.324804
0.70016 0.378485 0.327596
0.850645 0.382773 0.330373
1 0.387091 0.333135
0.0811322 0.510124 0.316915
0.126604 0.513436 0.319432
0.193301 0.516869 0.322026
0.291417 0.520394 0.324712
0.417563 0.523964 0.327474
0.559197 0.52755 0.330266
0.705791 0.531121 0.333043
0.853468 0.534646 0.335805
1 0.538064 0.338521
0.0865034 0.674846 0.32192
0.133318 0.677287 0.324636
0.202228 0.679774 0.327398
0.301885 0.682261 0.330175
0.427619 0.684749 0.332967
0.567224 0.687205 0.335714
0.711208 0.689586 0.33843
0.856138 0.69189 0.341039
1 0.694041 0.343557
0.0922103 0.840696 0.327291
0.140444 0.841993 0.330098
0.21146 0.843244 0.332876
0.312337 0.844495 0.335622
0.437354 0.845701 0.338338
0.574807 0.846922 0.340963
0.716213 0.848005 0.343465
0.858534 0.849058 0.345846
1 0.85005 0.348013
0.0981308 1 0.332784
0.147799 1 0.335546
0.220752 1 0.338262
0.322408 1 0.340887
0.446448 1 0.343374
0.581689 1 0.345754
0.720638 1 0.347936
0.860624 1 0.349935
1 1 0.351675
0.0448157 0.0310979 0.46656
0.0874495 0.0334173 0.468421
0.144884 0.0361181 0.470665
0.235462 0.0391089 0.473289
0.365927 0.0424353 0.476341
0.520943 0.0460365 0.47985
0.67982 0.048249 0.482109
0.840009 0.0498665 0.483772
1 0.051606 0.485603
0.0535439 0.0749981 0.470558
0.0977798 0.0781262 0.473182
0.159365 0.0816358 0.476265
0.254932 0.0855116 0.479728
0.382101 0.0879835 0.482063
0.529229 0.0897536 0.483726
0.684657 0.0916915 0.485588
0.842634 0.0937819 0.487541
1 0.0960555 0.489708
0.0638895 0.134691 0.476158
0.109728 0.13959 0.479606
0.172061 0.14284 0.482017
0.264759 0.145083 0.483635
0.390402 0.147585 0.485496
0.536522 0.150271 0.487511
0.689967 0.153201 0.489616
0.845426 0.156252 0.491859
1 0.159503 0.494148
0.0726482 0.22768 0.481971
0.116014 0.230579 0.483589
0.178805 0.233722 0.485435
0.273518 0.23714 0.487434
0.399603 0.240787 0.48954
0.544366 0.244648 0.491783
0.695537 0.248646 0.494072
0.84828 0.252781 0.496422
1 0.256992 0.498817
0.0770886 0.356069 0.48539
0.121584 0.359625 0.487373
0.186465 0.363439 0.489464
0.283146 0.367422 0.491691
0.4094 0.371557 0.493996
0.552514 0.375769 0.496361
0.701228 0.380056 0.498756
0.851179 0.384344 0.501122
1 0.388647 0.503532
0.0820935 0.51133 0.489372
0.12781 0.514702 0.4916
0.194919 0.518151 0.493889
0.293355 0.521691 0.496254
0.41944 0.525261 0.498665
0.560693 0.528893 0.50106
0.706828 0.532418 0.503456
0.853986 0.535897 0.505806
1 0.5393 0.50808
0.087541 0.6757 0.493812
0.134615 0.678187 0.496193
0.203922 0.680659 0.498589
0.303822 0.683177 0.500969
0.42945 0.685634 0.503395
0.568673 0.688075 0.50573
0.712184 0.69044 0.508003
0.85658 0.692683 0.510216
1 0.69485 0.512276
0.0933089 0.841199 0.498543
0.141817 0.842435 0.500908
0.213184 0.843687 0.503304
0.31426 0.844968 0.505638
0.439109 0.846159 0.507942
0.576181 0.847318 0.51014
0.717098 0.848402 0.51223
0.858961 0.849424 0.514168
1 0.850401 0.515984
0.0992294 1 0.503182
0.149172 1 0.505547
0.222446 1 0.507912
0.324208 1 0.510048
0.448051 1 0.512169
0.582879 1 0.514122
0.721355 1 0.515923
0.860975 1 0.51754
1 1 0.518959
0.0462501 0.0319066 0.661982
0.089189 0.0343633 0.663355
0.147387 0.037171 0.665049
0.239002 0.0402838 0.667033
0.369711 0.0437171 0.669291
0.523659 0.0472267 0.671778
0.68069 0.0488136 0.672938
0.840497 0.0504921 0.674144
1 0.0522927 0.675517
0.0554055 0.0761273 0.665019
0.0999313 0.0793774 0.666957
0.162264 0.0830091 0.669215
0.258 0.0867628 0.671656
0.383566 0.0885939 0.672877
0.53051 0.090425 0.674113
0.685618 0.0924239 0.675456
0.843137 0.0945907 0.676875
1 0.0968795 0.678431
0.0658885 0.136416 0.669154
0.111635 0.141192 0.67155
0.173251 0.143633 0.672831
0.266346 0.145968 0.674083
0.39205 0.148547 0.67541
0.537957 0.151339 0.676829
0.69099 0.154299 0.678355
0.845945 0.157427 0.679927
1 0.160723 0.681575
0.0734112 0.228702 0.672801
0.116991 0.231693 0.674052
0.180148 0.234958 0.675364
0.275273 0.238453 0.676768
0.401389 0.242176 0.678309
0.545876 0.246098 0.679881
0.69659 0.250156 0.681544
0.848829 0.254337 0.683192
1 0.258564 0.684886
0.0779736 0.357336 0.675319
0.122683 0.361013 0.676738
0.187991 0.364904 0.678264
0.285008 0.368917 0.679835
0.411246 0.373083 0.681498
0.55404 0.37734 0.683162
0.702266 0.381628 0.684825
0.851698 0.385946 0.686503
1 0.390173 0.688167
0.0830854 0.512551 0.678233
0.129046 0.515938 0.679774
0.196567 0.519448 0.681437
0.295277 0.523003 0.683085
0.421332 0.526604 0.684779
0.562219 0.530159 0.686442
0.707835 0.5337 0.688121
0.854475 0.537148 0.689754
1 0.540505 0.691325
0.0886091 0.676661 0.681346
0.135927 0.679088 0.683009
0.205615 0.68159 0.684749
0.305806 0.684077 0.686397
0.431312 0.686549 0.688075
0.570108 0.68896 0.689723
0.713115 0.691295 0.691264
0.857053 0.693538 0.692821
1 0.695628 0.694194
0.0944076 0.841627 0.684657
0.143191 0.842939 0.686336
0.214954 0.84419 0.688014
0.316152 0.84538 0.689662
0.440833 0.846586 0.691203
0.577462 0.8477 0.69276
0.717937 0.848798 0.694163
0.859342 0.849805 0.695506
1 0.850675 0.696742
0.100359 1 0.687984
0.150561 1 0.689616
0.224125 1 0.691157
0.325994 1 0.692714
0.449607 1 0.694133
0.584039 1 0.695476
0.722103 1 0.696681
0.861265 1 0.697765
1 1 0.69865
0.047776 0.0327764 0.865507
0.0910506 0.0353399 0.866194
0.150011 0.0382544 0.867155
0.242573 0.0415045 0.868208
0.373571 0.0450599 0.869474
0.525017 0.047837 0.870481
0.681559 0.0493935 0.871077
0.840955 0.051133 0.871687
1 0.0529946 0.872419
0.0572671 0.0772564 0.867124
0.102129 0.0806592 0.868177
0.165194 0.0844434 0.869444
0.259785 0.0875257 0.870466
0.385061 0.08925 0.871061
0.531853 0.0911421 0.871687
0.68661 0.0932174 0.872419
0.843641 0.0954299 0.873167
1 0.0977798 0.873945
0.0679026 0.138216 0.869413
0.112917 0.142245 0.87042
0.174456 0.144457 0.871061
0.267933 0.146899 0.871687
0.393729 0.149538 0.872358
0.539391 0.152407 0.873152
0.692042 0.155444 0.873945
0.846494 0.158633 0.874739
1 0.161944 0.875593
0.0742199 0.22977 0.870985
0.117983 0.232868 0.871626
0.181552 0.236225 0.872328
0.277028 0.239796 0.873121
0.403174 0.243595 0.873884
0.547372 0.247562 0.874723
0.697673 0.251682 0.875578
0.849378 0.255879 0.876448
1 0.260166 0.877317
0.0789044 0.358648 0.872297
0.123827 0.362371 0.873091
0.189532 0.366354 0.873854
0.2869 0.370428 0.874693
0.413123 0.374624 0.875532
0.555581 0.378897 0.876402
0.703334 0.3832 0.877256
0.852247 0.387518 0.878126
1 0.39176 0.87895
0.0840772 0.513771 0.873838
0.130297 0.517235 0.874678
0.198199 0.52076 0.875517
0.297246 0.52433 0.876356
0.423194 0.527916 0.877241
0.563714 0.531472 0.878111
0.708858 0.534981 0.878935
0.855009 0.538415 0.879774
1 0.541711 0.880568
0.089662 0.677501 0.875486
0.13727 0.680034 0.876326
0.20737 0.682521 0.877226
0.307729 0.684993 0.87808
0.433143 0.687465 0.87892
0.571557 0.689815 0.879759
0.714061 0.692088 0.880568
0.857496 0.69427 0.8813
1 0.696315 0.882002
0.0955367 0.842115 0.87715
0.144533 0.843351 0.878065
0.216678 0.844617 0.878889
0.318029 0.845838 0.879728
0.442573 0.847028 0.880507
0.578759 0.848127 0.881285
0.718746 0.849195 0.882002
0.859754 0.850126 0.882673
1 0.850996 0.883223
0.101442 1 0.878889
0.151919 1 0.879698
0.225803 1 0.880507
0.327749 1 0.88127
0.451118 1 0.881971
0.585138 1 0.882628
0.722789 1 0.883223
0.86157 1 0.883757
1 1 0.884215
0.0494392 0.0336614 1
0.092958 0.036408 1
0.152712 0.0393988 1
0.246189 0.042771 1
0.377356 0.0464179 1
0.526253 0.0484016 1
0.68249 0.0500343 1
0.841459 0.0518196 1
1 0.0537118 1
0.059205 0.0784466 1
0.104356 0.082002 1
0.168154 0.0859083 1
0.261265 0.0881361 1
0.386633 0.0899367 1
0.533227 0.0918746 1
0.687587 0.0940108 1
0.844175 0.0962844 1
1 0.0986343 1
0.0699168 0.140093 1
0.113817 0.143069 1
0.175692 0.145342 1
0.269551 0.147845 1
0.395468 0.150576 1
0.540856 0.15349 1
0.693065 0.156573 1
0.847044 0.159808 1
1 0.163165 1
0.0750591 0.230884 1
0.119036 0.234058 1
0.182956 0.237491 1
0.278813 0.241169 1
0.405005 0.245029 1
0.548913 0.249058 1
0.698726 0.253208 1
0.849912 0.25742 1
1 0.261723 1
0.0798352 0.360037 1
0.124987 0.363821 1
0.191104 0.367834 1
0.288808 0.371954 1
0.414969 0.376196 1
0.557107 0.380484 1
0.704372 0.384802 1
0.85275 0.389075 1
1 0.393301 1
0.0850843 0.515053 1
0.131548 0.518517 1
0.199908 0.522042 1
0.299199 0.525628 1
0.425071 0.529213 1
0.565209 0.532769 1
0.709865 0.536248 1
0.855467 0.53962 1
1 0.54287 1
0.0907454 0.678431 1
0.138613 0.680919 1
0.209094 0.683436 1
0.309682 0.685893 1
0.434928 0.688334 1
0.572946 0.690669 1
0.714977 0.692912 1
0.857954 0.695064 1
1 0.697047 1
0.0966201 0.842573 1
0.145922 0.843809 1
0.218402 0.84509 1
0.319905 0.846281 1
0.444236 0.84741 1
0.580011 0.848493 1
0.71957 0.849515 1
0.860151 0.850477 1
1 0.851331 1
0.102571 1 1
0.153262 1 1
0.227451 1 1
0.329442 1 1
0.452598 1 1
0.586206 1 1
0.723445 1 1
0.86186 1 1
1 1 1
