public/luts/Tierra.cube
TITLE "Generated by Resolve"
LUT_3D_SIZE 9
0.0122072 0.00817884 0.00906386
0.07953 0.0118257 0.00270085
0.21799 0.0215152 1.5259e-05
0.391623 0.0251774 0
0.524712 0.0271 3.0518e-05
0.613001 0.0296483 1.5259e-05
0.675059 0.0324559 0
0.704982 0.0347753 0
0.723522 0.0362402 3.0518e-05
0.0333562 0.0624247 0.0274205
0.0745708 0.0513008 0.0142214
0.158099 0.055024 0
0.30399 0.0582132 3.0518e-05
0.482338 0.0385138 0
0.595728 0.0357519 3.0518e-05
0.672374 0.0381018 3.0518e-05
0.7037 0.0439002 1.5259e-05
0.718059 0.0525216 1.5259e-05
0.0620127 0.148852 0.0744793
0.0983749 0.142214 0.0699626
0.189136 0.130251 0.0230259
0.339956 0.144503 0
0.4916 0.149981 1.5259e-05
0.58706 0.138903 1.5259e-05
0.668177 0.145449 0
0.720653 0.188952 1.5259e-05
0.737255 0.231174 1.5259e-05
0.117983 0.259922 0.135332
0.126299 0.268482 0.132418
0.209949 0.27097 0.143893
0.388632 0.264836 0.0133974
0.564965 0.296635 0.00154116
0.68304 0.319677 1.5259e-05
0.769558 0.345357 0
0.824567 0.379339 1.5259e-05
0.854826 0.41593 0.0148623
0.169863 0.391852 0.188632
0.174228 0.4056 0.188998
0.200641 0.43415 0.185229
0.393774 0.431174 0.178271
0.583993 0.440101 0.0264591
0.740185 0.472847 0.00737011
0.835142 0.49865 0.009308
0.880934 0.54847 0.124514
0.882979 0.575143 0.135927
0.186877 0.516991 0.206394
0.186633 0.538857 0.201816
0.193988 0.58291 0.184771
0.404181 0.590112 0.175204
0.584955 0.589868 0.0850843
0.752743 0.602365 0.0349432
0.860914 0.622126 0.048188
0.883238 0.663233 0.155535
0.881651 0.687709 0.172564
0.159945 0.670558 0.182467
0.150866 0.709941 0.160647
0.200549 0.756649 0.136675
0.433051 0.750072 0.103807
0.603876 0.723537 0.0567788
0.769482 0.738643 0.0405737
0.865431 0.750866 0.0775311
0.877287 0.775174 0.150729
0.878477 0.792859 0.157061
0.128832 0.765164 0.193606
0.142016 0.788388 0.19086
0.314916 0.818555 0.17377
0.515038 0.783398 0.135515
0.658579 0.763302 0.0675364
0.815717 0.779873 0.0629892
0.878614 0.793317 0.157931
0.87863 0.793408 0.158114
0.878813 0.794018 0.159243
0.124453 0.79939 0.260609
0.239063 0.824704 0.255344
0.419867 0.842115 0.24094
0.572976 0.802411 0.202808
0.702922 0.782727 0.12369
0.836622 0.786587 0.0793774
0.879301 0.795468 0.162692
0.87892 0.794385 0.160037
0.878904 0.794339 0.159915
0.00102235 0.0172732 0.023682
0.0619669 0.0230411 0.0555428
0.226078 0.0154269 0.0320897
0.417319 0.00552377 0.00280766
0.542016 0.0178988 3.0518e-05
0.622385 0.0247044 0
0.682582 0.0295262 0
0.716121 0.0305333 0
0.74258 0.0294499 1.5259e-05
0.00363165 0.0570687 0.0537118
0.0429999 0.0599527 0.0625925
0.147204 0.0619974 0.0477913
0.32549 0.0434119 0.0075227
0.497841 0.0279393 1.5259e-05
0.607248 0.0296788 0
0.68481 0.0332799 0
0.724239 0.0369573 0
0.75198 0.0406195 0
0.0305333 0.140978 0.0907149
0.074342 0.143145 0.0954604
0.175921 0.137453 0.0757458
0.338613 0.134615 1.5259e-05
0.486198 0.140154 1.5259e-05
0.586465 0.12961 1.5259e-05
0.671107 0.137682 1.5259e-05
0.72694 0.183215 0
0.752712 0.229175 0
0.112093 0.26006 0.147219
0.12549 0.269398 0.152605
0.196841 0.284657 0.155596
0.388479 0.270954 0.0360113
0.565682 0.296941 0.00129702
0.68864 0.322576 1.5259e-05
0.779217 0.350942 1.5259e-05
0.839643 0.385748 0
0.862577 0.433188 0.0567636
0.169833 0.39733 0.194369
0.177096 0.413565 0.200656
0.194797 0.446097 0.198962
0.394873 0.444007 0.188632
0.58584 0.451316 0.0356298
0.746548 0.482124 0.00947585
0.845579 0.509911 0.0171206
0.883619 0.560815 0.139361
0.886915 0.591073 0.163745
0.185595 0.526299 0.211368
0.187915 0.552789 0.214511
0.19237 0.600534 0.20679
0.401358 0.614466 0.181353
0.587701 0.60647 0.102205
0.757839 0.618723 0.0585946
0.867247 0.639384 0.0820783
0.884886 0.677089 0.176455
0.885435 0.704341 0.203326
0.149828 0.690852 0.209308
0.144015 0.73344 0.2094
0.170871 0.778897 0.204929
0.433219 0.792523 0.175006
0.608621 0.747631 0.116091
0.775372 0.759304 0.0800488
0.870985 0.768124 0.11429
0.883345 0.792355 0.191943
0.888289 0.813077 0.224933
0.116503 0.782376 0.267109
0.123949 0.805356 0.273533
0.286244 0.834882 0.270542
0.521447 0.831342 0.250217
0.671839 0.796445 0.212299
0.827482 0.807294 0.171115
0.888319 0.813153 0.225208
0.888182 0.812909 0.224216
0.888808 0.814008 0.228611
0.100191 0.812848 0.330251
0.196338 0.838666 0.345815
0.399817 0.865248 0.337224
0.576913 0.847089 0.310811
0.710155 0.813779 0.26183
0.84744 0.817411 0.214908
0.890898 0.817411 0.243091
0.889113 0.814542 0.230732
0.889052 0.814435 0.230304
1.5259e-05 0.0390173 0.0516823
0.00328069 0.0598764 0.0867933
0.169909 0.0538338 0.142596
0.414832 0.0207523 0.0999619
0.585107 0.00306706 0.0399634
0.677882 0.00445563 0.0119173
0.742336 0.00917067 0.00285344
0.780545 0.00852979 0.0053254
0.815137 0.00437934 0.011429
1.5259e-05 0.0672618 0.0796368
0.00621042 0.075639 0.0942092
0.115099 0.0866407 0.130999
0.345022 0.0661784 0.0934005
0.561074 0.00746166 0.0312505
0.671763 0.00560006 0.010132
0.75494 0.00927749 0.00402838
0.811887 0.00614939 0.00714122
0.85098 0.00476081 0.0285496
1.5259e-05 0.140948 0.13225
0.00268559 0.148104 0.140856
0.126635 0.16701 0.169421
0.348531 0.172473 0.140932
0.549508 0.145769 0.0793927
0.673381 0.11751 0.038819
0.774319 0.121798 0.0374914
0.83769 0.174548 0.0805524
0.853773 0.240055 0.149325
0.0693675 0.266835 0.18262
0.0838331 0.279866 0.195926
0.147875 0.306691 0.217517
0.385519 0.314214 0.19028
0.590509 0.322332 0.0929427
0.730282 0.335012 0.045594
0.83209 0.367071 0.0672007
0.868528 0.424643 0.158709
0.880751 0.4795 0.239948
0.158679 0.413016 0.22974
0.164233 0.433127 0.243885
0.181353 0.46862 0.260655
0.392676 0.483314 0.250095
0.599451 0.491524 0.178164
0.763577 0.516442 0.119738
0.86746 0.546517 0.142245
0.894835 0.591043 0.237583
0.902892 0.626612 0.289296
0.174838 0.548623 0.25182
0.174792 0.578714 0.265873
0.178317 0.626902 0.275624
0.390234 0.667872 0.257847
0.598138 0.64152 0.213642
0.773297 0.655146 0.188342
0.883741 0.674479 0.198672
0.900801 0.709499 0.278584
0.906249 0.741207 0.333562
0.130419 0.717586 0.279316
0.125765 0.759609 0.292195
0.136599 0.803632 0.302586
0.423667 0.848173 0.290349
0.626947 0.800061 0.266392
0.793881 0.799039 0.233814
0.892226 0.804822 0.261616
0.904555 0.828702 0.339086
0.909102 0.848005 0.369314
0.0837568 0.796323 0.335195
0.0948653 0.818616 0.345861
0.251286 0.850141 0.37203
0.519509 0.877577 0.359823
0.683894 0.835126 0.336751
0.840925 0.840665 0.308263
0.908476 0.847105 0.36495
0.908339 0.846693 0.36405
0.908736 0.847379 0.366796
0.0622568 0.821729 0.395789
0.115648 0.846891 0.409079
0.376303 0.877623 0.437293
0.572106 0.88954 0.4112
0.714321 0.843076 0.371801
0.85539 0.84651 0.331807
0.910033 0.849622 0.375753
0.908873 0.847623 0.367758
0.908812 0.847532 0.367391
3.0518e-05 0.0796368 0.100832
3.0518e-05 0.0946822 0.122148
0.0494392 0.139406 0.209232
0.324804 0.102647 0.265126
0.556176 0.0745556 0.227756
0.681407 0.0350195 0.178332
0.766964 0.0089723 0.148302
0.801556 0.0087892 0.155505
0.824948 0.0117494 0.176272
0 0.0946059 0.116884
3.0518e-05 0.101915 0.128176
0.0242618 0.130999 0.174716
0.27895 0.119738 0.248737
0.534859 0.0827497 0.22208
0.678828 0.0475471 0.183688
0.777722 0.0240635 0.164736
0.825666 0.0315251 0.184375
0.855802 0.0529335 0.221317
1.5259e-05 0.16025 0.179309
0 0.163272 0.183902
0.05037 0.193317 0.228794
0.298131 0.21442 0.295354
0.560479 0.186206 0.265354
0.720836 0.156069 0.232059
0.838483 0.150027 0.227359
0.89691 0.191211 0.261295
0.90927 0.248585 0.313283
1.5259e-05 0.264897 0.255253
1.5259e-05 0.277974 0.268376
0.00640879 0.3131 0.301076
0.312016 0.370077 0.383536
0.588968 0.382727 0.346487
0.75787 0.3906 0.325063
0.870222 0.411322 0.330602
0.904189 0.455146 0.373312
0.915221 0.503105 0.424323
0.0564431 0.428916 0.3084
0.0584878 0.448371 0.324849
0.0799725 0.484504 0.348882
0.352026 0.542306 0.402975
0.60676 0.547127 0.392462
0.783093 0.576043 0.362753
0.886839 0.60116 0.37113
0.914672 0.631449 0.406256
0.92195 0.664271 0.45005
0.102922 0.571893 0.340612
0.0999771 0.603265 0.357504
0.108293 0.647822 0.376303
0.352468 0.705425 0.417777
0.610574 0.693446 0.404868
0.793256 0.706264 0.406149
0.903685 0.725933 0.404852
0.925048 0.751064 0.435096
0.92961 0.779416 0.477775
0.0618753 0.73991 0.370382
0.0620279 0.778683 0.387289
0.0720684 0.819821 0.404105
0.397757 0.872419 0.449668
0.639887 0.867277 0.435462
0.808194 0.839841 0.420691
0.914244 0.843229 0.433249
0.927245 0.864775 0.496635
0.930861 0.883726 0.520211
0.0173953 0.807767 0.433005
0.0357671 0.828611 0.447898
0.148669 0.861509 0.476356
0.499046 0.907301 0.518685
0.695872 0.898512 0.498177
0.850797 0.879561 0.471809
0.92784 0.883406 0.501457
0.929839 0.884047 0.512947
0.930098 0.884504 0.514824
0.00567636 0.826902 0.490471
0.0495155 0.850767 0.502907
0.312642 0.888823 0.548074
0.54995 0.91931 0.559899
0.722698 0.9037 0.526177
0.862364 0.884016 0.48748
0.930816 0.886152 0.520211
0.930144 0.88455 0.515038
0.930083 0.884474 0.514702
3.0518e-05 0.121675 0.151919
3.0518e-05 0.137621 0.174182
0.0150454 0.173434 0.230259
0.272816 0.198077 0.367819
0.471473 0.148775 0.379644
0.595834 0.123125 0.370703
0.701686 0.111696 0.359548
0.742565 0.109407 0.364858
0.761852 0.110994 0.378851
1.5259e-05 0.129625 0.16022
3.0518e-05 0.139666 0.174884
0.00476081 0.167254 0.217304
0.1944 0.210666 0.392813
0.455695 0.15613 0.381552
0.595697 0.130541 0.378744
0.709056 0.11989 0.375433
0.758572 0.123156 0.393271
0.783368 0.132601 0.421744
0 0.183368 0.215412
1.5259e-05 0.190585 0.225666
0.0366979 0.223682 0.274739
0.186389 0.277531 0.412497
0.472602 0.239658 0.429969
0.637156 0.204578 0.435889
0.76669 0.195697 0.442725
0.836515 0.225971 0.470634
0.848859 0.277623 0.510887
0 0.284794 0.313802
0 0.299382 0.33022
1.5259e-05 0.325917 0.361822
0.252491 0.401434 0.464408
0.545754 0.411063 0.52282
0.761273 0.402396 0.517845
0.906584 0.409216 0.514
0.945373 0.447486 0.543221
0.953399 0.495537 0.584131
3.0518e-05 0.417578 0.408637
1.5259e-05 0.437842 0.427146
3.0518e-05 0.471946 0.455909
0.262562 0.551186 0.542779
0.584268 0.597406 0.601404
0.802731 0.613489 0.568963
0.917098 0.629252 0.568093
0.944869 0.656764 0.591684
0.949783 0.687831 0.622202
3.0518e-05 0.560357 0.448218
3.0518e-05 0.596872 0.470069
0.00129702 0.645212 0.493156
0.26743 0.711543 0.549203
0.616037 0.757763 0.599268
0.808301 0.750622 0.604044
0.918166 0.768597 0.592859
0.946105 0.790646 0.610025
0.95053 0.814542 0.635386
3.0518e-05 0.733837 0.487511
3.0518e-05 0.776181 0.505409
0.00495918 0.82208 0.522316
0.340154 0.884123 0.588861
0.631128 0.914778 0.619959
0.81976 0.879301 0.615152
0.930449 0.88014 0.623285
0.950668 0.896696 0.659953
0.952895 0.911269 0.674144
3.0518e-05 0.79086 0.540154
3.0518e-05 0.820905 0.55407
0.079118 0.861295 0.579675
0.465263 0.918853 0.649821
0.688243 0.946471 0.659693
0.858076 0.918059 0.644892
0.945022 0.919234 0.650843
0.952667 0.920699 0.671382
0.952789 0.920882 0.672297
3.0518e-05 0.805753 0.593759
0.000259403 0.84329 0.603586
0.250278 0.886976 0.64477
0.513863 0.927581 0.680995
0.712337 0.950744 0.676005
0.867033 0.920089 0.653223
0.947478 0.920424 0.660182
0.952773 0.920851 0.67216
0.952758 0.920836 0.672023
3.0518e-05 0.161959 0.201923
3.0518e-05 0.177081 0.223667
0.0125277 0.208606 0.27216
0.145769 0.267735 0.419318
0.459037 0.20322 0.455406
0.547768 0.178363 0.472892
0.639368 0.162722 0.474006
0.681895 0.157717 0.48455
0.701366 0.158907 0.499382
3.0518e-05 0.168505 0.209049
3.0518e-05 0.180545 0.226368
0.00509651 0.206943 0.266819
0.106035 0.269657 0.384817
0.447715 0.217807 0.455268
0.553216 0.183825 0.484382
0.648127 0.171069 0.490608
0.698283 0.171023 0.51371
0.722789 0.180133 0.544335
1.5259e-05 0.210101 0.252964
3.0518e-05 0.225101 0.276646
0.0354925 0.257404 0.321752
0.129564 0.317067 0.432975
0.454505 0.287587 0.502007
0.595911 0.239353 0.543755
0.697063 0.23238 0.561746
0.761608 0.261814 0.600336
0.769543 0.319402 0.643458
3.0518e-05 0.302907 0.351919
1.5259e-05 0.321553 0.375784
0.00323491 0.359945 0.435813
0.235004 0.43386 0.533761
0.533455 0.433127 0.674891
0.693339 0.43679 0.649058
0.82475 0.442069 0.672435
0.863828 0.476921 0.71284
0.86714 0.527779 0.757214
3.0518e-05 0.434211 0.477028
1.5259e-05 0.457877 0.504387
1.5259e-05 0.48748 0.538537
0.24979 0.572854 0.660121
0.569039 0.622461 0.716442
0.786908 0.624323 0.721752
0.933074 0.626764 0.722087
0.959762 0.654704 0.753323
0.954269 0.689189 0.795041
3.0518e-05 0.565225 0.548913
1.5259e-05 0.592416 0.572091
3.0518e-05 0.637781 0.609186
0.257435 0.715511 0.684474
0.590066 0.757641 0.728435
0.821973 0.779309 0.744091
0.93315 0.792401 0.735515
0.967422 0.814389 0.75523
0.970886 0.839826 0.785153
3.0518e-05 0.717998 0.591684
3.0518e-05 0.760021 0.617334
3.0518e-05 0.805402 0.640787
0.30695 0.880507 0.699962
0.610361 0.917357 0.748486
0.833631 0.916091 0.760449
0.93959 0.903044 0.763561
0.969528 0.91725 0.784741
0.971222 0.929152 0.798444
3.0518e-05 0.785718 0.667704
3.0518e-05 0.814404 0.690562
0.0607919 0.859937 0.723247
0.41886 0.914244 0.769451
0.664057 0.95436 0.797299
0.866987 0.962768 0.791943
0.952377 0.944793 0.778195
0.97026 0.946014 0.793942
0.970352 0.946151 0.794644
3.0518e-05 0.814282 0.74139
0.010193 0.847883 0.761242
0.240711 0.886702 0.793042
0.460456 0.920378 0.803677
0.683391 0.957412 0.81474
0.875731 0.96289 0.800412
0.955062 0.945556 0.782696
0.970321 0.946105 0.794369
0.970291 0.946075 0.794202
3.0518e-05 0.19855 0.248829
3.0518e-05 0.213931 0.272007
0.0190433 0.242344 0.315938
0.107805 0.298802 0.425879
0.429847 0.274586 0.504448
0.54815 0.215198 0.531518
0.621271 0.196689 0.554223
0.657511 0.194186 0.567742
0.677684 0.194919 0.583001
3.0518e-05 0.205875 0.25713
3.0518e-05 0.218692 0.276463
0.0126345 0.24419 0.315679
0.0958572 0.300465 0.418677
0.426474 0.283192 0.534936
0.556176 0.222965 0.544808
0.637156 0.202976 0.574075
0.683085 0.203708 0.602808
0.71162 0.209567 0.63418
3.0518e-05 0.244434 0.302403
0.00775158 0.265049 0.332769
0.0424964 0.293355 0.372457
0.124788 0.351476 0.483955
0.440665 0.328984 0.665202
0.593423 0.281773 0.607309
0.696834 0.259541 0.652384
0.752056 0.286152 0.692683
0.771832 0.336736 0.730587
0 0.328588 0.397101
1.5259e-05 0.350347 0.429709
0.0424353 0.406958 0.515709
0.23801 0.471153 0.610529
0.503838 0.464546 0.835706
0.690547 0.459083 0.728603
0.807568 0.46128 0.772305
0.844511 0.494926 0.807553
0.860639 0.538247 0.823713
1.5259e-05 0.457221 0.544259
0 0.480034 0.576013
3.0518e-05 0.513161 0.625025
0.273625 0.609339 0.747356
0.563378 0.647761 0.824155
0.775555 0.644022 0.818265
0.881819 0.653025 0.845045
0.907668 0.678737 0.869749
0.916381 0.706859 0.877714
3.0518e-05 0.58732 0.640986
1.5259e-05 0.613535 0.667643
1.5259e-05 0.652583 0.707759
0.284047 0.738643 0.824033
0.570397 0.777279 0.85124
0.821225 0.796262 0.886091
0.929961 0.802319 0.876204
0.967788 0.821134 0.894392
0.969802 0.845747 0.912596
1.5259e-05 0.735302 0.70248
3.0518e-05 0.774212 0.731609
3.0518e-05 0.822065 0.766308
0.333822 0.886366 0.830961
0.589273 0.910521 0.859266
0.82977 0.930251 0.887938
0.950713 0.926894 0.892592
0.98587 0.938842 0.898268
0.986847 0.948333 0.907973
3.0518e-05 0.797299 0.751751
3.0518e-05 0.823346 0.769284
0.132418 0.871077 0.810864
0.425208 0.914199 0.854673
0.640574 0.946456 0.885328
0.855589 0.97641 0.91194
0.959884 0.969436 0.903685
0.986664 0.969253 0.908293
0.986725 0.969329 0.908721
3.0518e-05 0.816373 0.764736
0.0170138 0.851316 0.790249
0.25243 0.888365 0.829343
0.460517 0.919524 0.859709
0.658045 0.948913 0.887785
0.861616 0.976623 0.916991
0.961608 0.969635 0.905531
0.986664 0.969253 0.908293
0.986679 0.969268 0.90837
3.0518e-05 0.215518 0.271153
3.0518e-05 0.231907 0.296742
0.0244602 0.259266 0.33901
0.106371 0.312261 0.443427
0.426749 0.290684 0.564141
0.546563 0.236728 0.551278
0.625589 0.208377 0.579492
0.662165 0.203357 0.597284
0.683116 0.203525 0.614603
3.0518e-05 0.223911 0.28101
3.0518e-05 0.238285 0.303258
0.0188754 0.263325 0.341634
0.0972457 0.316716 0.441657
0.421347 0.300603 0.60557
0.553628 0.248585 0.565499
0.645151 0.216693 0.604486
0.692378 0.214954 0.636805
0.716884 0.221607 0.667155
3.0518e-05 0.265888 0.332586
0.0206302 0.286091 0.360265
0.0525063 0.316243 0.405127
0.132143 0.373327 0.520119
0.439353 0.348531 0.730861
0.592691 0.315694 0.633783
0.709895 0.278813 0.688441
0.758328 0.303868 0.715648
0.777111 0.349676 0.736538
1.5259e-05 0.347509 0.428351
3.0518e-05 0.376944 0.472221
0.07393 0.430503 0.550149
0.253254 0.492317 0.649348
0.518502 0.479286 0.877852
0.702052 0.473411 0.757458
0.822202 0.471946 0.79556
0.849119 0.507118 0.812161
0.864805 0.54963 0.827863
1.5259e-05 0.472145 0.57763
1.5259e-05 0.495552 0.611109
1.5259e-05 0.54609 0.686976
0.305165 0.62977 0.779187
0.580774 0.659876 0.858991
0.789166 0.652781 0.847776
0.89163 0.662455 0.863218
0.910033 0.686381 0.872007
0.918547 0.713832 0.879591
0 0.602243 0.678767
0 0.628687 0.70631
3.0518e-05 0.668788 0.74226
0.318746 0.752789 0.855375
0.580636 0.791363 0.876905
0.824628 0.806943 0.926986
0.927657 0.813428 0.903365
0.962402 0.829648 0.909041
0.972 0.850492 0.913481
3.0518e-05 0.749325 0.73695
3.0518e-05 0.786603 0.756344
3.0518e-05 0.835172 0.784268
0.354879 0.895415 0.846632
0.600046 0.917876 0.882643
0.830304 0.934264 0.916121
0.959518 0.934188 0.927871
0.99028 0.943389 0.92549
0.989151 0.95137 0.927001
3.0518e-05 0.798779 0.752789
3.0518e-05 0.825101 0.770382
0.146975 0.873152 0.813123
0.429679 0.91487 0.855329
0.641245 0.946563 0.88542
0.852094 0.975402 0.920638
0.962325 0.975509 0.933486
0.991424 0.974945 0.937346
0.991424 0.974945 0.937346
3.0518e-05 0.816922 0.765103
0.0175174 0.851423 0.790356
0.24979 0.887968 0.828946
0.457984 0.919142 0.859342
0.6551 0.948516 0.887373
0.85742 0.975891 0.921599
0.963195 0.975311 0.933516
0.991424 0.974945 0.937346
0.991424 0.974945 0.937346
3.0518e-05 0.220157 0.277287
3.0518e-05 0.238193 0.305806
0.0280003 0.266239 0.348943
0.108965 0.319783 0.455711
0.427451 0.296986 0.58999
0.545861 0.248371 0.558846
0.630564 0.213489 0.591501
0.667185 0.207568 0.610285
0.688777 0.207706 0.62858
3.0518e-05 0.230396 0.28954
3.0518e-05 0.246021 0.314122
0.022446 0.271122 0.352514
0.100969 0.326589 0.457618
0.419974 0.309148 0.638773
0.552697 0.267216 0.575875
0.653849 0.223911 0.622156
0.701701 0.221012 0.655497
0.719051 0.223529 0.670207
3.0518e-05 0.274617 0.344259
0.0247196 0.294957 0.37174
0.0598611 0.324727 0.416373
0.142626 0.382834 0.536904
0.459297 0.354635 0.73846
0.604562 0.325277 0.648142
0.723262 0.290135 0.69865
0.764614 0.319081 0.72253
0.784222 0.36408 0.744396
0 0.36083 0.447669
3.0518e-05 0.389502 0.489845
0.0847944 0.443214 0.566918
0.27187 0.50544 0.66714
0.54493 0.488624 0.88191
0.71667 0.486595 0.765728
0.837461 0.486076 0.80351
0.854612 0.521904 0.817655
0.869841 0.563455 0.832868
0 0.484855 0.599191
3.0518e-05 0.507027 0.627543
0.00634775 0.564828 0.711574
0.328832 0.642344 0.789395
0.599268 0.670008 0.866499
0.798749 0.664424 0.848951
0.902586 0.673152 0.867597
0.912993 0.695918 0.874769
0.921401 0.723079 0.881865
0 0.614878 0.699077
1.5259e-05 0.640681 0.714733
3.0518e-05 0.688518 0.758846
0.340597 0.765805 0.85893
0.595132 0.800412 0.8804
0.835019 0.815457 0.927871
0.937835 0.821714 0.90576
0.965682 0.836805 0.910765
0.975235 0.857466 0.914794
3.0518e-05 0.760922 0.740154
3.0518e-05 0.797696 0.758923
0.00863661 0.848676 0.788571
0.369772 0.904814 0.846922
0.609415 0.927687 0.882795
0.838422 0.942473 0.916121
0.963592 0.940261 0.928542
0.989792 0.946517 0.926024
0.989288 0.952773 0.927611
3.0518e-05 0.800839 0.754208
3.0518e-05 0.827451 0.771832
0.165896 0.875853 0.816068
0.435935 0.915801 0.856214
0.644602 0.947051 0.885908
0.853635 0.97554 0.920913
0.962722 0.975418 0.933501
0.991424 0.974945 0.937346
0.991424 0.974945 0.937346
3.0518e-05 0.817899 0.765743
0.0220035 0.852369 0.791302
0.252705 0.888411 0.829389
0.458732 0.919249 0.859449
0.655238 0.948531 0.887404
0.857313 0.975875 0.921584
0.963119 0.975326 0.933516
0.991424 0.974945 0.937346
0.991424 0.974945 0.937346
