public/luts/Tierra.cube
TITLE "Generated by Resolve"
LUT_3D_SIZE 33
0.0122072 0.00817884 0.00906386
0.0212863 0.00842298 0.00805676
0.0351873 0.00906386 0.00607309
0.0546426 0.0102693 0.0043183
0.07953 0.0118257 0.00270085
0.109819 0.0137484 0.000442512
0.142443 0.0167544 0.000198367
0.178958 0.0194095 6.10361e-05
0.21799 0.0215152 1.5259e-05
0.258778 0.0229191 1.5259e-05
0.300755 0.0233616 3.0518e-05
0.344686 0.0242008 3.0518e-05
0.391623 0.0251774 0
0.436377 0.0260166 0
0.469581 0.0266728 0
0.498802 0.0267185 0
0.524712 0.0271 3.0518e-05
0.548592 0.0275883 0
0.57113 0.0280919 0
0.592752 0.0287022 3.0518e-05
0.613001 0.0296483 1.5259e-05
0.631235 0.0303197 0
0.647105 0.0309606 0
0.661723 0.0316777 0
0.675059 0.0324559 0
0.686061 0.0332494 1.5259e-05
0.693996 0.033875 1.5259e-05
0.700023 0.0343786 1.5259e-05
0.704982 0.0347753 0
0.709651 0.0351263 1.5259e-05
0.714061 0.035462 1.5259e-05
0.71873 0.0358129 3.0518e-05
0.723522 0.0362402 3.0518e-05
0.0173342 0.0161898 0.0114137
0.0258335 0.0163119 0.00929274
0.0364691 0.0167849 0.00680552
0.0506142 0.0172732 0.00480659
0.068864 0.017792 0.00331121
0.0909133 0.0188449 0.00158694
0.118303 0.0207828 0.000457771
0.148211 0.0231327 0
0.18233 0.0253452 0
0.222187 0.0269169 1.5259e-05
0.267491 0.0274968 1.5259e-05
0.316854 0.027451 1.5259e-05
0.37261 0.0271458 0
0.428595 0.0266728 0
0.468971 0.0266575 0
0.498161 0.0267185 0
0.524102 0.0270848 3.0518e-05
0.548058 0.0275731 0
0.570672 0.0280766 0
0.592401 0.028687 3.0518e-05
0.612619 0.0296178 1.5259e-05
0.6309 0.0303044 0
0.646845 0.0309606 0
0.66157 0.0316625 0
0.675013 0.0324559 0
0.686107 0.0332647 1.5259e-05
0.694057 0.0338903 1.5259e-05
0.700252 0.0343938 1.5259e-05
0.705409 0.0348058 0
0.710246 0.035172 1.5259e-05
0.714855 0.035523 1.5259e-05
0.719631 0.035874 3.0518e-05
0.724575 0.036347 3.0518e-05
0.0228275 0.027512 0.0144503
0.0321202 0.0260166 0.0122988
0.0420233 0.0259251 0.00920119
0.0532235 0.0260166 0.00662242
0.0668956 0.0261845 0.00471504
0.0848402 0.0266575 0.00236515
0.107744 0.0277256 0.000564584
0.133135 0.0297398 1.5259e-05
0.161898 0.0319829 1.5259e-05
0.195773 0.0336919 1.5259e-05
0.235798 0.0345159 1.5259e-05
0.279149 0.0341955 0
0.328283 0.0326848 0
0.385458 0.0308385 1.5259e-05
0.440879 0.0297551 1.5259e-05
0.483833 0.0292668 0
0.517494 0.0284428 3.0518e-05
0.546593 0.0278782 0
0.570672 0.0280766 0
0.592462 0.028687 3.0518e-05
0.612726 0.029633 1.5259e-05
0.631067 0.0303044 0
0.647105 0.0309606 0
0.661982 0.031693 0
0.675593 0.0324865 0
0.686824 0.0333104 3.0518e-05
0.694896 0.0339513 1.5259e-05
0.701213 0.0344701 0
0.706676 0.0349126 0
0.711818 0.0352941 1.5259e-05
0.71667 0.0356603 3.0518e-05
0.720836 0.0366827 3.0518e-05
0.724773 0.0382391 3.0518e-05
0.0280919 0.0431525 0.0196536
0.0378119 0.0393835 0.0177768
0.0475166 0.0380713 0.0151217
0.0576944 0.0375067 0.0117189
0.0695506 0.0372473 0.00784314
0.085832 0.0374762 0.00453193
0.106172 0.0378729 0.00149538
0.129213 0.0395972 0.000244144
0.154864 0.0418555 1.5259e-05
0.184237 0.0435798 0
0.219974 0.0445411 1.5259e-05
0.260365 0.0439918 0
0.304982 0.0419165 1.5259e-05
0.353323 0.0385901 0
0.409384 0.0354925 1.5259e-05
0.460929 0.0342107 1.5259e-05
0.499367 0.0325933 3.0518e-05
0.529763 0.0318761 0
0.557778 0.0315099 1.5259e-05
0.583902 0.0311894 3.0518e-05
0.607584 0.0314183 3.0518e-05
0.628611 0.0315251 0
0.646784 0.0317998 0
0.66244 0.0321813 0
0.676432 0.0328527 0
0.687709 0.033875 3.0518e-05
0.695476 0.0351415 1.5259e-05
0.701122 0.0364843 0
0.705943 0.0379034 0
0.709987 0.0394141 0
0.713802 0.0409857 0
0.717662 0.0427253 1.5259e-05
0.721859 0.0445258 3.0518e-05
0.0333562 0.0624247 0.0274205
0.0428931 0.0569467 0.0257267
0.0524147 0.0539559 0.0242466
0.062623 0.0523079 0.0203555
0.0745708 0.0513008 0.0142214
0.0902113 0.0511788 0.00939956
0.110079 0.0512398 0.00399786
0.132967 0.0527962 0.000900282
0.158099 0.055024 0
0.186328 0.0574197 0
0.221302 0.0593729 0
0.262379 0.06009 0
0.30399 0.0582132 3.0518e-05
0.342718 0.0529641 0
0.386892 0.0463874 0
0.438209 0.0417029 3.0518e-05
0.482338 0.0385138 0
0.515251 0.0370794 0
0.54403 0.0363012 1.5259e-05
0.571099 0.0356603 3.0518e-05
0.595728 0.0357519 3.0518e-05
0.618189 0.0360876 0
0.64065 0.0366064 3.0518e-05
0.657511 0.0372931 3.0518e-05
0.672374 0.0381018 3.0518e-05
0.684001 0.0393072 0
0.692317 0.0407416 0
0.698573 0.0422675 0
0.7037 0.0439002 1.5259e-05
0.708095 0.045594 1.5259e-05
0.712077 0.047425 3.0518e-05
0.715343 0.049836 3.0518e-05
0.718059 0.0525216 1.5259e-05
0.0390784 0.0825818 0.0378119
0.0496071 0.0789044 0.0362707
0.059144 0.0738689 0.0342412
0.0686656 0.0705425 0.0316625
0.0794842 0.0694591 0.0279088
0.0942702 0.0684215 0.0206149
0.115343 0.0677806 0.00999466
0.140932 0.0685283 0.00267033
0.167163 0.0708934 1.5259e-05
0.1935 0.0739605 0
0.225391 0.0772717 0
0.265858 0.0791638 0
0.309438 0.0784924 3.0518e-05
0.348669 0.074052 0
0.384817 0.0657054 1.5259e-05
0.423255 0.0558633 3.0518e-05
0.466636 0.0498054 1.5259e-05
0.501396 0.0458991 0
0.5308 0.0435187 1.5259e-05
0.560067 0.0417029 1.5259e-05
0.58674 0.0408179 1.5259e-05
0.611124 0.0407874 0
0.634516 0.0414588 3.0518e-05
0.654643 0.0426337 1.5259e-05
0.670375 0.0437781 0
0.682506 0.0453193 0
0.690364 0.0472572 0
0.695918 0.0495308 1.5259e-05
0.699962 0.052079 3.0518e-05
0.703166 0.0547799 3.0518e-05
0.704616 0.0586709 1.5259e-05
0.701885 0.0657816 1.5259e-05
0.694148 0.0720989 1.5259e-05
0.045594 0.103777 0.0487373
0.0552071 0.101518 0.0473335
0.065568 0.0972915 0.0458534
0.0754711 0.0928817 0.0440833
0.08542 0.0894636 0.0416114
0.0991226 0.0884871 0.0370031
0.119905 0.0872969 0.0246128
0.147295 0.0866865 0.00999466
0.176028 0.0877089 0.00138857
0.203693 0.0905928 1.5259e-05
0.234699 0.0946975 1.5259e-05
0.272679 0.0986496 0
0.316533 0.100999 1.5259e-05
0.35848 0.0996719 0
0.396048 0.0948806 0
0.432013 0.0856641 3.0518e-05
0.467048 0.075761 1.5259e-05
0.495766 0.0667887 1.5259e-05
0.520348 0.0604562 1.5259e-05
0.547951 0.0550088 1.5259e-05
0.575784 0.0513313 3.0518e-05
0.602289 0.0496071 3.0518e-05
0.626047 0.0499123 0
0.648051 0.0511177 0
0.664866 0.0530861 1.5259e-05
0.674586 0.0567788 3.0518e-05
0.678599 0.0620127 3.0518e-05
0.679286 0.0681773 3.0518e-05
0.678294 0.0747997 3.0518e-05
0.676829 0.0825666 3.0518e-05
0.685771 0.0957504 3.0518e-05
0.689723 0.108217 3.0518e-05
0.693629 0.1196 3.0518e-05
0.053193 0.125856 0.0610819
0.0606851 0.124178 0.0594186
0.0708629 0.121736 0.0580301
0.08159 0.118303 0.0569314
0.0923476 0.11371 0.0556954
0.105623 0.110353 0.0529793
0.124681 0.109209 0.0446479
0.152056 0.10753 0.0244602
0.183841 0.106844 0.00590524
0.214725 0.108797 0.000366217
0.246967 0.11281 9.15541e-05
0.28397 0.117937 0
0.325399 0.123125 0
0.36759 0.1252 0
0.40528 0.123262 1.5259e-05
0.443076 0.118868 1.5259e-05
0.47892 0.112383 0
0.506828 0.104738 3.0518e-05
0.525902 0.0974899 1.5259e-05
0.543984 0.0906539 1.5259e-05
0.562768 0.0854963 3.0518e-05
0.583459 0.0825818 0
0.604334 0.0825055 0
0.625605 0.0838178 0
0.643732 0.0865187 3.0518e-05
0.657816 0.0934615 3.0518e-05
0.669703 0.103258 3.0518e-05
0.680323 0.114763 3.0518e-05
0.690837 0.128145 3.0518e-05
0.7019 0.141772 3.0518e-05
0.707622 0.155184 3.0518e-05
0.713268 0.167025 1.5259e-05
0.718135 0.178027 1.5259e-05
0.0620127 0.148852 0.0744793
0.0670329 0.147631 0.0728161
0.0756237 0.146487 0.0711376
0.0863203 0.145037 0.0700999
0.0983749 0.142214 0.0699626
0.112917 0.136706 0.069398
0.130739 0.134035 0.0650492
0.156268 0.132296 0.049836
0.189136 0.130251 0.0230259
0.224323 0.130114 0.00354009
0.260014 0.133791 0.000549325
0.297841 0.138521 1.5259e-05
0.339956 0.144503 0
0.381567 0.149783 3.0518e-05
0.415671 0.151995 1.5259e-05
0.45362 0.151614 1.5259e-05
0.4916 0.149981 1.5259e-05
0.52459 0.147066 3.0518e-05
0.547448 0.143755 0
0.5673 0.140993 3.0518e-05
0.58706 0.138903 1.5259e-05
0.607217 0.138125 1.5259e-05
0.62771 0.138811 0
0.648768 0.140887 1.5259e-05
0.668177 0.145449 0
0.684276 0.153185 1.5259e-05
0.697841 0.164187 0
0.710292 0.17702 1.5259e-05
0.720653 0.188952 1.5259e-05
0.725002 0.200076 1.5259e-05
0.72929 0.210529 0
0.733257 0.220706 0
0.737255 0.231174 1.5259e-05
0.0727092 0.173205 0.0886397
0.0755779 0.172763 0.087602
0.0817578 0.172076 0.0857557
0.090425 0.171939 0.084123
0.101732 0.171725 0.0835889
0.117891 0.167803 0.0851453
0.136812 0.163165 0.0844129
0.160998 0.160616 0.0787366
0.192813 0.159487 0.0580911
0.231022 0.156649 0.0202029
0.271244 0.157946 0.00225834
0.312108 0.162982 0.000381476
0.355612 0.169512 0.000167849
0.399756 0.175906 0
0.43592 0.180423 1.5259e-05
0.470283 0.183917 1.5259e-05
0.504524 0.186969 0
0.538399 0.188022 1.5259e-05
0.564721 0.187442 3.0518e-05
0.585962 0.187274 1.5259e-05
0.60734 0.188006 0
0.628748 0.189822 3.0518e-05
0.650385 0.192798 1.5259e-05
0.672068 0.196963 1.5259e-05
0.692424 0.202731 3.0518e-05
0.7093 0.210986 1.5259e-05
0.722255 0.221149 0
0.733166 0.232074 0
0.739406 0.242847 0
0.743557 0.252872 1.5259e-05
0.748348 0.262882 3.0518e-05
0.753216 0.273503 3.0518e-05
0.758282 0.283665 1.5259e-05
0.0862745 0.199725 0.103655
0.0876478 0.200259 0.103609
0.0918288 0.200076 0.102129
0.0974289 0.200595 0.100008
0.105287 0.201663 0.098146
0.119265 0.201602 0.0992294
0.139818 0.198398 0.102007
0.166369 0.193606 0.102296
0.198077 0.192126 0.0935073
0.235019 0.190539 0.0635386
0.278553 0.187091 0.0164187
0.323995 0.19057 0.00213626
0.370504 0.198215 0.000839246
0.417685 0.206531 0.000564584
0.457298 0.212284 1.5259e-05
0.492317 0.217121 0
0.527001 0.221988 3.0518e-05
0.5608 0.226642 1.5259e-05
0.587121 0.229755 0
0.607736 0.232334 3.0518e-05
0.627207 0.235264 1.5259e-05
0.647196 0.2392 0
0.669688 0.243687 1.5259e-05
0.69189 0.249104 1.5259e-05
0.713481 0.255756 1.5259e-05
0.731517 0.264042 1.5259e-05
0.74548 0.27396 1.5259e-05
0.756786 0.284611 3.0518e-05
0.762936 0.292561 1.5259e-05
0.769467 0.300969 1.5259e-05
0.776577 0.310079 0
0.782559 0.318685 0
0.788464 0.32723 0
0.102098 0.229007 0.119448
0.102647 0.230045 0.119982
0.105791 0.23064 0.118883
0.109468 0.231998 0.117174
0.113802 0.234089 0.114885
0.122103 0.236118 0.114031
0.139879 0.236912 0.117327
0.169024 0.233814 0.122026
0.204028 0.22678 0.122026
0.240543 0.228626 0.108995
0.283162 0.225391 0.0639658
0.332097 0.222507 0.0103151
0.382864 0.229862 0.00318914
0.432837 0.238895 0.00123598
0.475715 0.246708 0.00106813
0.512291 0.252674 0.000671397
0.548165 0.25832 1.5259e-05
0.583307 0.264912 1.5259e-05
0.614816 0.270542 1.5259e-05
0.637217 0.274266 1.5259e-05
0.657557 0.277897 1.5259e-05
0.678187 0.282429 1.5259e-05
0.699611 0.288014 3.0518e-05
0.721553 0.294926 0
0.74258 0.302296 0
0.761532 0.310491 3.0518e-05
0.776394 0.319295 1.5259e-05
0.786618 0.327779 1.5259e-05
0.792248 0.335988 3.0518e-05
0.797803 0.344701 1.5259e-05
0.80325 0.353368 1.5259e-05
0.808652 0.362066 1.5259e-05
0.817502 0.370367 1.5259e-05
0.117983 0.259922 0.135332
0.118822 0.261601 0.136187
0.120928 0.263355 0.135897
0.12372 0.265385 0.134325
0.126299 0.268482 0.132418
0.129732 0.272145 0.130968
0.140581 0.274723 0.132296
0.166918 0.277897 0.137545
0.209949 0.27097 0.143893
0.24744 0.266438 0.139773
0.288365 0.269596 0.122423
0.335149 0.265721 0.0649729
0.388632 0.264836 0.0133974
0.442969 0.273625 0.00407416
0.490089 0.282826 0.00300603
0.528283 0.289509 0.00195315
0.564965 0.296635 0.00154116
0.601175 0.303181 0.000518807
0.636347 0.310246 0.000228885
0.661891 0.315328 0
0.68304 0.319677 1.5259e-05
0.704326 0.324742 3.0518e-05
0.726513 0.331075 0
0.748333 0.337804 0
0.769558 0.345357 0
0.788525 0.354025 1.5259e-05
0.804974 0.363287 3.0518e-05
0.815717 0.371267 1.5259e-05
0.824567 0.379339 1.5259e-05
0.833951 0.387655 3.0518e-05
0.841352 0.396826 0.00424201
0.84828 0.406302 0.00935378
0.854826 0.41593 0.0148623
0.133135 0.291371 0.150591
0.134188 0.293614 0.151644
0.135653 0.296132 0.152209
0.138293 0.299107 0.150896
0.14049 0.302373 0.149233
0.142947 0.306111 0.147723
0.148455 0.310048 0.148302
0.165499 0.314931 0.151064
0.207919 0.316609 0.158755
0.253559 0.308949 0.163073
0.294163 0.308186 0.153094
0.337499 0.312612 0.131716
0.388449 0.30898 0.0668956
0.446418 0.309819 0.0138705
0.499077 0.319539 0.00630198
0.539956 0.327642 0.00463874
0.577295 0.335225 0.00425727
0.614801 0.342794 0.00201419
0.651102 0.35082 0.00183108
0.681163 0.357076 0.00143435
0.704143 0.362463 0.00155642
0.726482 0.368231 0.00173953
0.749371 0.37438 0.000671397
0.77171 0.381277 0.00015259
0.793118 0.388952 0.000396735
0.814725 0.397208 0.000534066
0.845029 0.40708 0.00604257
0.85391 0.415778 0.0113832
0.856168 0.425513 0.0217899
0.858549 0.435554 0.0321813
0.860868 0.445762 0.0430304
0.862516 0.455634 0.0545815
0.864179 0.465629 0.0657664
0.146975 0.324056 0.164584
0.147936 0.326558 0.165591
0.149126 0.32961 0.166796
0.151385 0.333165 0.165942
0.153613 0.336889 0.164797
0.156024 0.34107 0.163806
0.159762 0.345571 0.163439
0.17055 0.351354 0.164019
0.205051 0.358602 0.169833
0.254475 0.355062 0.176944
0.298741 0.347509 0.17583
0.341695 0.350378 0.160372
0.387869 0.354055 0.127398
0.442191 0.349767 0.0508736
0.499413 0.354147 0.0163882
0.545052 0.362814 0.0102846
0.584527 0.370779 0.00645457
0.622477 0.379492 0.00553903
0.660426 0.388525 0.00466926
0.695369 0.397192 0.0039826
0.720607 0.402625 0.00251774
0.743496 0.408301 0.00207523
0.766796 0.41474 0.00213626
0.789273 0.421729 0.00216678
0.810925 0.429267 0.0021973
0.833906 0.439002 0.0106203
0.860868 0.454978 0.0481575
0.862943 0.463905 0.0592813
0.864637 0.472786 0.0693828
0.866758 0.481498 0.0783551
0.868833 0.490257 0.0872511
0.870939 0.499046 0.0959029
0.872999 0.507134 0.103349
0.159533 0.358053 0.177722
0.160632 0.361151 0.178882
0.1617 0.364233 0.180011
0.163317 0.36791 0.179568
0.165316 0.372061 0.178485
0.167452 0.376608 0.177493
0.170459 0.381964 0.176822
0.177615 0.388708 0.176028
0.203311 0.396963 0.179034
0.250706 0.400381 0.185901
0.301625 0.392813 0.189502
0.345281 0.388617 0.181765
0.391043 0.39411 0.156802
0.440055 0.397192 0.112825
0.493431 0.393469 0.0415503
0.545357 0.397848 0.0208591
0.586831 0.405966 0.0161593
0.626566 0.414343 0.0109407
0.66656 0.423545 0.00689708
0.704204 0.432914 0.00627146
0.731395 0.439475 0.00642405
0.754849 0.444999 0.00614939
0.778912 0.451087 0.0047303
0.801892 0.457893 0.0049897
0.824628 0.464515 0.00233463
0.846235 0.47599 0.0216373
0.87013 0.49778 0.0892805
0.872099 0.505226 0.0968338
0.874052 0.512963 0.104387
0.875898 0.520989 0.111192
0.877607 0.528634 0.117205
0.879301 0.536156 0.122942
0.880522 0.543175 0.12665
0.169863 0.391852 0.188632
0.170565 0.394614 0.18938
0.171328 0.397604 0.190204
0.172534 0.401221 0.190097
0.174228 0.4056 0.188998
0.176028 0.410559 0.187854
0.178149 0.416571 0.186694
0.182315 0.424582 0.184787
0.200641 0.43415 0.185229
0.245289 0.442939 0.191318
0.300664 0.438453 0.19617
0.347829 0.430823 0.193988
0.393774 0.431174 0.178271
0.44155 0.438132 0.148608
0.491249 0.43975 0.0939345
0.539879 0.436851 0.0364385
0.583993 0.440101 0.0264591
0.628061 0.44802 0.0214694
0.66807 0.457191 0.0169985
0.708476 0.466316 0.0123293
0.740185 0.472847 0.00737011
0.764858 0.478508 0.00689708
0.788724 0.48484 0.00701915
0.812116 0.491508 0.00715648
0.835142 0.49865 0.009308
0.859068 0.512093 0.0407263
0.878279 0.534813 0.115953
0.879774 0.541543 0.121035
0.880934 0.54847 0.124514
0.882109 0.555383 0.12784
0.882399 0.562051 0.130587
0.882704 0.568612 0.133288
0.882979 0.575143 0.135927
0.177066 0.421637 0.196414
0.177661 0.424582 0.197055
0.17821 0.427787 0.197635
0.179095 0.431708 0.197559
0.180591 0.437018 0.196201
0.18204 0.442313 0.194858
0.183825 0.44889 0.1935
0.186282 0.458122 0.19086
0.199527 0.468788 0.18909
0.240726 0.479377 0.193668
0.298436 0.480034 0.198199
0.34902 0.473167 0.19762
0.394797 0.466987 0.188479
0.443946 0.473716 0.161776
0.492592 0.479896 0.123735
0.539193 0.480446 0.0756237
0.58027 0.478645 0.0357366
0.62327 0.482506 0.0286107
0.668116 0.489647 0.0272068
0.710353 0.49865 0.0215915
0.744884 0.506645 0.0180972
0.77145 0.51252 0.015198
0.797223 0.517555 0.00973526
0.821118 0.523674 0.00860609
0.84448 0.531731 0.0160983
0.866331 0.548363 0.0657664
0.881224 0.567361 0.125811
0.882322 0.573892 0.130678
0.883116 0.579828 0.131594
0.883894 0.585962 0.13254
0.884642 0.592126 0.133455
0.885328 0.597955 0.134081
0.886061 0.603723 0.134722
0.182147 0.45185 0.20177
0.18265 0.455085 0.202274
0.183169 0.458534 0.202823
0.183856 0.462974 0.20264
0.184939 0.468589 0.200946
0.186069 0.474739 0.199283
0.187274 0.4822 0.197436
0.188586 0.492393 0.193988
0.199405 0.50399 0.190784
0.238132 0.515084 0.193668
0.296895 0.519646 0.197406
0.34963 0.513283 0.196506
0.39765 0.506477 0.18941
0.445548 0.506661 0.170413
0.495613 0.51429 0.135744
0.540581 0.518288 0.100938
0.579919 0.518029 0.0640269
0.620951 0.518669 0.0354314
0.664103 0.523491 0.0310216
0.709072 0.530571 0.0314031
0.750103 0.538613 0.0263371
0.7776 0.544625 0.0231937
0.802731 0.550439 0.0206912
0.827176 0.556115 0.0184024
0.85095 0.564492 0.0286259
0.872389 0.581781 0.0841993
0.883879 0.596063 0.125551
0.885466 0.601938 0.129397
0.885954 0.607477 0.130541
0.885863 0.613458 0.133623
0.885725 0.619608 0.136858
0.885573 0.625803 0.14023
0.885466 0.6318 0.143847
0.185519 0.483268 0.205158
0.185748 0.487221 0.205386
0.185962 0.491096 0.205615
0.186389 0.495796 0.20502
0.187091 0.501976 0.202945
0.187655 0.509285 0.200702
0.188113 0.518349 0.198016
0.18851 0.529931 0.19353
0.198093 0.541711 0.189899
0.23537 0.553109 0.191089
0.295369 0.56083 0.192401
0.350149 0.554467 0.191226
0.400702 0.547417 0.185153
0.447761 0.541375 0.169986
0.498527 0.547951 0.142596
0.543954 0.553048 0.108354
0.581262 0.554559 0.083772
0.621302 0.555108 0.0535286
0.663081 0.557717 0.0354467
0.707225 0.563149 0.0327611
0.750576 0.569329 0.034165
0.781109 0.573999 0.0331426
0.807935 0.578805 0.0281987
0.832776 0.584482 0.0253147
0.855985 0.593423 0.0378424
0.874571 0.610117 0.0935073
0.883864 0.623285 0.131228
0.884794 0.629709 0.138582
0.884672 0.635462 0.141924
0.88455 0.641398 0.14548
0.884428 0.647593 0.149371
0.884321 0.653574 0.15314
0.884199 0.659403 0.156786
0.186877 0.516991 0.206394
0.186801 0.521187 0.206302
0.186603 0.525628 0.206073
0.186557 0.531319 0.204578
0.186633 0.538857 0.201816
0.186618 0.547967 0.198917
0.185977 0.559197 0.194965
0.185122 0.571008 0.189273
0.193988 0.58291 0.184771
0.233143 0.594629 0.184314
0.295293 0.602884 0.184146
0.352331 0.597345 0.182376
0.404181 0.590112 0.175204
0.452262 0.581933 0.162402
0.501472 0.582116 0.14023
0.54757 0.587732 0.112413
0.584955 0.589868 0.0850843
0.623316 0.591836 0.0684977
0.664652 0.593484 0.0466163
0.707988 0.59707 0.035462
0.752743 0.602365 0.0349432
0.781415 0.604959 0.0358434
0.809613 0.608728 0.0368048
0.837247 0.613855 0.0365759
0.860914 0.622126 0.048188
0.876539 0.638056 0.102907
0.882765 0.651041 0.143328
0.883406 0.657328 0.151278
0.883238 0.663233 0.155535
0.883009 0.669627 0.160494
0.88275 0.675761 0.165698
0.882445 0.68188 0.171313
0.881651 0.687709 0.172564
0.184863 0.553704 0.20412
0.184497 0.558312 0.203693
0.184115 0.563012 0.20325
0.183398 0.570504 0.200214
0.182315 0.580453 0.196185
0.180865 0.591943 0.191699
0.179431 0.603555 0.186755
0.178058 0.615412 0.180545
0.186786 0.627298 0.175051
0.234165 0.639216 0.173373
0.297734 0.646983 0.171252
0.35523 0.642084 0.1673
0.408362 0.634165 0.159594
0.458198 0.624979 0.147585
0.505104 0.618265 0.130205
0.550958 0.623072 0.108141
0.589624 0.625879 0.0846571
0.627573 0.627756 0.062623
0.667567 0.629969 0.0537728
0.710765 0.63299 0.0418097
0.755016 0.637217 0.0362402
0.785061 0.639628 0.0366827
0.812009 0.642252 0.0374914
0.838422 0.645441 0.0396887
0.861601 0.653574 0.0658274
0.874876 0.667735 0.122103
0.880934 0.679744 0.159854
0.880781 0.68603 0.16434
0.880003 0.691737 0.165286
0.879194 0.697581 0.166186
0.878691 0.703853 0.166674
0.878645 0.710277 0.166552
0.878645 0.716518 0.166506
0.180301 0.591211 0.199145
0.17937 0.596033 0.198215
0.178347 0.601678 0.19675
0.176455 0.613397 0.191485
0.173953 0.625101 0.185794
0.171283 0.636683 0.179843
0.169574 0.647974 0.173892
0.169741 0.659693 0.167239
0.18735 0.672084 0.161883
0.240986 0.685054 0.15845
0.303212 0.69189 0.154498
0.360265 0.685527 0.148959
0.41442 0.677562 0.140688
0.465461 0.667826 0.128969
0.511711 0.658351 0.113603
0.555047 0.658961 0.0963607
0.594049 0.661524 0.078584
0.632883 0.663508 0.0572519
0.672267 0.665644 0.0425269
0.715328 0.669169 0.0459144
0.758648 0.672816 0.0396735
0.789776 0.674678 0.0380713
0.816617 0.676661 0.0382696
0.842237 0.679469 0.0417792
0.861799 0.686412 0.0712291
0.872007 0.697856 0.121187
0.877668 0.709072 0.159213
0.877699 0.714946 0.159625
0.877668 0.720974 0.159533
0.87776 0.72726 0.159594
0.877867 0.733608 0.159655
0.877989 0.739879 0.159838
0.878126 0.746181 0.160159
0.17203 0.629435 0.191516
0.170748 0.634455 0.190463
0.168963 0.643946 0.186496
0.166354 0.65594 0.179889
0.162692 0.667582 0.172442
0.159716 0.678889 0.165133
0.158007 0.690013 0.157992
0.163287 0.701732 0.151293
0.193362 0.714244 0.147112
0.25127 0.727031 0.143252
0.310277 0.731945 0.137224
0.367437 0.723918 0.130617
0.421576 0.715557 0.120607
0.473548 0.706096 0.10901
0.51899 0.696117 0.0956893
0.558618 0.692164 0.0820935
0.598581 0.695308 0.0674907
0.638117 0.697704 0.0509499
0.678279 0.70013 0.0354467
0.720989 0.704051 0.0379339
0.763531 0.707897 0.0420081
0.795605 0.70959 0.040238
0.822171 0.710903 0.0399481
0.846677 0.713664 0.0437324
0.86334 0.720012 0.0730907
0.872129 0.7299 0.119326
0.876905 0.738994 0.152255
0.877012 0.744305 0.152392
0.877195 0.749996 0.152972
0.877394 0.755749 0.153765
0.877607 0.761807 0.15462
0.877836 0.767361 0.15552
0.878065 0.772625 0.156527
0.159945 0.670558 0.182467
0.158114 0.676616 0.180865
0.157275 0.688182 0.175448
0.15523 0.69929 0.169039
0.150866 0.709941 0.160647
0.146853 0.720851 0.152056
0.147158 0.732692 0.147234
0.156909 0.744869 0.141299
0.200549 0.756649 0.136675
0.262608 0.76791 0.131289
0.321599 0.768811 0.12462
0.378714 0.759716 0.11548
0.433051 0.750072 0.103807
0.484108 0.739116 0.0917067
0.527871 0.728374 0.0791333
0.563851 0.720806 0.0691386
0.603876 0.723537 0.0567788
0.64416 0.726833 0.0438392
0.685176 0.73022 0.0324407
0.727794 0.734035 0.0268711
0.769482 0.738643 0.0405737
0.802182 0.740963 0.0432136
0.828458 0.74255 0.0427405
0.851606 0.745144 0.0461891
0.865431 0.750866 0.0775311
0.873045 0.759121 0.122332
0.876768 0.766033 0.14815
0.876997 0.770565 0.149203
0.877287 0.775174 0.150729
0.877623 0.780285 0.152468
0.877943 0.785214 0.154162
0.878233 0.789792 0.155734
0.878477 0.792859 0.157061
0.145281 0.710994 0.172564
0.144106 0.720119 0.168505
0.14287 0.731044 0.164202
0.141039 0.742031 0.161089
0.139223 0.752789 0.157534
0.138079 0.763958 0.153353
0.14287 0.775006 0.148287
0.168978 0.783062 0.141176
0.221973 0.791302 0.135332
0.282139 0.800381 0.12987
0.340154 0.794018 0.122301
0.396277 0.783307 0.112108
0.449989 0.772122 0.098558
0.498039 0.761196 0.0820935
0.539086 0.751186 0.070985
0.572519 0.742748 0.0599985
0.612772 0.746944 0.0485389
0.653422 0.752026 0.0385595
0.694911 0.756191 0.0309758
0.738643 0.760174 0.0264286
0.77847 0.764111 0.03505
0.81001 0.766491 0.0464179
0.836515 0.7682 0.0464942
0.857847 0.770611 0.0502327
0.86865 0.776242 0.0902266
0.875669 0.783551 0.138277
0.877424 0.788052 0.150179
0.877623 0.789883 0.151461
0.877836 0.790585 0.152789
0.878019 0.791241 0.154009
0.878202 0.791867 0.155215
0.87837 0.792493 0.156374
0.878523 0.793027 0.157397
0.131411 0.747326 0.170092
0.132418 0.753216 0.168734
0.13344 0.758862 0.167452
0.134585 0.764492 0.166476
0.135988 0.770459 0.16553
0.139467 0.776776 0.163012
0.154101 0.783749 0.15761
0.192538 0.791409 0.149752
0.250828 0.799634 0.145632
0.30811 0.803876 0.14023
0.36524 0.796643 0.132204
0.419226 0.785626 0.119738
0.469841 0.774395 0.102968
0.515236 0.763363 0.088304
0.551827 0.753429 0.0769665
0.586847 0.74789 0.0651408
0.62652 0.751781 0.0526589
0.666972 0.756542 0.0416266
0.70959 0.761883 0.0341192
0.753704 0.76762 0.0291142
0.791012 0.772274 0.0434882
0.820676 0.774929 0.0512703
0.846281 0.776806 0.0518044
0.863493 0.780209 0.0680858
0.87274 0.786114 0.117067
0.87776 0.790341 0.152316
0.877867 0.790692 0.153002
