public/luts/Tierra.cube
TITLE "Generated by Resolve"
LUT_3D_SIZE 5
0.0122072 0.00817884 0.00906386
0.21799 0.0215152 1.5259e-05
0.524712 0.0271 3.0518e-05
0.675059 0.0324559 0
0.723522 0.0362402 3.0518e-05
0.0620127 0.148852 0.0744793
0.189136 0.130251 0.0230259
0.4916 0.149981 1.5259e-05
0.668177 0.145449 0
0.737255 0.231174 1.5259e-05
0.169863 0.391852 0.188632
0.200641 0.43415 0.185229
0.583993 0.440101 0.0264591
0.835142 0.49865 0.009308
0.882979 0.575143 0.135927
0.159945 0.670558 0.182467
0.200549 0.756649 0.136675
0.603876 0.723537 0.0567788
0.865431 0.750866 0.0775311
0.878477 0.792859 0.157061
0.124453 0.79939 0.260609
0.419867 0.842115 0.24094
0.702922 0.782727 0.12369
0.879301 0.795468 0.162692
0.878904 0.794339 0.159915
1.5259e-05 0.0390173 0.0516823
0.169909 0.0538338 0.142596
0.585107 0.00306706 0.0399634
0.742336 0.00917067 0.00285344
0.815137 0.00437934 0.011429
1.5259e-05 0.140948 0.13225
0.126635 0.16701 0.169421
0.549508 0.145769 0.0793927
0.774319 0.121798 0.0374914
0.853773 0.240055 0.149325
0.158679 0.413016 0.22974
0.181353 0.46862 0.260655
0.599451 0.491524 0.178164
0.86746 0.546517 0.142245
0.902892 0.626612 0.289296
0.130419 0.717586 0.279316
0.136599 0.803632 0.302586
0.626947 0.800061 0.266392
0.892226 0.804822 0.261616
0.909102 0.848005 0.369314
0.0622568 0.821729 0.395789
0.376303 0.877623 0.437293
0.714321 0.843076 0.371801
0.910033 0.849622 0.375753
0.908812 0.847532 0.367391
3.0518e-05 0.121675 0.151919
0.0150454 0.173434 0.230259
0.471473 0.148775 0.379644
0.701686 0.111696 0.359548
0.761852 0.110994 0.378851
0 0.183368 0.215412
0.0366979 0.223682 0.274739
0.472602 0.239658 0.429969
0.76669 0.195697 0.442725
0.848859 0.277623 0.510887
3.0518e-05 0.417578 0.408637
3.0518e-05 0.471946 0.455909
0.584268 0.597406 0.601404
0.917098 0.629252 0.568093
0.949783 0.687831 0.622202
3.0518e-05 0.733837 0.487511
0.00495918 0.82208 0.522316
0.631128 0.914778 0.619959
0.930449 0.88014 0.623285
0.952895 0.911269 0.674144
3.0518e-05 0.805753 0.593759
0.250278 0.886976 0.64477
0.712337 0.950744 0.676005
0.947478 0.920424 0.660182
0.952758 0.920836 0.672023
3.0518e-05 0.19855 0.248829
0.0190433 0.242344 0.315938
0.429847 0.274586 0.504448
0.621271 0.196689 0.554223
0.677684 0.194919 0.583001
3.0518e-05 0.244434 0.302403
0.0424964 0.293355 0.372457
0.440665 0.328984 0.665202
0.696834 0.259541 0.652384
0.771832 0.336736 0.730587
1.5259e-05 0.457221 0.544259
3.0518e-05 0.513161 0.625025
0.563378 0.647761 0.824155
0.881819 0.653025 0.845045
0.916381 0.706859 0.877714
1.5259e-05 0.735302 0.70248
3.0518e-05 0.822065 0.766308
0.589273 0.910521 0.859266
0.950713 0.926894 0.892592
0.986847 0.948333 0.907973
3.0518e-05 0.816373 0.764736
0.25243 0.888365 0.829343
0.658045 0.948913 0.887785
0.961608 0.969635 0.905531
0.986679 0.969268 0.90837
3.0518e-05 0.220157 0.277287
0.0280003 0.266239 0.348943
0.427451 0.296986 0.58999
0.630564 0.213489 0.591501
0.688777 0.207706 0.62858
3.0518e-05 0.274617 0.344259
0.0598611 0.324727 0.416373
0.459297 0.354635 0.73846
0.723262 0.290135 0.69865
0.784222 0.36408 0.744396
0 0.484855 0.599191
0.00634775 0.564828 0.711574
0.599268 0.670008 0.866499
0.902586 0.673152 0.867597
0.921401 0.723079 0.881865
3.0518e-05 0.760922 0.740154
0.00863661 0.848676 0.788571
0.609415 0.927687 0.882795
0.963592 0.940261 0.928542
0.989288 0.952773 0.927611
3.0518e-05 0.817899 0.765743
0.252705 0.888411 0.829389
0.655238 0.948531 0.887404
0.963119 0.975326 0.933516
0.991424 0.974945 0.937346
