public/luts/Wenders.cube
TITLE "Generated by Resolve"
LUT_3D_SIZE 5
0.0632639 0.0632639 0.0632639
0.183062 0.0408637 0.0385443
0.496117 0.0162051 0.0105287
0.769314 0.00288396 3.0518e-05
0.967529 0 3.0518e-05
0.0318761 0.183093 0.0344701
0.178378 0.181399 0.0298619
0.495766 0.151278 0.00874342
0.769177 0.130373 3.0518e-05
0.967483 0.111147 3.0518e-05
0.00300603 0.494804 0.00860609
0.134524 0.494697 0.00239567
0.484596 0.495247 6.10361e-05
0.768322 0.470588 0
0.967071 0.440528 3.0518e-05
0 0.767895 0
0.102007 0.767849 0
0.436698 0.767529 0
0.756085 0.768643 0
0.966308 0.754742 0
0 0.966186 0
0.0661326 0.966155 0
0.393942 0.966018 0
0.719249 0.965743 0
0.952789 0.96527 0
0.0365454 0.0340276 0.183841
0.181994 0.0318303 0.179294
0.496132 0.0104829 0.137743
0.769314 0 0.109819
0.967529 0 0.0840162
0.0299382 0.17879 0.181582
0.161913 0.162799 0.162722
0.481697 0.110246 0.104479
0.755825 0.0830396 0.0726329
0.957687 0.0615091 0.0462959
0.00300603 0.494804 0.149172
0.0910201 0.481361 0.0972763
0.471565 0.479179 0.0835889
0.753994 0.438346 0.0639353
0.956405 0.40557 0.0370642
0 0.767895 0.124254
0.059266 0.754528 0.0706645
0.409903 0.753262 0.0529183
0.743404 0.753704 0.0474556
0.955642 0.733333 0.0254368
0 0.966186 0.0978714
0.0245212 0.956313 0.0424964
0.364813 0.955306 0.0185702
0.701915 0.955001 0.0138399
0.943725 0.954559 0.00663767
0.0207523 0.0149081 0.497032
0.153307 0.0141451 0.496895
0.497475 0.00975052 0.486839
0.769314 0 0.440833
0.967529 0 0.400961
0.0132906 0.138872 0.496742
0.102388 0.0963149 0.48336
0.481147 0.0898909 0.47361
0.75491 0.0684215 0.414466
0.956817 0.0435187 0.372061
0.00300603 0.485573 0.496193
0.0859541 0.47245 0.480018
0.42472 0.427482 0.427436
0.728618 0.361959 0.355367
0.934157 0.300084 0.287434
0 0.767895 0.469596
0.0554055 0.753567 0.436271
0.310979 0.730205 0.3187
0.72195 0.727733 0.304982
0.932692 0.67805 0.28397
0 0.966186 0.436622
0.0207523 0.955444 0.401007
0.254047 0.933242 0.267765
0.646143 0.932326 0.250645
0.924224 0.931807 0.247974
0.0138094 0.00675975 0.770291
0.135134 0.00613413 0.770245
0.474052 0.00228885 0.769879
0.770993 0 0.758526
0.967529 0 0.723201
0.00553903 0.114229 0.770169
0.085481 0.0752422 0.756848
0.440696 0.0695354 0.755566
0.756024 0.0652628 0.7458
0.956817 0.0429999 0.705898
0 0.441016 0.769406
0.0666361 0.414176 0.755108
0.323064 0.315404 0.732006
0.729412 0.311925 0.723796
0.933669 0.278019 0.655482
0 0.757153 0.76965
0.0554055 0.744442 0.754711
0.306859 0.722713 0.728481
0.684443 0.686137 0.686137
0.91284 0.634531 0.628809
0 0.966186 0.754482
0.0207523 0.955444 0.732876
0.252293 0.932631 0.66952
0.582834 0.913573 0.590066
0.908278 0.912505 0.580987
0.00933852 0 0.968475
0.120226 0 0.96846
0.445747 0 0.968277
0.758007 0 0.968002
0.967529 0 0.955169
0 0.0939651 0.968429
0.0727703 0.0589761 0.958602
0.410254 0.0539712 0.957595
0.736507 0.0493019 0.957259
0.956847 0.0421302 0.946075
0 0.403326 0.968063
0.0511025 0.374273 0.957382
0.278126 0.264698 0.935347
0.673426 0.261265 0.934386
0.933883 0.25951 0.926345
0 0.722805 0.967346
0.0395666 0.705516 0.956664
0.259068 0.650034 0.933959
0.593866 0.586694 0.915038
0.913909 0.586145 0.909728
0 0.953826 0.966247
0.0218509 0.944732 0.955535
0.252552 0.925139 0.932677
0.582635 0.908919 0.9131
0.884581 0.884581 0.884581
