public/luts/Wenders.cube
TITLE "Generated by Resolve"
LUT_3D_SIZE 33
0.0632639 0.0632639 0.0632639
0.0632639 0.0632639 0.0632639
0.0632639 0.0632639 0.0632639
0.0632639 0.0632639 0.0632639
0.0632639 0.0632639 0.0632639
0.0632639 0.0632639 0.0632639
0.0632639 0.0632639 0.0632639
0.127703 0.0517281 0.0505531
0.183062 0.0408637 0.0385443
0.225544 0.0344091 0.03122
0.264393 0.0304112 0.0265049
0.30222 0.0273289 0.0228733
0.339971 0.0246891 0.0197604
0.377981 0.0223545 0.0170748
0.416602 0.0201572 0.0147097
0.456031 0.0180972 0.0125734
0.496117 0.0162051 0.0105287
0.535698 0.0144198 0.00860609
0.573602 0.012665 0.00674449
0.609766 0.0109712 0.00491341
0.644312 0.00929274 0.00317388
0.677455 0.00759899 0.00143435
0.70927 0.00598154 0.000198367
0.739849 0.00442512 3.0518e-05
0.769314 0.00288396 3.0518e-05
0.797681 0.00141909 3.0518e-05
0.824994 0.000122072 3.0518e-05
0.851331 0 3.0518e-05
0.876677 0 3.0518e-05
0.901122 0 3.0518e-05
0.92462 0 3.0518e-05
0.947219 0 3.0518e-05
0.967529 0 3.0518e-05
0.0632639 0.0632639 0.0632639
0.0632639 0.0632639 0.0632639
0.0632639 0.0632639 0.0632639
0.0632639 0.0632639 0.0632639
0.0632639 0.0632639 0.0632639
0.0632639 0.0632639 0.0632639
0.0632639 0.0632639 0.0632639
0.127703 0.0517281 0.0505531
0.183062 0.0408637 0.0385443
0.225544 0.0344091 0.03122
0.264393 0.0304112 0.0265049
0.30222 0.0273289 0.0228733
0.339971 0.0246891 0.0197604
0.377981 0.0223545 0.0170748
0.416602 0.0201572 0.0147097
0.456031 0.0180972 0.0125734
0.496117 0.0162051 0.0105287
0.535698 0.0144198 0.00860609
0.573602 0.012665 0.00674449
0.609766 0.0109712 0.00491341
0.644312 0.00929274 0.00317388
0.677455 0.00759899 0.00143435
0.70927 0.00598154 0.000198367
0.739849 0.00442512 3.0518e-05
0.769314 0.00288396 3.0518e-05
0.797681 0.00141909 3.0518e-05
0.824994 0.000122072 3.0518e-05
0.851331 0 3.0518e-05
0.876677 0 3.0518e-05
0.901122 0 3.0518e-05
0.92462 0 3.0518e-05
0.947219 0 3.0518e-05
0.967529 0 3.0518e-05
0.0632639 0.0632639 0.0632639
0.0632639 0.0632639 0.0632639
0.0632639 0.0632639 0.0632639
0.0632639 0.0632639 0.0632639
0.0632639 0.0632639 0.0632639
0.0632639 0.0632639 0.0632639
0.0632639 0.0632639 0.0632639
0.127703 0.0517281 0.0505531
0.183062 0.0408637 0.0385443
0.225544 0.0344091 0.03122
0.264393 0.0304112 0.0265049
0.30222 0.0273289 0.0228733
0.339971 0.0246891 0.0197604
0.377981 0.0223545 0.0170748
0.416602 0.0201572 0.0147097
0.456031 0.0180972 0.0125734
0.496117 0.0162051 0.0105287
0.535698 0.0144198 0.00860609
0.573602 0.012665 0.00674449
0.609766 0.0109712 0.00491341
0.644312 0.00929274 0.00317388
0.677455 0.00759899 0.00143435
0.70927 0.00598154 0.000198367
0.739849 0.00442512 3.0518e-05
0.769314 0.00288396 3.0518e-05
0.797681 0.00141909 3.0518e-05
0.824994 0.000122072 3.0518e-05
0.851331 0 3.0518e-05
0.876677 0 3.0518e-05
0.901122 0 3.0518e-05
0.92462 0 3.0518e-05
0.947219 0 3.0518e-05
0.967529 0 3.0518e-05
0.0632639 0.0632639 0.0632639
0.0632639 0.0632639 0.0632639
0.0632639 0.0632639 0.0632639
0.0632639 0.0632639 0.0632639
0.0632639 0.0632639 0.0632639
0.0632639 0.0632639 0.0632639
0.0632639 0.0632639 0.0632639
0.127703 0.0517281 0.0505531
0.183062 0.0408637 0.0385443
0.225544 0.0344091 0.03122
0.264393 0.0304112 0.0265049
0.30222 0.0273289 0.0228733
0.339971 0.0246891 0.0197604
0.377981 0.0223545 0.0170748
0.416602 0.0201572 0.0147097
0.456031 0.0180972 0.0125734
0.496117 0.0162051 0.0105287
0.535698 0.0144198 0.00860609
0.573602 0.012665 0.00674449
0.609766 0.0109712 0.00491341
0.644312 0.00929274 0.00317388
0.677455 0.00759899 0.00143435
0.70927 0.00598154 0.000198367
0.739849 0.00442512 3.0518e-05
0.769314 0.00288396 3.0518e-05
0.797681 0.00141909 3.0518e-05
0.824994 0.000122072 3.0518e-05
0.851331 0 3.0518e-05
0.876677 0 3.0518e-05
0.901122 0 3.0518e-05
0.92462 0 3.0518e-05
0.947219 0 3.0518e-05
0.967529 0 3.0518e-05
0.0632639 0.0632639 0.0632639
0.0632639 0.0632639 0.0632639
0.0632639 0.0632639 0.0632639
0.0632639 0.0632639 0.0632639
0.0632639 0.0632639 0.0632639
0.0632639 0.0632639 0.0632639
0.0632639 0.0632639 0.0632639
0.127703 0.0517281 0.0505531
0.183062 0.0408637 0.0385443
0.225544 0.0344091 0.03122
0.264393 0.0304112 0.0265049
0.30222 0.0273289 0.0228733
0.339971 0.0246891 0.0197604
0.377981 0.0223545 0.0170748
0.416602 0.0201572 0.0147097
0.456031 0.0180972 0.0125734
0.496117 0.0162051 0.0105287
0.535698 0.0144198 0.00860609
0.573602 0.012665 0.00674449
0.609766 0.0109712 0.00491341
0.644312 0.00929274 0.00317388
0.677455 0.00759899 0.00143435
0.70927 0.00598154 0.000198367
0.739849 0.00442512 3.0518e-05
0.769314 0.00288396 3.0518e-05
0.797681 0.00141909 3.0518e-05
0.824994 0.000122072 3.0518e-05
0.851331 0 3.0518e-05
0.876677 0 3.0518e-05
0.901122 0 3.0518e-05
0.92462 0 3.0518e-05
0.947219 0 3.0518e-05
0.967529 0 3.0518e-05
0.0632639 0.0632639 0.0632639
0.0632639 0.0632639 0.0632639
0.0632639 0.0632639 0.0632639
0.0632639 0.0632639 0.0632639
0.0632639 0.0632639 0.0632639
0.0632639 0.0632639 0.0632639
0.0632639 0.0632639 0.0632639
0.127703 0.0517281 0.0505531
0.183062 0.0408637 0.0385443
0.225544 0.0344091 0.03122
0.264393 0.0304112 0.0265049
0.30222 0.0273289 0.0228733
0.339971 0.0246891 0.0197604
0.377981 0.0223545 0.0170748
0.416602 0.0201572 0.0147097
0.456031 0.0180972 0.0125734
0.496117 0.0162051 0.0105287
0.535698 0.0144198 0.00860609
0.573602 0.012665 0.00674449
0.609766 0.0109712 0.00491341
0.644312 0.00929274 0.00317388
0.677455 0.00759899 0.00143435
0.70927 0.00598154 0.000198367
0.739849 0.00442512 3.0518e-05
0.769314 0.00288396 3.0518e-05
0.797681 0.00141909 3.0518e-05
0.824994 0.000122072 3.0518e-05
0.851331 0 3.0518e-05
0.876677 0 3.0518e-05
0.901122 0 3.0518e-05
0.92462 0 3.0518e-05
0.947219 0 3.0518e-05
0.967529 0 3.0518e-05
0.0632639 0.0632639 0.0632639
0.0632639 0.0632639 0.0632639
0.0632639 0.0632639 0.0632639
0.0632639 0.0632639 0.0632639
0.0632639 0.0632639 0.0632639
0.0632639 0.0632639 0.0632639
0.0632639 0.0632639 0.0632639
0.127703 0.0517281 0.0505531
0.183062 0.0408637 0.0385443
0.225544 0.0344091 0.03122
0.264393 0.0304112 0.0265049
0.30222 0.0273289 0.0228733
0.339971 0.0246891 0.0197604
0.377981 0.0223545 0.0170748
0.416602 0.0201572 0.0147097
0.456031 0.0180972 0.0125734
0.496117 0.0162051 0.0105287
0.535698 0.0144198 0.00860609
0.573602 0.012665 0.00674449
0.609766 0.0109712 0.00491341
0.644312 0.00929274 0.00317388
0.677455 0.00759899 0.00143435
0.70927 0.00598154 0.000198367
0.739849 0.00442512 3.0518e-05
0.769314 0.00288396 3.0518e-05
0.797681 0.00141909 3.0518e-05
0.824994 0.000122072 3.0518e-05
0.851331 0 3.0518e-05
0.876677 0 3.0518e-05
0.901122 0 3.0518e-05
0.92462 0 3.0518e-05
0.947219 0 3.0518e-05
0.967529 0 3.0518e-05
0.045594 0.127947 0.046952
0.045594 0.127947 0.046952
0.0456855 0.127626 0.0470436
0.045594 0.127947 0.046952
0.045594 0.127947 0.046952
0.045594 0.127947 0.046952
0.0456855 0.127626 0.0470436
0.122759 0.125277 0.0428168
0.182498 0.118441 0.0359503
0.225254 0.112139 0.0300298
0.264134 0.107057 0.0254978
0.301991 0.10367 0.0218357
0.339742 0.100435 0.0187686
0.377768 0.0975052 0.0161288
0.416419 0.0944228 0.0138247
0.455863 0.092256 0.0117037
0.495949 0.0898299 0.00972
0.535531 0.0874952 0.00779736
0.573465 0.0848402 0.00593576
0.609644 0.082948 0.00415045
0.644221 0.0806897 0.00244144
0.677363 0.0784314 0.000915541
0.709194 0.0758984 6.10361e-05
0.739773 0.074052 3.0518e-05
0.769253 0.0718853 3.0518e-05
0.797635 0.069749 3.0518e-05
0.824933 0.067277 3.0518e-05
0.851286 0.0656901 3.0518e-05
0.876646 0.0638895 3.0518e-05
0.901091 0.0620432 3.0518e-05
0.92459 0.0598611 3.0518e-05
0.947188 0.05832 3.0518e-05
0.967498 0.0570993 3.0518e-05
0.0318761 0.183093 0.0344701
0.0318761 0.183093 0.0344701
0.0318761 0.183093 0.0344701
0.0318761 0.183093 0.0344701
0.0318761 0.183093 0.0344701
0.0318761 0.183093 0.0344701
0.0318761 0.183093 0.0344701
0.112352 0.18294 0.0320439
0.178378 0.181399 0.0298619
0.22446 0.177218 0.0261387
0.263874 0.172183 0.0234684
0.301717 0.167666 0.0206149
0.339513 0.163806 0.0176547
0.377554 0.160357 0.0150759
0.416236 0.157153 0.0128023
0.455665 0.154116 0.0107118
0.495766 0.151278 0.00874342
0.535363 0.148562 0.0068513
0.573312 0.145846 0.00500496
0.609522 0.14316 0.00325017
0.644099 0.140551 0.00157168
0.677256 0.137987 0.000335698
0.709102 0.135378 3.0518e-05
0.739696 0.13283 3.0518e-05
0.769177 0.130373 3.0518e-05
0.797574 0.127901 3.0518e-05
0.824903 0.125307 3.0518e-05
0.85124 0.12282 3.0518e-05
0.8766 0.120378 3.0518e-05
0.901045 0.117815 3.0518e-05
0.924544 0.115267 3.0518e-05
0.947143 0.112871 3.0518e-05
0.967483 0.111147 3.0518e-05
0.0248569 0.225269 0.0284276
0.0248569 0.225269 0.0284276
0.0248875 0.225101 0.0284428
0.0248569 0.225269 0.0284276
0.0248569 0.225269 0.0284276
0.0248569 0.225269 0.0284276
0.0248875 0.225101 0.0284428
0.104005 0.225162 0.0252232
0.170504 0.225025 0.0239719
0.220127 0.223957 0.0227359
0.262806 0.220966 0.0204776
0.301503 0.2168 0.0184024
0.339269 0.21239 0.0163424
0.377325 0.208499 0.0140078
0.416007 0.204715 0.0117647
0.455451 0.201556 0.00970474
0.495567 0.198413 0.00775158
0.53521 0.195346 0.00587472
0.573175 0.192172 0.0040589
0.609384 0.189456 0.00233463
0.643977 0.186557 0.000869764
0.677165 0.183749 7.62951e-05
0.70901 0.18085 3.0518e-05
0.73962 0.178256 3.0518e-05
0.769085 0.175525 3.0518e-05
0.797498 0.172854 3.0518e-05
0.824826 0.169924 3.0518e-05
0.851179 0.167452 3.0518e-05
0.876539 0.164721 3.0518e-05
0.900999 0.162066 3.0518e-05
0.924514 0.159289 3.0518e-05
0.947112 0.156847 3.0518e-05
0.967453 0.154849 3.0518e-05
0.0205692 0.263905 0.0248112
0.0205844 0.263752 0.0248264
0.0205692 0.263905 0.0248112
0.0205844 0.263752 0.0248264
0.0205692 0.263905 0.0248112
0.0205844 0.263752 0.0248264
0.0205692 0.263905 0.0248112
0.0981308 0.263645 0.0211337
0.163195 0.263691 0.0197299
0.213107 0.263432 0.0192721
0.258167 0.262898 0.018204
0.300114 0.260929 0.0162966
0.33904 0.257328 0.0144198
0.377096 0.252811 0.0126192
0.415778 0.249012 0.0106355
0.455222 0.245182 0.00865187
0.495369 0.241947 0.00669871
0.535027 0.238437 0.00482185
0.573022 0.23537 0.00303655
0.609247 0.232044 0.00135805
0.643839 0.229084 0.000228885
0.677043 0.225895 3.0518e-05
0.708919 0.223133 3.0518e-05
0.739528 0.22002 3.0518e-05
0.769009 0.217288 3.0518e-05
0.797421 0.214237 3.0518e-05
0.824765 0.211566 3.0518e-05
0.851118 0.208576 3.0518e-05
0.876478 0.205859 3.0518e-05
0.900954 0.202823 3.0518e-05
0.924453 0.200107 3.0518e-05
0.947051 0.197238 3.0518e-05
0.967391 0.195148 3.0518e-05
0.0171664 0.301564 0.0217441
0.0171664 0.301564 0.0217441
0.0171817 0.301411 0.0217594
0.0171664 0.301564 0.0217441
0.0171664 0.301564 0.0217441
0.0171664 0.301564 0.0217441
0.0171817 0.301411 0.0217594
0.0932937 0.301488 0.0178073
0.15729 0.301381 0.0163729
0.206332 0.301259 0.0159304
0.25156 0.300999 0.0154879
0.295186 0.300832 0.0144961
0.337362 0.299779 0.0127108
0.376852 0.296468 0.0108644
0.415534 0.291997 0.00917067
0.454994 0.288228 0.00741588
0.495155 0.284504 0.00555428
0.534844 0.280919 0.00370794
0.572839 0.277256 0.00196841
0.609094 0.274052 0.000579843
0.643717 0.27071 1.5259e-05
0.676921 0.267506 3.0518e-05
0.708797 0.264256 3.0518e-05
0.739422 0.261311 3.0518e-05
0.768917 0.258167 3.0518e-05
0.797345 0.2551 3.0518e-05
0.824689 0.251957 3.0518e-05
0.851041 0.249149 3.0518e-05
0.876448 0.246082 3.0518e-05
0.900908 0.243046 3.0518e-05
0.924392 0.239872 3.0518e-05
0.947021 0.237064 3.0518e-05
0.967361 0.234699 3.0518e-05
0.0140993 0.339162 0.0189212
0.0140993 0.339162 0.0189212
0.0140993 0.339162 0.0189212
0.0140993 0.339162 0.0189212
0.0140993 0.339162 0.0189212
0.0140993 0.339162 0.0189212
0.0140993 0.339162 0.0189212
0.0890364 0.339071 0.0148013
0.152148 0.338994 0.0133516
0.200534 0.338872 0.0129397
0.245136 0.338796 0.0124971
0.28867 0.338674 0.0120241
0.332097 0.338659 0.0110475
0.374868 0.338201 0.00933852
0.41529 0.335302 0.00753796
0.454765 0.33106 0.00588998
0.494942 0.327062 0.00421149
0.53463 0.323262 0.00248722
0.572656 0.31957 0.000976577
0.608942 0.315969 0.000122072
0.643565 0.312474 0
0.676783 0.309087 1.5259e-05
0.708659 0.305715 3.0518e-05
0.739315 0.302403 3.0518e-05
0.768826 0.299107 3.0518e-05
0.797253 0.295933 3.0518e-05
0.824598 0.292729 3.0518e-05
0.850965 0.289631 3.0518e-05
0.876371 0.286381 3.0518e-05
0.900847 0.283207 3.0518e-05
0.924346 0.280125 3.0518e-05
0.946975 0.276905 3.0518e-05
0.967315 0.274449 3.0518e-05
0.0112154 0.377035 0.0162966
0.0112154 0.377035 0.0162966
0.0112306 0.376883 0.0163119
0.0112154 0.377035 0.0162966
0.0112154 0.377035 0.0162966
0.0112154 0.377035 0.0162966
0.0112306 0.376883 0.0163119
0.0850385 0.376944 0.0120089
0.147402 0.376867 0.0105135
0.19527 0.376791 0.0101015
0.239399 0.376547 0.00967422
0.282445 0.376593 0.00921645
0.32549 0.376486 0.0087129
0.369192 0.376791 0.00776684
0.413001 0.376699 0.00610361
0.45452 0.374319 0.00430304
0.494697 0.370062 0.00271611
0.534401 0.366033 0.00122072
0.572457 0.361944 0.000259403
0.608759 0.358358 0
0.643412 0.354696 0
0.676646 0.351125 0
0.708537 0.347387 1.5259e-05
0.739193 0.34403 3.0518e-05
0.768719 0.340551 3.0518e-05
0.797147 0.337255 3.0518e-05
0.824506 0.33373 3.0518e-05
0.850889 0.330495 3.0518e-05
0.87628 0.327138 3.0518e-05
0.900771 0.323857 3.0518e-05
0.924269 0.320531 3.0518e-05
0.946914 0.317403 3.0518e-05
0.967269 0.314626 3.0518e-05
0.00843824 0.415534 0.0137026
0.0084535 0.415381 0.0137179
0.00843824 0.415534 0.0137026
0.0084535 0.415381 0.0137179
0.00843824 0.415534 0.0137026
0.0084535 0.415381 0.0137179
0.00843824 0.415534 0.0137026
0.0812543 0.415305 0.009308
0.142947 0.415381 0.00776684
0.190387 0.415152 0.00738537
0.234028 0.415229 0.00695811
0.276738 0.414984 0.0065156
0.319356 0.415045 0.00601205
0.362463 0.414771 0.00549325
0.406912 0.415518 0.00451667
0.451896 0.415946 0.00289921
0.494438 0.413947 0.0012665
0.534173 0.409461 0.00030518
0.572244 0.405524 0
0.608576 0.401419 0
0.643244 0.397711 0
0.676493 0.393713 0
0.708385 0.390188 0
0.739055 0.386328 1.5259e-05
0.768597 0.382895 3.0518e-05
0.79704 0.379248 3.0518e-05
0.824414 0.37586 3.0518e-05
0.850828 0.372137 3.0518e-05
0.876219 0.368902 3.0518e-05
0.900694 0.36527 3.0518e-05
0.924193 0.361975 3.0518e-05
0.946868 0.35848 3.0518e-05
0.967208 0.355581 3.0518e-05
0.00570687 0.454795 0.0111238
0.00570687 0.454795 0.0111238
0.00572213 0.454643 0.0111238
0.00570687 0.454795 0.0111238
0.00570687 0.454795 0.0111238
0.00570687 0.454795 0.0111238
0.00572213 0.454643 0.0111238
0.0775616 0.454749 0.00660716
0.138659 0.454688 0.005066
0.185733 0.454597 0.00468452
0.229053 0.454368 0.00428779
0.271351 0.454444 0.00384527
0.313664 0.454337 0.00337224
0.35639 0.454246 0.00285344
0.4 0.453971 0.00231937
0.44538 0.455039 0.00134279
0.491493 0.456138 0.000366217
0.533928 0.454261 0
0.57203 0.449714 0
0.608362 0.445731 0
0.643061 0.441688 0
0.67631 0.437705 0
0.708232 0.433646 0
0.738933 0.429984 0
0.768475 0.426246 1.5259e-05
0.796933 0.422583 3.0518e-05
0.824292 0.418647 3.0518e-05
0.850736 0.415183 3.0518e-05
0.876127 0.411582 3.0518e-05
0.900603 0.40795 3.0518e-05
0.924132 0.404135 3.0518e-05
0.946807 0.400839 3.0518e-05
0.967132 0.397528 3.0518e-05
0.00300603 0.494804 0.00860609
0.00300603 0.494804 0.00860609
0.00300603 0.494804 0.00860609
0.00300603 0.494804 0.00860609
0.00300603 0.494804 0.00860609
0.00300603 0.494804 0.00860609
0.00300603 0.494804 0.00860609
0.07393 0.494774 0.00395209
0.134524 0.494697 0.00239567
0.181292 0.494606 0.00202945
0.224292 0.49453 0.00164797
0.266255 0.494453 0.00131228
0.308248 0.494362 0.00105287
0.350668 0.494285 0.000808728
0.393942 0.494179 0.000534066
0.438209 0.494057 0.000244144
0.484596 0.495247 6.10361e-05
0.530755 0.496803 0
0.571771 0.495171 0
0.608148 0.490867 0
0.642863 0.486717 0
0.676127 0.482597 0
0.708064 0.478569 0
0.738766 0.474571 0
0.768322 0.470588 0
0.796796 0.466773 1.5259e-05
0.824186 0.462928 3.0518e-05
0.850614 0.459098 3.0518e-05
0.876036 0.455314 3.0518e-05
0.900526 0.451484 3.0518e-05
0.924056 0.447898 3.0518e-05
0.946715 0.444129 3.0518e-05
0.967071 0.440528 3.0518e-05
0.000854505 0.53434 0.00605783
0.000854505 0.53434 0.00605783
0.000869764 0.534173 0.00607309
0.000854505 0.53434 0.00605783
0.000854505 0.53434 0.00605783
0.000854505 0.53434 0.00605783
0.000869764 0.534173 0.00607309
0.0704356 0.53431 0.0018616
0.130465 0.534234 0.000549325
0.176883 0.534173 0.000366217
0.219623 0.533928 0.000167849
0.261295 0.534005 3.0518e-05
0.302998 0.533928 0
0.345144 0.533852 0
0.388159 0.533608 0
0.43212 0.533654 0
0.477165 0.533532 0
0.523583 0.534966 0
0.568582 0.536767 0
0.607889 0.535576 0
0.642634 0.531441 0
0.675944 0.527367 0
0.707881 0.523156 0
0.738598 0.519341 0
0.768185 0.515312 0
0.796658 0.511452 0
0.824063 0.507454 1.5259e-05
0.850507 0.503731 1.5259e-05
0.875929 0.499947 3.0518e-05
0.90042 0.496086 3.0518e-05
0.923964 0.49218 3.0518e-05
0.946624 0.488609 3.0518e-05
0.96701 0.484565 3.0518e-05
0 0.572213 0.00344854
0 0.572076 0.0034638
0 0.572213 0.00344854
0 0.572076 0.0034638
0 0.572213 0.00344854
0 0.572076 0.0034638
0 0.572213 0.00344854
0.0672465 0.572045 0.000762951
0.126421 0.572137 0
0.17261 0.571939 0
0.21503 0.572015 0
0.256474 0.571786 0
0.297887 0.571878 0
0.339803 0.571649 0
0.382544 0.571725 0
0.42623 0.571496 0
0.471 0.571527 0
0.516167 0.571252 0
0.561334 0.572931 0
0.604685 0.575143 0
0.64239 0.574228 0
0.675715 0.570169 0
0.707683 0.566461 0
0.73843 0.562478 0
0.768017 0.558846 0
0.796506 0.554879 0
0.823926 0.551354 0
0.850385 0.547448 0
0.875807 0.543923 1.5259e-05
0.900313 0.540047 3.0518e-05
0.923873 0.536446 3.0518e-05
0.946548 0.532692 3.0518e-05
0.966934 0.528695 3.0518e-05
0 0.608377 0.00114443
0 0.608377 0.00114443
0 0.60824 0.00114443
0 0.608377 0.00114443
0 0.608377 0.00114443
0 0.608377 0.00114443
0 0.60824 0.00114443
0.0641794 0.608347 0.000244144
0.122377 0.608316 0
0.168368 0.608255 0
0.210559 0.608057 0
0.251713 0.608148 0
0.292912 0.608072 0
0.3346 0.608011 0
0.377142 0.607782 0
0.420508 0.607858 0
0.465034 0.607767 0
0.51014 0.60766 0
0.554116 0.607401 0
0.59736 0.609201 0
0.6392 0.611933 0
0.675486 0.611032 0
0.707485 0.607217 0
0.738231 0.603708 0
0.767849 0.600076 0
0.796368 0.596429 0
0.823789 0.592752 0
0.850248 0.589364 0
0.875669 0.585794 0
0.900206 0.582238 1.5259e-05
0.923766 0.5785 3.0518e-05
0.946456 0.575174 3.0518e-05
0.966857 0.57116 3.0518e-05
0 0.642908 0
0 0.642908 0
0 0.642908 0
0 0.642908 0
0 0.642908 0
0 0.642908 0
0 0.642908 0
0.0610971 0.642878 0
0.118364 0.642832 0
0.164111 0.642786 0
0.206058 0.642741 0
0.246998 0.64271 0
0.288014 0.642649 0
0.329488 0.642573 0
0.37174 0.642512 0
0.414939 0.642435 0
0.459251 0.642359 0
0.50428 0.642283 0
0.548379 0.642176 0
0.590326 0.642084 0
0.631769 0.643778 0
0.672343 0.646967 0
0.707256 0.646296 0
0.738033 0.642695 0
0.767666 0.63917 0
0.796201 0.635752 0
0.823636 0.632395 0
0.850111 0.628946 0
0.875532 0.625422 0
0.900084 0.622126 0
0.923659 0.618631 1.5259e-05
0.946365 0.615366 3.0518e-05
0.966766 0.611276 3.0518e-05
0 0.676036 0
0 0.676036 0
0 0.675914 0
0 0.676036 0
0 0.676036 0
0 0.676036 0
0 0.675914 0
0.0579385 0.676005 0
0.114305 0.67599 0
0.159899 0.675929 0
0.201648 0.675746 0
0.24239 0.675853 0
0.283192 0.675807 0
0.324437 0.675746 0
0.36643 0.675563 0
0.409415 0.675624 0
0.453529 0.675547 0
0.498466 0.675471 0
0.542779 0.675258 0
0.584924 0.675288 0
0.62501 0.675196 0
0.664759 0.676966 0
0.704234 0.68043 0
0.737819 0.679927 0
0.767468 0.67657 0
0.796017 0.673274 0
0.823453 0.66981 0
0.849958 0.666667 0
0.875425 0.663294 0
0.899977 0.660121 0
0.923552 0.656611 0
0.946258 0.653513 1.5259e-05
0.966659 0.649546 3.0518e-05
0 0.707835 0
0 0.707698 0
0 0.707835 0
0 0.707698 0
0 0.707835 0
0 0.707698 0
0 0.707835 0
0.0547646 0.707683 0
0.110185 0.707774 0
0.155764 0.707622 0
0.197299 0.707713 0
0.237903 0.707561 0
0.278401 0.707652 0
0.319432 0.707469 0
0.361196 0.70753 0
0.404028 0.707347 0
0.447883 0.707408 0
0.492729 0.707225 0
0.537148 0.707256 0
0.579644 0.707057 0
0.619898 0.707103 0
0.658213 0.706874 0
0.696391 0.708751 0
0.734905 0.712688 0
0.767269 0.71223 0
0.795834 0.708904 0
0.823285 0.705898 0
0.849805 0.702617 0
0.875288 0.699458 0
0.899825 0.696239 0
0.92343 0.693233 0
0.94612 0.689845 0
0.966522 0.686183 1.5259e-05
0 0.73843 0
0 0.73843 0
0 0.738308 0
0 0.73843 0
0 0.73843 0
0 0.73843 0
0 0.738308 0
0.051545 0.738415 0
0.106081 0.738384 0
0.151568 0.738354 0
0.192981 0.738201 0
0.233341 0.738293 0
0.27364 0.738262 0
0.314443 0.738216 0
0.356054 0.738018 0
0.398611 0.738094 0
0.442283 0.738048 0
0.486992 0.737987 0
0.531594 0.737789 0
0.574273 0.737819 0
0.614755 0.737743 0
0.6533 0.737667 0
0.690105 0.737484 0
0.726833 0.7393 0
0.764477 0.743816 0
0.795636 0.743282 0
0.823102 0.740093 0
0.849638 0.737224 0
0.87512 0.734112 0
0.899672 0.730999 0
0.923308 0.727962 0
0.946029 0.725017 0
0.96643 0.721172 0
0 0.767895 0
0 0.767895 0
0 0.767895 0
0 0.767895 0
0 0.767895 0
0 0.767895 0
0 0.767895 0
0.048249 0.767865 0
0.102007 0.767849 0
0.147387 0.767834 0
0.188647 0.767803 0
0.228779 0.767758 0
0.26891 0.767712 0
0.309453 0.767681 0
0.350881 0.76762 0
0.393286 0.767575 0
0.436698 0.767529 0
0.481239 0.767468 0
0.525933 0.767407 0
0.568917 0.767346 0
0.609583 0.767269 0
0.648402 0.767208 0
0.685405 0.767117 0
0.72076 0.767056 0
0.756085 0.768643 0
0.793027 0.773617 0
0.822919 0.773098 0
0.849454 0.770199 0
0.874968 0.767239 0
0.899535 0.764279 0
0.923156 0.761532 0
0.945907 0.758602 0
0.966308 0.754742 0
0 0.796277 0
0 0.796277 0
0 0.79617 0
0 0.796277 0
0 0.796277 0
0 0.796277 0
0 0.79617 0
0.0448005 0.796262 0
0.0977951 0.796231 0
0.143191 0.796201 0
0.184314 0.796063 0
0.224262 0.796139 0
0.26424 0.796109 0
0.304662 0.796078 0
0.345922 0.795926 0
0.388113 0.795987 0
0.431327 0.795941 0
0.475639 0.795895 0
0.520333 0.795712 0
0.563546 0.795773 0
0.604517 0.795712 0
0.643565 0.795651 0
0.680766 0.795468 0
0.716289 0.795499 0
0.750195 0.795422 0
0.784283 0.796933 0
0.820539 0.80238 0
0.849271 0.801846 0
0.874815 0.798932 0
0.899382 0.796201 0
0.923018 0.793362 0
0.945754 0.790661 0
0.966186 0.786816 0
0 0.823575 0
0 0.823468 0
0 0.823575 0
0 0.823468 0
0 0.823575 0
0 0.823468 0
0 0.823575 0
0.0412451 0.823453 0
0.0934768 0.823529 0
0.138918 0.823392 0
0.17995 0.823499 0
0.219806 0.823377 0
0.259571 0.823438 0
0.29984 0.823285 0
0.340795 0.823362 0
0.382803 0.823209 0
0.425895 0.82327 0
0.470146 0.823117 0
0.514778 0.823178 0
0.558328 0.823011 0
0.599542 0.823056 0
0.638697 0.822919 0
0.676097 0.82295 0
0.711864 0.822766 0
0.745983 0.822812 0
0.778744 0.822614 0
0.811399 0.824079 0
0.84712 0.830091 0
0.874617 0.829404 0
0.899229 0.826627 0
0.922881 0.824033 0
0.945602 0.82121 0
0.966064 0.817472 0
0 0.849912 0
0 0.849912 0
0 0.849805 0
0 0.849912 0
0 0.849912 0
0 0.849912 0
0 0.849805 0
0.0374456 0.849912 0
0.0891127 0.849882 0
