public/luts/Wenders.cube
TITLE "Generated by Resolve"
LUT_3D_SIZE 9
0.0632639 0.0632639 0.0632639
0.0632639 0.0632639 0.0632639
0.183062 0.0408637 0.0385443
0.339971 0.0246891 0.0197604
0.496117 0.0162051 0.0105287
0.644312 0.00929274 0.00317388
0.769314 0.00288396 3.0518e-05
0.876677 0 3.0518e-05
0.967529 0 3.0518e-05
0.0632639 0.0632639 0.0632639
0.0632639 0.0632639 0.0632639
0.183062 0.0408637 0.0385443
0.339971 0.0246891 0.0197604
0.496117 0.0162051 0.0105287
0.644312 0.00929274 0.00317388
0.769314 0.00288396 3.0518e-05
0.876677 0 3.0518e-05
0.967529 0 3.0518e-05
0.0318761 0.183093 0.0344701
0.0318761 0.183093 0.0344701
0.178378 0.181399 0.0298619
0.339513 0.163806 0.0176547
0.495766 0.151278 0.00874342
0.644099 0.140551 0.00157168
0.769177 0.130373 3.0518e-05
0.8766 0.120378 3.0518e-05
0.967483 0.111147 3.0518e-05
0.0140993 0.339162 0.0189212
0.0140993 0.339162 0.0189212
0.152148 0.338994 0.0133516
0.332097 0.338659 0.0110475
0.494942 0.327062 0.00421149
0.643565 0.312474 0
0.768826 0.299107 3.0518e-05
0.876371 0.286381 3.0518e-05
0.967315 0.274449 3.0518e-05
0.00300603 0.494804 0.00860609
0.00300603 0.494804 0.00860609
0.134524 0.494697 0.00239567
0.308248 0.494362 0.00105287
0.484596 0.495247 6.10361e-05
0.642863 0.486717 0
0.768322 0.470588 0
0.876036 0.455314 3.0518e-05
0.967071 0.440528 3.0518e-05
0 0.642908 0
0 0.642908 0
0.118364 0.642832 0
0.288014 0.642649 0
0.459251 0.642359 0
0.631769 0.643778 0
0.767666 0.63917 0
0.875532 0.625422 0
0.966766 0.611276 3.0518e-05
0 0.767895 0
0 0.767895 0
0.102007 0.767849 0
0.26891 0.767712 0
0.436698 0.767529 0
0.609583 0.767269 0
0.756085 0.768643 0
0.874968 0.767239 0
0.966308 0.754742 0
0 0.875288 0
0 0.875288 0
0.0847028 0.875257 0
0.250217 0.875166 0
0.415061 0.875059 0
0.589166 0.874876 0
0.737362 0.874632 0
0.862684 0.875425 0
0.965805 0.875471 0
0 0.966186 0
0 0.966186 0
0.0661326 0.966155 0
0.232181 0.96611 0
0.393942 0.966018 0
0.568063 0.965896 0
0.719249 0.965743 0
0.845823 0.965545 0
0.952789 0.96527 0
0.0632639 0.0632639 0.0632639
0.0632639 0.0632639 0.0632639
0.183062 0.0408637 0.0385443
0.339971 0.0246891 0.0197604
0.496117 0.0162051 0.0105287
0.644312 0.00929274 0.00317388
0.769314 0.00288396 3.0518e-05
0.876677 0 3.0518e-05
0.967529 0 3.0518e-05
0.0632639 0.0632639 0.0632639
0.0632639 0.0632639 0.0632639
0.183062 0.0408637 0.0385443
0.339971 0.0246891 0.0197604
0.496117 0.0162051 0.0105287
0.644312 0.00929274 0.00317388
0.769314 0.00288396 3.0518e-05
0.876677 0 3.0518e-05
0.967529 0 3.0518e-05
0.0318761 0.183093 0.0344701
0.0318761 0.183093 0.0344701
0.178378 0.181399 0.0298619
0.339513 0.163806 0.0176547
0.495766 0.151278 0.00874342
0.644099 0.140551 0.00157168
0.769177 0.130373 3.0518e-05
0.8766 0.120378 3.0518e-05
0.967483 0.111147 3.0518e-05
0.0140993 0.339162 0.0189212
0.0140993 0.339162 0.0189212
0.152148 0.338994 0.0133516
0.332097 0.338659 0.0110475
0.494942 0.327062 0.00421149
0.643565 0.312474 0
0.768826 0.299107 3.0518e-05
0.876371 0.286381 3.0518e-05
0.967315 0.274449 3.0518e-05
0.00300603 0.494804 0.00860609
0.00300603 0.494804 0.00860609
0.134524 0.494697 0.00239567
0.308248 0.494362 0.00105287
0.484596 0.495247 6.10361e-05
0.642863 0.486717 0
0.768322 0.470588 0
0.876036 0.455314 3.0518e-05
0.967071 0.440528 3.0518e-05
0 0.642908 0
0 0.642908 0
0.118364 0.642832 0
0.288014 0.642649 0
0.459251 0.642359 0
0.631769 0.643778 0
0.767666 0.63917 0
0.875532 0.625422 0
0.966766 0.611276 3.0518e-05
0 0.767895 0
0 0.767895 0
0.102007 0.767849 0
0.26891 0.767712 0
0.436698 0.767529 0
0.609583 0.767269 0
0.756085 0.768643 0
0.874968 0.767239 0
0.966308 0.754742 0
0 0.875288 0
0 0.875288 0
0.0847028 0.875257 0
0.250217 0.875166 0
0.415061 0.875059 0
0.589166 0.874876 0
0.737362 0.874632 0
0.862684 0.875425 0
0.965805 0.875471 0
0 0.966186 0
0 0.966186 0
0.0661326 0.966155 0
0.232181 0.96611 0
0.393942 0.966018 0
0.568063 0.965896 0
0.719249 0.965743 0
0.845823 0.965545 0
0.952789 0.96527 0
0.0365454 0.0340276 0.183841
0.0365454 0.0340276 0.183841
0.181994 0.0318303 0.179294
0.339986 0.0193027 0.154131
0.496132 0.0104829 0.137743
0.644343 0.00317388 0.123415
0.769314 0 0.109819
0.876677 0 0.0965438
0.967529 0 0.0840162
0.0365454 0.0340276 0.183841
0.0365454 0.0340276 0.183841
0.181994 0.0318303 0.179294
0.339986 0.0193027 0.154131
0.496132 0.0104829 0.137743
0.644343 0.00317388 0.123415
0.769314 0 0.109819
0.876677 0 0.0965438
0.967529 0 0.0840162
0.0299382 0.17879 0.181582
0.0299382 0.17879 0.181582
0.161913 0.162799 0.162722
0.327916 0.132815 0.129671
0.481697 0.110246 0.104479
0.630121 0.0949874 0.0868391
0.755825 0.0830396 0.0726329
0.864179 0.072282 0.0594644
0.957687 0.0615091 0.0462959
0.0140993 0.339162 0.162783
0.0140993 0.339162 0.162783
0.111498 0.329107 0.115236
0.321569 0.325658 0.105013
0.47985 0.299947 0.0997635
0.628611 0.279286 0.0818494
0.754498 0.263371 0.0673838
0.86302 0.24979 0.0541543
0.956649 0.237476 0.0410315
0.00300603 0.494804 0.149172
0.00300603 0.494804 0.149172
0.0910201 0.481361 0.0972763
0.282933 0.48014 0.085771
0.471565 0.479179 0.0835889
0.627955 0.458824 0.0762798
0.753994 0.438346 0.0639353
0.862654 0.421088 0.0503395
0.956405 0.40557 0.0370642
0 0.642908 0.136767
0 0.642908 0.136767
0.0750744 0.629068 0.0838331
0.257023 0.627939 0.0700694
0.436896 0.627634 0.0687266
0.618463 0.627894 0.0661173
0.753399 0.615442 0.0560159
0.862181 0.598459 0.0449836
0.956069 0.582742 0.0314336
0 0.767895 0.124254
0 0.767895 0.124254
0.059266 0.754528 0.0706645
0.236133 0.75346 0.0544289
0.409903 0.753262 0.0529183
0.590646 0.753002 0.0508125
0.743404 0.753704 0.0474556
0.861616 0.747066 0.0353246
0.955642 0.733333 0.0254368
0 0.875288 0.111147
0 0.875288 0.111147
0.0417029 0.862821 0.0562448
0.217014 0.861784 0.0370184
0.386557 0.861677 0.035462
0.566583 0.861479 0.0333257
0.721523 0.86125 0.0307927
0.850965 0.861738 0.0277409
0.955093 0.859236 0.0153048
0 0.966186 0.0978714
0 0.966186 0.0978714
0.0245212 0.956313 0.0424964
0.198566 0.955383 0.0199741
0.364813 0.955306 0.0185702
0.543603 0.955184 0.016556
0.701915 0.955001 0.0138399
0.833326 0.954803 0.010544
0.943725 0.954559 0.00663767
0.0257877 0.0208896 0.340673
0.0257877 0.0208896 0.340673
0.164813 0.0200198 0.340459
0.340169 0.0177462 0.333608
0.496132 0.0103151 0.310582
0.644343 0.00311284 0.291356
0.769314 0 0.273671
0.876677 0 0.256733
0.967529 0 0.240894
0.0257877 0.0208896 0.340673
0.0257877 0.0208896 0.340673
0.164813 0.0200198 0.340459
0.340169 0.0177462 0.333608
0.496132 0.0103151 0.310582
0.644343 0.00311284 0.291356
0.769314 0 0.273671
0.876677 0 0.256733
0.967529 0 0.240894
0.0189517 0.154162 0.340246
0.0189517 0.154162 0.340246
0.11751 0.113771 0.330297
0.32668 0.10898 0.322957
0.481102 0.0977188 0.287236
0.629221 0.0827039 0.262409
0.754879 0.0692912 0.242329
0.863264 0.0565805 0.224598
0.956817 0.0437018 0.208209
0.0138399 0.332738 0.339315
0.0138552 0.332738 0.339315
0.10573 0.322118 0.326131
0.294209 0.296254 0.296178
0.461952 0.267796 0.26482
0.614435 0.235065 0.228992
0.741543 0.208774 0.199924
0.850416 0.188266 0.176761
0.944656 0.17171 0.157641
0.00300603 0.494804 0.326818
0.00300603 0.494804 0.326818
0.0867018 0.480476 0.296361
0.231937 0.465339 0.235981
0.455848 0.460197 0.225483
0.612802 0.426368 0.225895
0.740291 0.396063 0.197559
0.849409 0.37174 0.174228
0.94374 0.352041 0.155093
0 0.642908 0.311162
0 0.642908 0.311162
0.0709697 0.628122 0.27512
0.19823 0.615503 0.205188
0.40061 0.61445 0.194156
0.606165 0.612833 0.191669
0.739925 0.586603 0.187304
0.848905 0.562036 0.171862
0.94342 0.540291 0.152651
0 0.767895 0.296437
0 0.767895 0.296437
0.0554055 0.753567 0.258686
0.174975 0.741176 0.184665
0.363058 0.740322 0.171298
0.564141 0.740017 0.170275
0.731807 0.739712 0.168093
0.848508 0.722881 0.157717
0.942962 0.704555 0.149264
0 0.875288 0.282032
0 0.875288 0.282032
0.0380255 0.861891 0.243977
0.155642 0.849424 0.168017
0.334524 0.84863 0.152453
0.530144 0.848447 0.151446
0.701213 0.848188 0.150118
0.839551 0.848264 0.148013
0.942473 0.838315 0.135119
0 0.966186 0.268055
0 0.966186 0.268055
0.0207523 0.955444 0.229847
0.137774 0.94342 0.15288
0.310384 0.942672 0.135058
0.501076 0.94255 0.13402
0.675547 0.942367 0.132723
0.816205 0.942153 0.130999
0.932815 0.941878 0.128847
0.0207523 0.0149081 0.497032
0.0207523 0.0149081 0.497032
0.153307 0.0141451 0.496895
0.329046 0.0123445 0.496559
0.497475 0.00975052 0.486839
0.644343 0.00308232 0.462303
0.769314 0 0.440833
0.876677 0 0.420493
0.967529 0 0.400961
0.0207523 0.0149081 0.497032
0.0207523 0.0149081 0.497032
0.153307 0.0141451 0.496895
0.329046 0.0123445 0.496559
0.497475 0.00975052 0.486839
0.644343 0.00308232 0.462303
0.769314 0 0.440833
0.876677 0 0.420493
0.967529 0 0.400961
0.0132906 0.138872 0.496742
0.0132906 0.138872 0.496742
0.102388 0.0963149 0.48336
0.298528 0.0912032 0.482124
0.481147 0.0898909 0.47361
0.629328 0.080415 0.440253
0.75491 0.0684215 0.414466
0.863264 0.0562295 0.39234
0.956817 0.0435187 0.372061
0.00914015 0.310338 0.495964
0.00914015 0.310338 0.495964
0.0899977 0.284977 0.481697
0.23798 0.233967 0.466743
0.461173 0.230869 0.45771
0.614496 0.217746 0.410651
0.741054 0.19472 0.375952
0.849821 0.173938 0.347417
0.944015 0.155917 0.323171
0.00300603 0.485573 0.496193
0.00300603 0.485573 0.496193
0.0859541 0.47245 0.480018
0.225864 0.456489 0.460731
0.42472 0.427482 0.427436
0.596719 0.399161 0.396063
0.728618 0.361959 0.355367
0.839261 0.328237 0.318547
0.934157 0.300084 0.287434
0 0.642908 0.486809
0 0.642908 0.486809
0.0709697 0.628122 0.458122
0.194903 0.614771 0.415381
0.355932 0.600504 0.360311
0.591501 0.595529 0.34934
0.727123 0.562661 0.352193
0.838056 0.529137 0.317372
0.93315 0.498619 0.286183
0 0.767895 0.469596
0 0.767895 0.469596
0.0554055 0.753567 0.436271
0.172 0.74052 0.383322
0.310979 0.730205 0.3187
0.531868 0.729152 0.307591
0.72195 0.727733 0.304982
0.837858 0.701518 0.300984
0.932692 0.67805 0.28397
0 0.875288 0.452964
0 0.875288 0.452964
0.0380255 0.861891 0.417914
0.153109 0.848753 0.360037
0.279393 0.839185 0.290166
0.485679 0.838346 0.276432
0.680247 0.838087 0.275456
0.830747 0.837674 0.273533
0.932357 0.819425 0.260243
0 0.966186 0.436622
0 0.966186 0.436622
0.0207523 0.955444 0.401007
0.135698 0.942763 0.340993
0.254047 0.933242 0.267765
0.449332 0.932494 0.251621
0.646143 0.932326 0.250645
0.799817 0.932082 0.24947
0.924224 0.931807 0.247974
0.0167697 0.0105592 0.645274
0.0167697 0.0105592 0.645274
0.143771 0.00988785 0.645182
0.315129 0.00819409 0.644968
0.489464 0.00582895 0.644663
0.646128 0.00274662 0.634195
0.769314 0 0.612802
0.876677 0 0.593393
0.967529 0 0.573571
0.0167697 0.0105592 0.645274
0.0167697 0.0105592 0.645274
0.143771 0.00988785 0.645182
0.315129 0.00819409 0.644968
0.489464 0.00582895 0.644663
0.646128 0.00274662 0.634195
0.769314 0 0.612802
0.876677 0 0.593393
0.967529 0 0.573571
0.00918593 0.125978 0.645106
0.00918593 0.125978 0.645106
0.092958 0.0846876 0.631327
0.279149 0.0799268 0.630167
0.460731 0.0786297 0.629862
0.630137 0.0766918 0.620783
0.754925 0.0672465 0.593927
0.863264 0.0557259 0.571008
0.956817 0.0433051 0.549401
0.0053254 0.291951 0.644617
0.0053254 0.291951 0.644617
0.0787823 0.261051 0.629908
0.209537 0.202655 0.617441
0.417853 0.198611 0.616373
0.614664 0.198108 0.608164
0.74136 0.187518 0.569116
0.849882 0.170733 0.537621
0.94403 0.15436 0.509957
0.000381476 0.461692 0.643915
0.000381476 0.461692 0.643915
0.075639 0.439277 0.62916
0.197574 0.402914 0.615915
0.362387 0.358007 0.601816
0.59646 0.35555 0.593286
0.728878 0.34023 0.545846
0.838834 0.311406 0.506279
0.933577 0.28397 0.470817
0 0.632837 0.644785
0 0.632822 0.644755
0.0706035 0.619455 0.62887
0.193606 0.607019 0.613672
0.34992 0.592081 0.596033
0.561807 0.564523 0.564508
0.71252 0.538659 0.535714
0.827207 0.500587 0.493767
0.923858 0.462135 0.451652
0 0.767895 0.639475
0 0.767895 0.639475
0.0554055 0.753582 0.615549
0.172 0.74052 0.584009
0.308339 0.729458 0.547112
0.494469 0.715831 0.498955
0.708812 0.712154 0.489052
0.825895 0.683955 0.490608
0.922759 0.654307 0.45127
0 0.875288 0.624842
0 0.875288 0.624842
0.0380102 0.861891 0.597421
0.153109 0.848753 0.556512
0.277134 0.83856 0.507836
0.440635 0.828656 0.448981
0.655589 0.82768 0.438315
0.821775 0.82678 0.436133
0.92256 0.802121 0.429267
0 0.966186 0.609598
0 0.966186 0.609598
0.0207523 0.955444 0.580575
0.135698 0.942763 0.533989
0.252293 0.932631 0.477897
0.40058 0.923629 0.412268
0.611582 0.922881 0.398749
0.782483 0.922606 0.397757
0.916335 0.922332 0.396582
0.0138094 0.00675975 0.770291
0.0138094 0.00675975 0.770291
0.135134 0.00613413 0.770245
0.302647 0.00451667 0.770077
0.474052 0.00228885 0.769879
0.641978 0 0.769619
0.770993 0 0.758526
0.876677 0 0.74049
0.967529 0 0.723201
0.0138094 0.00675975 0.770291
0.0138094 0.00675975 0.770291
0.135134 0.00613413 0.770245
0.302647 0.00451667 0.770077
0.474052 0.00228885 0.769879
0.641978 0 0.769619
0.770993 0 0.758526
0.876677 0 0.74049
0.967529 0 0.723201
0.00553903 0.114229 0.770169
0.00553903 0.114229 0.770169
0.085481 0.0752422 0.756848
0.26508 0.0708629 0.755764
0.440696 0.0695354 0.755566
0.618097 0.0677348 0.755291
0.756024 0.0652628 0.7458
0.863264 0.0550698 0.72462
0.956817 0.0429999 0.705898
0.00198367 0.275257 0.769848
0.00198367 0.275257 0.769848
0.0697795 0.242725 0.755596
0.191943 0.182467 0.743297
0.387747 0.17882 0.742443
0.586587 0.177783 0.742153
0.741833 0.176745 0.733989
0.849989 0.166339 0.704784
0.94403 0.152255 0.680537
0 0.441016 0.769406
0 0.441016 0.769406
0.0666361 0.414176 0.755108
0.177874 0.367437 0.742184
0.323064 0.315404 0.732006
0.549615 0.312001 0.730922
0.729412 0.311925 0.723796
0.839231 0.299535 0.686061
0.933669 0.278019 0.655482
0 0.611963 0.768765
0 0.611963 0.768765
0.0621347 0.593042 0.754467
0.175418 0.566567 0.741482
0.310948 0.534295 0.730495
0.501015 0.496559 0.716976
0.713039 0.494881 0.710246
0.827497 0.476295 0.668971
0.923476 0.442771 0.633677
0 0.757153 0.76965
0 0.757153 0.76965
0.0554055 0.744442 0.754711
0.171359 0.732723 0.740627
0.306859 0.722713 0.728481
0.48983 0.709316 0.712612
0.684443 0.686137 0.686137
0.812802 0.665431 0.662882
0.91284 0.634531 0.628809
0 0.875288 0.767681
0 0.875288 0.767681
0.0380102 0.861891 0.747433
0.153109 0.848753 0.722652
0.277134 0.83856 0.69781
0.439124 0.82797 0.66865
0.632151 0.815259 0.635782
0.810391 0.813138 0.629358
0.911742 0.789258 0.626841
0 0.966186 0.754482
0 0.966186 0.754482
0.0207523 0.955444 0.732876
0.135698 0.942763 0.702296
0.252293 0.932631 0.66952
0.399466 0.923049 0.631266
0.582834 0.913573 0.590066
0.764584 0.912825 0.581888
0.908278 0.912505 0.580987
0.0113375 0.00300603 0.877653
0.0113375 0.00300603 0.877653
0.127077 0.00247196 0.877623
0.290959 0.000976577 0.877531
0.459571 0 0.877394
0.62884 0 0.877195
0.770001 0 0.876967
0.877745 0 0.865125
0.967529 0 0.848859
0.0113375 0.00300603 0.877653
0.0113375 0.00300603 0.877653
0.127077 0.00247196 0.877623
0.290959 0.000976577 0.877531
0.459571 0 0.877394
0.62884 0 0.877195
0.770001 0 0.876967
0.877745 0 0.865125
0.967529 0 0.848859
0.00196841 0.10338 0.877592
0.00196841 0.10338 0.877592
0.0788891 0.066804 0.865141
0.2533 0.0627909 0.864134
0.424506 0.0614176 0.863996
0.601556 0.0595254 0.863798
0.749798 0.057023 0.863554
0.864073 0.0539864 0.853361
0.956847 0.0426184 0.836347
0 0.259632 0.877379
0 0.259632 0.877379
0.0617533 0.226871 0.864027
0.178988 0.167041 0.851652
0.366796 0.163897 0.850858
0.560922 0.16289 0.85066
0.725017 0.161578 0.850416
0.850462 0.16025 0.841825
0.94406 0.149523 0.819348
0 0.421698 0.877073
0 0.421698 0.877073
0.0585489 0.393194 0.863706
0.163027 0.341421 0.85069
0.297261 0.286625 0.841199
0.512489 0.28365 0.84036
0.700114 0.282673 0.840085
0.839658 0.282261 0.832807
0.933745 0.270039 0.803662
0 0.593256 0.8766
0 0.593256 0.8766
0.0538949 0.570764 0.863264
0.160647 0.534585 0.850217
0.282719 0.490303 0.840101
0.453437 0.445121 0.830289
0.670787 0.442817 0.829328
0.828336 0.442969 0.823453
0.923766 0.427283 0.788571
0 0.739528 0.876066
0 0.739528 0.876066
0.0473945 0.723705 0.862669
0.157473 0.70341 0.849607
0.280339 0.682399 0.839429
0.441718 0.657633 0.828916
0.637461 0.633844 0.816251
0.813993 0.633021 0.811505
0.912993 0.614115 0.776043
0 0.863737 0.876432
0 0.863706 0.876402
0.0385595 0.851987 0.86273
0.153048 0.840528 0.84918
0.276631 0.831617 0.838529
0.438071 0.822507 0.827497
0.630045 0.810819 0.813535
0.79115 0.791852 0.791852
0.900328 0.774792 0.772549
0 0.966186 0.875975
0 0.966186 0.875975
0.0207523 0.955444 0.859724
0.135698 0.942763 0.838651
0.252293 0.932631 0.818906
0.399466 0.923049 0.797955
0.582559 0.913069 0.775738
0.751919 0.901732 0.754788
0.898802 0.900969 0.751232
0.00933852 0 0.968475
0.00933852 0 0.968475
0.120226 0 0.96846
0.280324 0 0.968383
0.445747 0 0.968277
0.615442 0 0.968154
0.758007 0 0.968002
0.878141 0 0.967742
0.967529 0 0.955169
0.00933852 0 0.968475
0.00933852 0 0.968475
0.120226 0 0.96846
0.280324 0 0.968383
0.445747 0 0.968277
0.615442 0 0.968154
0.758007 0 0.968002
0.878141 0 0.967742
0.967529 0 0.955169
0 0.0939651 0.968429
0 0.0939651 0.968429
0.0727703 0.0589761 0.958602
0.242786 0.0553902 0.957671
0.410254 0.0539712 0.957595
0.58674 0.0519875 0.957443
0.736507 0.0493019 0.957259
0.861921 0.0458534 0.957046
0.956847 0.0421302 0.946075
0 0.245319 0.968277
0 0.245319 0.968277
0.0543832 0.212497 0.95761
0.168505 0.154208 0.945647
0.350591 0.151568 0.944884
0.540673 0.150546 0.944732
0.706081 0.149248 0.944564
0.840864 0.14757 0.944335
0.944091 0.146075 0.935103
0 0.403326 0.968063
0 0.403326 0.968063
0.0511025 0.374273 0.957382
0.150744 0.320363 0.944762
0.278126 0.264698 0.935347
0.485023 0.262242 0.934585
0.673426 0.261265 0.934386
0.821103 0.260075 0.934142
0.933883 0.25951 0.926345
0 0.574289 0.967742
0 0.574289 0.967742
0.0462348 0.550103 0.957076
0.148379 0.508019 0.944457
0.261341 0.456596 0.934386
0.419394 0.407813 0.925475
0.635218 0.405905 0.924712
0.800015 0.404929 0.924468
0.924163 0.405127 0.918196
0 0.722805 0.967346
0 0.722805 0.967346
0.0395666 0.705516 0.956664
0.145251 0.679255 0.94403
0.259068 0.650034 0.933959
0.404944 0.615641 0.924453
0.593866 0.586694 0.915038
0.777539 0.585702 0.914275
0.913909 0.586145 0.909728
0 0.847837 0.966873
0 0.847837 0.966873
0.030869 0.835325 0.956146
0.141238 0.818219 0.943496
0.256138 0.801801 0.933394
0.402548 0.784375 0.923858
0.584772 0.766308 0.913909
0.756085 0.753231 0.902556
0.901793 0.75314 0.899626
0 0.953826 0.966247
0 0.953826 0.966247
0.0218509 0.944732 0.955535
0.136202 0.933791 0.942824
0.252552 0.925139 0.932677
0.399634 0.917144 0.923079
0.582635 0.908919 0.9131
0.751797 0.899168 0.90135
0.884581 0.884581 0.884581
